; G-Code generated by Simplify3D(R) Version 4.0.0
; Nov 3, 2018 at 7:07:02 PM
; Settings Summary
;   processName,Process1
;   applyToModels,16 - folding stock
;   profileName,Travis_Fletchers_Ultimate_PETG_Profile_v2 (modified)
;   profileVersion,2018-10-27 09:00:55
;   baseProfile,Creality CR-10
;   printMaterial,PETG
;   printQuality,Fast
;   printExtruders,
;   extruderName,Primary Extruder
;   extruderToolheadNumber,0
;   extruderDiameter,0.4
;   extruderAutoWidth,1
;   extruderWidth,0.48
;   extrusionMultiplier,0.99
;   extruderUseRetract,1
;   extruderRetractionDistance,6.5
;   extruderExtraRestartDistance,-0.2
;   extruderRetractionZLift,0
;   extruderRetractionSpeed,3600
;   extruderUseCoasting,1
;   extruderCoastingDistance,0.2
;   extruderUseWipe,0
;   extruderWipeDistance,4
;   primaryExtruder,0
;   layerHeight,0.3
;   topSolidLayers,3
;   bottomSolidLayers,3
;   perimeterOutlines,3
;   printPerimetersInsideOut,1
;   startPointOption,3
;   startPointOriginX,0
;   startPointOriginY,500
;   sequentialIslands,0
;   spiralVaseMode,0
;   firstLayerHeightPercentage,130
;   firstLayerWidthPercentage,120
;   firstLayerUnderspeed,0.6
;   useRaft,0
;   raftExtruder,0
;   raftTopLayers,3
;   raftBaseLayers,2
;   raftOffset,3
;   raftSeparationDistance,0.14
;   raftTopInfill,100
;   aboveRaftSpeedMultiplier,0.3
;   useSkirt,1
;   skirtExtruder,0
;   skirtLayers,1
;   skirtOutlines,2
;   skirtOffset,0.2
;   usePrimePillar,0
;   primePillarExtruder,999
;   primePillarWidth,12
;   primePillarLocation,7
;   primePillarSpeedMultiplier,1
;   useOozeShield,0
;   oozeShieldExtruder,999
;   oozeShieldOffset,2
;   oozeShieldOutlines,1
;   oozeShieldSidewallShape,1
;   oozeShieldSidewallAngle,30
;   oozeShieldSpeedMultiplier,1
;   infillExtruder,0
;   internalInfillPattern,Grid
;   externalInfillPattern,Rectilinear
;   infillPercentage,15
;   outlineOverlapPercentage,35
;   infillExtrusionWidthPercentage,120
;   minInfillLength,4
;   infillLayerInterval,1
;   internalInfillAngles,45,-45
;   overlapInternalInfillAngles,1
;   externalInfillAngles,45,-45
;   generateSupport,1
;   supportExtruder,0
;   supportInfillPercentage,40
;   supportExtraInflation,1
;   supportBaseLayers,0
;   denseSupportExtruder,0
;   denseSupportLayers,0
;   denseSupportInfillPercentage,60
;   supportLayerInterval,1
;   supportHorizontalPartOffset,0.3
;   supportUpperSeparationLayers,2
;   supportLowerSeparationLayers,1
;   supportType,0
;   supportGridSpacing,3.5
;   maxOverhangAngle,45
;   supportAngles,0
;   temperatureName,Heated Bed,Primary Extruder
;   temperatureNumber,0,0
;   temperatureSetpointCount,1,1
;   temperatureSetpointLayers,1,1
;   temperatureSetpointTemperatures,85,240
;   temperatureStabilizeAtStartup,1,1
;   temperatureHeatedBed,1,0
;   temperatureRelayBetweenLayers,0,0
;   temperatureRelayBetweenLoops,0,0
;   fanLayers,1,2,3
;   fanSpeeds,0,25,35
;   blipFanToFullPower,0
;   adjustSpeedForCooling,1
;   minSpeedLayerTime,20
;   minCoolingSpeedSlowdown,30
;   increaseFanForCooling,1
;   minFanLayerTime,30
;   maxCoolingFanSpeed,50
;   increaseFanForBridging,1
;   bridgingFanSpeed,100
;   use5D,1
;   relativeEdistances,0
;   allowEaxisZeroing,1
;   independentExtruderAxes,0
;   includeM10123,0
;   stickySupport,1
;   applyToolheadOffsets,0
;   gcodeXoffset,0
;   gcodeYoffset,0
;   gcodeZoffset,0
;   overrideMachineDefinition,1
;   machineTypeOverride,0
;   strokeXoverride,230
;   strokeYoverride,230
;   strokeZoverride,250
;   originOffsetXoverride,0
;   originOffsetYoverride,0
;   originOffsetZoverride,0
;   homeXdirOverride,-1
;   homeYdirOverride,-1
;   homeZdirOverride,-1
;   flipXoverride,1
;   flipYoverride,-1
;   flipZoverride,1
;   toolheadOffsets,0,0|0,0|0,0|0,0|0,0|0,0
;   overrideFirmwareConfiguration,1
;   firmwareTypeOverride,RepRap (Marlin/Repetier/Sprinter)
;   GPXconfigOverride,r2
;   baudRateOverride,115200
;   overridePrinterModels,1
;   printerModelsOverride
;   startingGcode,G28 ; home all axes,M117 Purging Extruder...,M204 P500 T1000,M205 X10 Y10 ; set jerk x/y=10,G1 Z1.0 F3000 ; lift Z,G1 X0.2 Y25 Z0.2 F3000.0 ; move to start-line position,G92 E0 ; reset extruder,G1 X0.2 Y150.0 F1000.0 E15 ; draw 1st line,G1 X0.7 Y150.0 F3000.0 ; move to side 0.5mm,G1 X0.7 Y50 F1000.0 E30 ; draw 2nd line,G1 X0.7 Y25 F5000.0 ; quick wipe,M117 Printing!,,; Default S3D CR-10 Startup,; G28 ; home all axes,; G1 Z5 F3000 ; lift,; G1 X20 Y2 F1500 ; avoid binder clips,; G1 Z0.2 F3000 ; get ready to prime,; G92 E0 ; reset extrusion distance,; G1 X120 E10 F600 ; prime nozzle,; G1 X150 F5000 ; quick wipe,
;   layerChangeGcode,
;   retractionGcode,
;   toolChangeGcode,
;   endingGcode,M117 Print Complete!,M104 S0 ; turn off extruder,M140 S0 ; turn off bed,G1 X0 Y295 F1000 ; move finished print out front,M84 ; disable motors,M106 S0 ; turn off cooling fan,,; play song,M300 S294 P200 ;D4: 294,M300 S588 P200 ;D5: 588,M300 S440 P200 ;A4: 440,M300 S392 P200 ;G4: 392,M300 S784 P200 ;G5: 784,M300 S440 P200 ;A4: 440,M300 S740 P200 ;F#5: 740,M300 S440 P200 ;A4: 440,,; Default S3D CR-10 Ending Script,; G28 X0 ; home x axis,; M106 S0 ; turn off cooling fan,; M104 S0 ; turn off extruder,; M140 S0 ; turn off bed,; M84 ; disable motors,
;   exportFileFormat,gcode
;   celebration,0
;   celebrationSong,Star Wars
;   postProcessing,,
;   defaultSpeed,2000
;   outlineUnderspeed,0.8
;   solidInfillUnderspeed,0.9
;   supportUnderspeed,1
;   rapidXYspeed,9000
;   rapidZspeed,1002
;   minBridgingArea,50
;   bridgingExtraInflation,0
;   bridgingExtrusionMultiplier,0.9
;   bridgingSpeedMultiplier,1
;   useFixedBridgingAngle,0
;   fixedBridgingAngle,0
;   applyBridgingToPerimeters,0
;   filamentDiameters,1.75|1.75|1.75|1.75|1.75|1.75
;   filamentPricesPerKg,46|46|46|46|46|46
;   filamentDensities,1.25|1.25|1.25|1.25|1.25|1.25
;   useMinPrintHeight,0
;   minPrintHeight,0
;   useMaxPrintHeight,0
;   maxPrintHeight,0
;   useDiaphragm,0
;   diaphragmLayerInterval,20
;   robustSlicing,1
;   mergeAllIntoSolid,0
;   onlyRetractWhenCrossingOutline,0
;   retractBetweenLayers,1
;   useRetractionMinTravel,1
;   retractionMinTravel,3
;   retractWhileWiping,1
;   onlyWipeOutlines,1
;   avoidCrossingOutline,1
;   maxMovementDetourFactor,3
;   toolChangeRetractionDistance,12
;   toolChangeExtraRestartDistance,-0.5
;   toolChangeRetractionSpeed,600
;   externalThinWallType,0
;   internalThinWallType,2
;   thinWallAllowedOverlapPercentage,15
;   singleExtrusionMinLength,1
;   singleExtrusionMinPrintingWidthPercentage,50
;   singleExtrusionMaxPrintingWidthPercentage,200
;   singleExtrusionEndpointExtension,0.2
;   horizontalSizeCompensation,0
G90
M82
M106 S0
M140 S85
M190 S85
M104 S240 T0
M109 S240 T0
G28 ; home all axes
M117 Purging Extruder...
M204 P500 T1000
M205 X10 Y10 ; set jerk x/y=10
G1 Z1.0 F3000 ; lift Z
G1 X0.2 Y25 Z0.2 F3000.0 ; move to start-line position
G92 E0 ; reset extruder
G1 X0.2 Y150.0 F1000.0 E15 ; draw 1st line
G1 X0.7 Y150.0 F3000.0 ; move to side 0.5mm
G1 X0.7 Y50 F1000.0 E30 ; draw 2nd line
G1 X0.7 Y25 F5000.0 ; quick wipe
M117 Printing!
; Default S3D CR-10 Startup
; G28 ; home all axes
; G1 Z5 F3000 ; lift
; G1 X20 Y2 F1500 ; avoid binder clips
; G1 Z0.2 F3000 ; get ready to prime
; G92 E0 ; reset extrusion distance
; G1 X120 E10 F600 ; prime nozzle
; G1 X150 F5000 ; quick wipe
G92 E0
G1 E-6.5000 F3600
G1 Z0.390 F1002
; process Process1
; layer 1, Z = 0.390
T0
; tool H0.390 W0.576
; skirt
G1 X111.220 Y57.289 F9000
G1 E-0.2000 F1080
G92 E0
G1 X111.539 Y56.970 E0.0418 F1200
G1 X111.804 Y56.860 E0.0683
G1 X114.610 Y56.860 E0.3277
G1 X114.610 Y54.054 E0.5872
G1 X114.720 Y53.789 E0.6137
G1 X115.039 Y53.470 E0.6555
G1 X115.304 Y53.360 E0.6820
G1 X121.610 Y53.360 E1.2650
G1 X121.610 Y47.054 E1.8481
G1 X121.720 Y46.789 E1.8746
G1 X122.039 Y46.470 E1.9164
G1 X122.304 Y46.360 E1.9429
G1 X125.110 Y46.360 E2.2023
G1 X125.110 Y33.054 E3.4326
G1 X125.220 Y32.789 E3.4591
G1 X125.539 Y32.470 E3.5009
G1 X125.804 Y32.360 E3.5274
G1 X128.610 Y32.360 E3.7868
G1 X128.610 Y15.554 E5.3407
G1 X128.720 Y15.289 E5.3672
G1 X129.039 Y14.970 E5.4090
G1 X129.304 Y14.860 E5.4355
G1 X132.110 Y14.860 E5.6949
G1 X132.110 Y1.554 E6.9252
G1 X132.220 Y1.289 E6.9517
G1 X132.539 Y0.970 E6.9935
G1 X132.804 Y0.860 E7.0200
G1 X139.196 Y0.860 E7.6110
G1 X139.461 Y0.970 E7.6375
G1 X139.780 Y1.289 E7.6793
G1 X139.890 Y1.554 E7.7058
G1 X139.890 Y14.946 E8.9440
G1 X139.780 Y15.211 E8.9705
G1 X139.461 Y15.530 E9.0123
G1 X139.196 Y15.640 E9.0388
G1 X136.390 Y15.640 E9.2982
G1 X136.390 Y32.446 E10.8521
G1 X136.280 Y32.711 E10.8786
G1 X135.961 Y33.030 E10.9204
G1 X135.696 Y33.140 E10.9469
G1 X132.890 Y33.140 E11.2064
G1 X132.890 Y46.446 E12.4366
G1 X132.780 Y46.711 E12.4631
G1 X132.461 Y47.030 E12.5049
G1 X132.196 Y47.140 E12.5314
G1 X129.390 Y47.140 E12.7909
G1 X129.390 Y56.946 E13.6975
G1 X129.280 Y57.211 E13.7240
G1 X128.961 Y57.530 E13.7658
G1 X128.696 Y57.640 E13.7923
G1 X125.890 Y57.640 E14.0518
G1 X125.890 Y60.446 E14.3112
G1 X125.780 Y60.711 E14.3377
G1 X125.461 Y61.030 E14.3795
G1 X125.196 Y61.140 E14.4060
G1 X118.890 Y61.140 E14.9890
G1 X118.890 Y63.946 E15.2485
G1 X118.780 Y64.211 E15.2750
G1 X118.461 Y64.530 E15.3168
G1 X118.196 Y64.640 E15.3433
G1 X115.390 Y64.640 E15.6027
G1 X115.390 Y70.946 E16.1858
G1 X115.280 Y71.211 E16.2122
G1 X114.961 Y71.530 E16.2541
G1 X114.696 Y71.640 E16.2805
G1 X111.890 Y71.640 E16.5400
G1 X111.890 Y84.946 E17.7703
G1 X111.780 Y85.211 E17.7968
G1 X111.461 Y85.530 E17.8386
G1 X111.196 Y85.640 E17.8650
G1 X108.390 Y85.640 E18.1245
G1 X108.390 Y95.360 E19.0232
G1 X111.196 Y95.360 E19.2827
G1 X111.461 Y95.470 E19.3091
G1 X111.780 Y95.789 E19.3509
G1 X111.890 Y96.054 E19.3774
G1 X111.890 Y105.946 E20.2921
G1 X111.780 Y106.211 E20.3185
G1 X111.461 Y106.530 E20.3603
G1 X111.196 Y106.640 E20.3868
G1 X104.890 Y106.640 E20.9699
G1 X104.890 Y116.446 E21.8766
G1 X104.780 Y116.711 E21.9030
G1 X104.461 Y117.030 E21.9449
G1 X104.196 Y117.140 E21.9713
G1 X101.390 Y117.140 E22.2308
G1 X101.390 Y133.946 E23.7847
G1 X101.280 Y134.211 E23.8112
G1 X100.961 Y134.530 E23.8530
G1 X100.696 Y134.640 E23.8795
G1 X97.890 Y134.640 E24.1389
G1 X97.890 Y151.446 E25.6928
G1 X97.780 Y151.711 E25.7193
G1 X97.461 Y152.030 E25.7611
G1 X97.196 Y152.140 E25.7876
G1 X94.390 Y152.140 E26.0470
G1 X94.390 Y168.946 E27.6009
G1 X94.280 Y169.211 E27.6274
G1 X93.961 Y169.530 E27.6692
G1 X93.696 Y169.640 E27.6957
G1 X90.890 Y169.640 E27.9551
G1 X90.890 Y182.946 E29.1854
G1 X90.780 Y183.211 E29.2119
G1 X90.461 Y183.530 E29.2537
G1 X90.196 Y183.640 E29.2802
G1 X83.804 Y183.640 E29.8712
G1 X83.539 Y183.530 E29.8977
G1 X83.220 Y183.211 E29.9395
G1 X83.110 Y182.946 E29.9660
G1 X83.110 Y169.554 E31.2042
G1 X83.220 Y169.289 E31.2307
G1 X83.539 Y168.970 E31.2725
G1 X83.804 Y168.860 E31.2990
G1 X86.610 Y168.860 E31.5584
G1 X86.610 Y152.054 E33.1123
G1 X86.720 Y151.789 E33.1388
G1 X87.039 Y151.470 E33.1806
G1 X87.304 Y151.360 E33.2071
G1 X90.110 Y151.360 E33.4666
G1 X90.110 Y134.554 E35.0205
G1 X90.220 Y134.289 E35.0470
G1 X90.539 Y133.970 E35.0888
G1 X90.804 Y133.860 E35.1152
G1 X93.610 Y133.860 E35.3747
G1 X93.610 Y117.054 E36.9286
G1 X93.720 Y116.789 E36.9551
G1 X94.039 Y116.470 E36.9969
G1 X94.304 Y116.360 E37.0234
G1 X97.110 Y116.360 E37.2828
G1 X97.110 Y103.054 E38.5131
G1 X97.220 Y102.789 E38.5396
G1 X97.539 Y102.470 E38.5814
G1 X97.804 Y102.360 E38.6079
G1 X100.610 Y102.360 E38.8673
G1 X100.610 Y85.554 E40.4212
G1 X100.720 Y85.289 E40.4477
G1 X101.039 Y84.970 E40.4895
G1 X101.304 Y84.860 E40.5160
G1 X104.110 Y84.860 E40.7754
G1 X104.110 Y71.554 E42.0057
G1 X104.220 Y71.289 E42.0322
G1 X104.539 Y70.970 E42.0740
G1 X104.804 Y70.860 E42.1005
G1 X107.610 Y70.860 E42.3599
G1 X107.610 Y64.554 E42.9430
G1 X107.720 Y64.289 E42.9695
G1 X108.039 Y63.970 E43.0113
G1 X108.304 Y63.860 E43.0378
G1 X111.110 Y63.860 E43.2972
G1 X111.110 Y57.554 E43.8803
G1 X111.143 Y57.474 E43.8883
G1 X111.220 Y57.289 F1200
G92 E0
G1 E-6.5000 F3600
G1 X144.149 Y59.043 F9000
G1 E-0.2000 F3600
G92 E0
G1 X144.481 Y58.690 E0.0449 F1200
G1 X145.259 Y58.559 E0.1178
G1 X145.689 Y58.784 E0.1627
G1 X146.601 Y60.730 E0.3614
G1 X148.247 Y64.005 E0.7003
G1 X148.248 Y64.008 E0.7005
G1 X148.251 Y64.014 E0.7012
G1 X148.254 Y64.019 E0.7017
G1 X148.957 Y65.507 E0.8539
G1 X148.960 Y65.514 E0.8546
G1 X148.965 Y65.525 E0.8557
G1 X148.967 Y65.531 E0.8563
G1 X149.628 Y67.089 E1.0128
G1 X149.631 Y67.096 E1.0135
G1 X149.636 Y67.107 E1.0146
G1 X149.638 Y67.115 E1.0154
G1 X150.040 Y68.190 E1.1214
G1 X150.043 Y68.198 E1.1223
G1 X150.048 Y68.212 E1.1236
G1 X150.051 Y68.221 E1.1245
G1 X150.576 Y69.885 E1.2859
G1 X150.578 Y69.895 E1.2868
G1 X150.583 Y69.910 E1.2883
G1 X150.585 Y69.920 E1.2892
G1 X150.880 Y71.073 E1.3992
G1 X150.882 Y71.082 E1.4001
G1 X150.885 Y71.095 E1.4013
G1 X150.886 Y71.102 E1.4020
G1 X151.130 Y72.286 E1.5138
G1 X151.132 Y72.297 E1.5148
G1 X151.135 Y72.313 E1.5163
G1 X151.137 Y72.323 E1.5172
G1 X151.404 Y74.155 E1.6884
G1 X151.405 Y74.165 E1.6893
G1 X151.407 Y74.181 E1.6908
G1 X151.408 Y74.191 E1.6918
G1 X151.520 Y75.473 E1.8107
G1 X151.521 Y75.483 E1.8116
G1 X151.522 Y75.498 E1.8131
G1 X151.522 Y75.508 E1.8140
G1 X151.585 Y77.459 E1.9945
G1 X151.585 Y77.469 E1.9954
G1 X151.585 Y77.483 E1.9967
G1 X151.585 Y77.493 E1.9976
G1 X151.558 Y78.837 E2.1219
G1 X151.558 Y78.846 E2.1227
G1 X151.557 Y78.860 E2.1240
G1 X151.557 Y78.868 E2.1248
G1 X151.414 Y80.934 E2.3163
G1 X151.413 Y80.943 E2.3171
G1 X151.412 Y80.955 E2.3182
G1 X151.411 Y80.963 E2.3190
G1 X151.248 Y82.383 E2.4511
G1 X151.247 Y82.391 E2.4518
G1 X151.245 Y82.402 E2.4529
G1 X151.244 Y82.410 E2.4536
G1 X150.899 Y84.590 E2.6577
G1 X150.897 Y84.598 E2.6585
G1 X150.895 Y84.612 E2.6598
G1 X150.893 Y84.622 E2.6607
G1 X146.610 Y104.924 E4.5791
G1 X146.388 Y105.195 E4.6115
G1 X145.878 Y105.416 E4.6629
G1 X145.529 Y105.393 E4.6953
G1 X143.390 Y104.099 E4.9264
G1 X143.390 Y105.860 E5.0892
G1 X146.196 Y105.860 E5.3486
G1 X146.461 Y105.970 E5.3751
G1 X146.780 Y106.289 E5.4169
G1 X146.890 Y106.554 E5.4434
G1 X146.890 Y119.946 E6.6816
G1 X146.780 Y120.211 E6.7081
G1 X146.461 Y120.530 E6.7499
G1 X146.196 Y120.640 E6.7764
G1 X143.390 Y120.640 E7.0358
G1 X143.390 Y137.446 E8.5897
G1 X143.280 Y137.711 E8.6162
G1 X142.961 Y138.030 E8.6580
G1 X142.696 Y138.140 E8.6845
G1 X139.890 Y138.140 E8.9440
G1 X139.890 Y151.446 E10.1742
G1 X139.780 Y151.711 E10.2007
G1 X139.461 Y152.030 E10.2425
G1 X139.196 Y152.140 E10.2690
G1 X132.804 Y152.140 E10.8600
G1 X132.539 Y152.030 E10.8865
G1 X132.220 Y151.711 E10.9283
G1 X132.110 Y151.446 E10.9548
G1 X132.110 Y138.054 E12.1931
G1 X132.220 Y137.789 E12.2195
G1 X132.539 Y137.470 E12.2613
G1 X132.804 Y137.360 E12.2878
G1 X135.610 Y137.360 E12.5473
G1 X135.610 Y120.554 E14.1012
G1 X135.720 Y120.289 E14.1277
G1 X136.039 Y119.970 E14.1695
G1 X136.304 Y119.860 E14.1959
G1 X139.110 Y119.860 E14.4554
G1 X139.110 Y113.640 E15.0305
G1 X136.304 Y113.640 E15.2899
G1 X136.039 Y113.530 E15.3164
G1 X135.720 Y113.211 E15.3582
G1 X135.610 Y112.946 E15.3847
G1 X135.610 Y103.054 E16.2993
G1 X135.720 Y102.789 E16.3258
G1 X136.039 Y102.470 E16.3676
G1 X136.304 Y102.360 E16.3941
G1 X142.624 Y102.360 E16.9785
G1 X146.555 Y83.727 E18.7392
G1 X147.000 Y80.559 E19.0350
G1 X147.095 Y79.517 E19.1317
G1 X147.152 Y78.470 E19.2287
G1 X147.166 Y77.417 E19.3260
G1 X147.110 Y75.836 E19.4723
G1 X147.019 Y74.788 E19.5696
G1 X146.885 Y73.750 E19.6664
G1 X146.706 Y72.720 E19.7630
G1 X146.345 Y71.190 E19.9084
G1 X146.045 Y70.196 E20.0044
G1 X145.509 Y68.714 E20.1501
G1 X144.664 Y66.764 E20.3466
G1 X143.657 Y64.711 E20.5580
G1 X143.626 Y64.615 E20.5674
G1 X143.598 Y64.460 E20.5819
G1 X143.595 Y64.359 E20.5912
G1 X144.129 Y59.242 E21.0669
G1 X144.149 Y59.043 F1200
G92 E0
G1 E-6.5000 F3600
G1 X148.480 Y30.527 F9000
G1 E-0.2000 F3600
G92 E0
G1 X147.538 Y30.378 E0.0882 F1200
G1 X147.187 Y29.923 E0.1414
G1 X149.731 Y5.541 E2.4079
G1 X149.883 Y5.276 E2.4362
G1 X150.275 Y4.991 E2.4810
G1 X150.574 Y4.927 E2.5093
G1 X153.448 Y5.533 E2.7809
G1 X153.685 Y5.695 E2.8074
G1 X153.931 Y6.074 E2.8492
G1 X153.984 Y6.356 E2.8757
G1 X148.953 Y30.200 E5.1289
G1 X148.645 Y30.413 E5.1635
G1 X148.480 Y30.527 F1200
G92 E0
