; G-Code generated by Simplify3D(R) Version 3.1.1
; Dec 9, 2018 at 4:50:27 PM
; Settings Summary
;   processName,Process1
;   applyToModels,3DBenchy
;   profileName,ABS (modified)
;   profileVersion,2018-11-19 00:15:08
;   baseProfile,Creality CR-10
;   printMaterial,PETG
;   printQuality,Fast
;   printExtruders,
;   extruderName,Primary Extruder
;   extruderToolheadNumber,0
;   extruderDiameter,0.4
;   extruderAutoWidth,1
;   extruderWidth,0.48
;   extrusionMultiplier,0.98
;   extruderUseRetract,1
;   extruderRetractionDistance,6.5
;   extruderExtraRestartDistance,-0.2
;   extruderRetractionZLift,0
;   extruderRetractionSpeed,3600
;   extruderUseCoasting,1
;   extruderCoastingDistance,0.2
;   extruderUseWipe,0
;   extruderWipeDistance,4
;   primaryExtruder,0
;   layerHeight,0.3
;   topSolidLayers,3
;   bottomSolidLayers,3
;   perimeterOutlines,3
;   printPerimetersInsideOut,1
;   startPointOption,3
;   startPointOriginX,0
;   startPointOriginY,500
;   startPointOriginZ,0
;   sequentialIslands,0
;   spiralVaseMode,0
;   firstLayerHeightPercentage,130
;   firstLayerWidthPercentage,120
;   firstLayerUnderspeed,0.6
;   useRaft,0
;   raftExtruder,0
;   raftLayers,3
;   raftOffset,3
;   raftSeparationDistance,0.14
;   raftInfill,85
;   disableRaftBaseLayers,0
;   useSkirt,1
;   skirtExtruder,0
;   skirtLayers,1
;   skirtOutlines,3
;   skirtOffset,0.4
;   usePrimePillar,0
;   primePillarExtruder,999
;   primePillarWidth,12
;   primePillarLocation,7
;   primePillarSpeedMultiplier,1
;   useOozeShield,0
;   oozeShieldExtruder,999
;   oozeShieldOffset,2
;   oozeShieldOutlines,1
;   oozeShieldSidewallShape,1
;   oozeShieldSidewallAngle,30
;   oozeShieldSpeedMultiplier,1
;   infillExtruder,0
;   internalInfillPattern,Triangular
;   externalInfillPattern,Rectilinear
;   infillPercentage,20
;   outlineOverlapPercentage,35
;   infillExtrusionWidthPercentage,120
;   minInfillLength,4
;   infillLayerInterval,1
;   infillAngles,45,-45
;   overlapInfillAngles,1
;   generateSupport,1
;   supportExtruder,0
;   supportInfillPercentage,28
;   supportExtraInflation,1
;   denseSupportLayers,0
;   denseSupportInfillPercentage,60
;   supportLayerInterval,1
;   supportHorizontalPartOffset,0.3
;   supportUpperSeparationLayers,2
;   supportLowerSeparationLayers,1
;   supportType,0
;   supportGridSpacing,3.5
;   maxOverhangAngle,45
;   supportAngles,0
;   temperatureName,Heated Bed,Primary Extruder
;   temperatureNumber,0,0
;   temperatureSetpointCount,1,1
;   temperatureSetpointLayers,1,1
;   temperatureSetpointTemperatures,85,245
;   temperatureStabilizeAtStartup,1,1
;   temperatureHeatedBed,1,0
;   temperatureRelayBetweenLayers,0,0
;   temperatureRelayBetweenLoops,0,0
;   fanLayers,1,2,3
;   fanSpeeds,0,0,0
;   blipFanToFullPower,0
;   adjustSpeedForCooling,1
;   minSpeedLayerTime,20
;   minCoolingSpeedSlowdown,30
;   increaseFanForCooling,0
;   minFanLayerTime,30
;   maxCoolingFanSpeed,50
;   increaseFanForBridging,0
;   bridgingFanSpeed,100
;   use5D,1
;   relativeEdistances,0
;   allowEaxisZeroing,1
;   independentExtruderAxes,0
;   includeM10123,0
;   stickySupport,1
;   applyToolheadOffsets,0
;   gcodeXoffset,0
;   gcodeYoffset,0
;   gcodeZoffset,0
;   overrideMachineDefinition,1
;   machineTypeOverride,0
;   strokeXoverride,230
;   strokeYoverride,230
;   strokeZoverride,255
;   originOffsetXoverride,0
;   originOffsetYoverride,0
;   originOffsetZoverride,0
;   homeXdirOverride,-1
;   homeYdirOverride,-1
;   homeZdirOverride,-1
;   flipXoverride,1
;   flipYoverride,-1
;   flipZoverride,1
;   toolheadOffsets,0,0|0,0|0,0|0,0|0,0|0,0
;   overrideFirmwareConfiguration,1
;   firmwareTypeOverride,RepRap (Marlin/Repetier/Sprinter)
;   GPXconfigOverride,r2
;   baudRateOverride,115200
;   overridePrinterModels,1
;   printerModelsOverride
;   startingGcode,G28 ; home all axes,M117 Purging Extruder...,M204 P500 T1000,M205 X10 Y10 ; set jerk x/y=10,G1 Z1.0 F3000 ; lift Z,G1 X0.2 Y25 Z0.2 F3000.0 ; move to start-line position,G92 E0 ; reset extruder,G1 X0.2 Y150.0 F1000.0 E15 ; draw 1st line,G1 X0.7 Y150.0 F3000.0 ; move to side 0.5mm,G1 X0.7 Y50 F1000.0 E30 ; draw 2nd line,G1 X0.7 Y25 F5000.0 ; quick wipe,M117 Printing!,,; Default S3D CR-10 Startup,; G28 ; home all axes,; G1 Z5 F3000 ; lift,; G1 X20 Y2 F1500 ; avoid binder clips,; G1 Z0.2 F3000 ; get ready to prime,; G92 E0 ; reset extrusion distance,; G1 X120 E10 F600 ; prime nozzle,; G1 X150 F5000 ; quick wipe,
;   layerChangeGcode,
;   retractionGcode,
;   toolChangeGcode,
;   endingGcode,M117 Print Complete!,M104 S0 ; turn off extruder,M140 S0 ; turn off bed,G1 X0 Y295 F1000 ; move finished print out front,M84 ; disable motors,M106 S0 ; turn off cooling fan,,; play song,M300 S294 P200 ;D4: 294,M300 S588 P200 ;D5: 588,M300 S440 P200 ;A4: 440,M300 S392 P200 ;G4: 392,M300 S784 P200 ;G5: 784,M300 S440 P200 ;A4: 440,M300 S740 P200 ;F#5: 740,M300 S440 P200 ;A4: 440,,; Default S3D CR-10 Ending Script,; G28 X0 ; home x axis,; M106 S0 ; turn off cooling fan,; M104 S0 ; turn off extruder,; M140 S0 ; turn off bed,; M84 ; disable motors,
;   exportFileFormat,gcode
;   celebration,0
;   celebrationSong,Star Wars
;   postProcessing,,
;   defaultSpeed,4000
;   outlineUnderspeed,0.8
;   solidInfillUnderspeed,0.9
;   supportUnderspeed,1
;   rapidXYspeed,9000
;   rapidZspeed,1002
;   minBridgingArea,50
;   bridgingExtraInflation,0
;   bridgingExtrusionMultiplier,0.9
;   bridgingSpeedMultiplier,1
;   filamentDiameter,1.75
;   filamentPricePerKg,46
;   filamentDensity,1.25
;   useMinPrintHeight,0
;   minPrintHeight,0
;   useMaxPrintHeight,0
;   maxPrintHeight,0
;   useDiaphragm,0
;   diaphragmLayerInterval,20
;   robustSlicing,1
;   mergeAllIntoSolid,0
;   onlyRetractWhenCrossingOutline,0
;   retractBetweenLayers,1
;   useRetractionMinTravel,1
;   retractionMinTravel,3
;   retractWhileWiping,1
;   onlyWipeOutlines,1
;   avoidCrossingOutline,1
;   maxMovementDetourFactor,3
;   toolChangeRetractionDistance,12
;   toolChangeExtraRestartDistance,-0.5
;   toolChangeRetractionSpeed,600
;   allowThinWallGapFill,1
;   thinWallAllowedOverlapPercentage,15
;   horizontalSizeCompensation,0
G90
M82
M106 S0
M140 S85
M190 S85
M104 S245 T0
M109 S245 T0
G28 ; home all axes
M117 Purging Extruder...
M204 P500 T1000
M205 X10 Y10 ; set jerk x/y=10
G1 Z1.0 F3000 ; lift Z
G1 X0.2 Y25 Z0.2 F3000.0 ; move to start-line position
G92 E0 ; reset extruder
G1 X0.2 Y150.0 F1000.0 E15 ; draw 1st line
G1 X0.7 Y150.0 F3000.0 ; move to side 0.5mm
G1 X0.7 Y50 F1000.0 E30 ; draw 2nd line
G1 X0.7 Y25 F5000.0 ; quick wipe
M117 Printing!
; Default S3D CR-10 Startup
; G28 ; home all axes
; G1 Z5 F3000 ; lift
; G1 X20 Y2 F1500 ; avoid binder clips
; G1 Z0.2 F3000 ; get ready to prime
; G92 E0 ; reset extrusion distance
; G1 X120 E10 F600 ; prime nozzle
; G1 X150 F5000 ; quick wipe
G92 E0
G1 E-6.5000 F3600
G1 Z0.390 F1002
; layer 1, Z = 0.39
T0
; tool H0.390 W0.576
; skirt
G1 X88.477 Y107.651 F9000
G1 E-0.2000 F1080
G92 E0
G1 X88.945 Y107.268 E0.0553 F2400
G1 X89.015 Y107.218 E0.0631
G1 X89.137 Y107.145 E0.0762
G1 X89.213 Y107.106 E0.0840
G1 X89.788 Y106.862 E0.1412
G1 X89.857 Y106.838 E0.1479
G1 X89.973 Y106.804 E0.1590
G1 X90.044 Y106.788 E0.1657
G1 X90.501 Y106.715 E0.2080
G1 X90.530 Y106.711 E0.2106
G1 X90.578 Y106.706 E0.2151
G1 X90.607 Y106.703 E0.2177
G1 X114.026 Y105.264 E2.3653
G1 X114.035 Y105.264 E2.3661
G1 X114.049 Y105.263 E2.3674
G1 X114.057 Y105.263 E2.3681
G1 X114.957 Y105.233 E2.4505
G1 X114.977 Y105.232 E2.4524
G1 X115.011 Y105.232 E2.4554
G1 X115.030 Y105.233 E2.4572
G1 X116.175 Y105.271 E2.5620
G1 X116.196 Y105.272 E2.5640
G1 X116.232 Y105.274 E2.5673
G1 X116.253 Y105.276 E2.5692
G1 X117.305 Y105.387 E2.6660
G1 X117.321 Y105.389 E2.6675
G1 X117.349 Y105.392 E2.6701
G1 X117.366 Y105.395 E2.6716
G1 X118.065 Y105.508 E2.7365
G1 X118.081 Y105.511 E2.7379
G1 X118.106 Y105.516 E2.7403
G1 X118.122 Y105.519 E2.7417
G1 X118.981 Y105.705 E2.8222
G1 X118.999 Y105.709 E2.8239
G1 X119.030 Y105.717 E2.8269
G1 X119.049 Y105.722 E2.8286
G1 X120.150 Y106.035 E2.9334
G1 X120.166 Y106.040 E2.9349
G1 X120.194 Y106.048 E2.9376
G1 X120.210 Y106.054 E2.9392
G1 X120.818 Y106.265 E2.9980
G1 X120.833 Y106.271 E2.9995
G1 X120.858 Y106.280 E3.0019
G1 X120.872 Y106.286 E3.0034
G1 X121.801 Y106.665 E3.0952
G1 X121.818 Y106.673 E3.0969
G1 X121.847 Y106.686 E3.0998
G1 X121.864 Y106.693 E3.1015
G1 X122.706 Y107.101 E3.1871
G1 X122.722 Y107.109 E3.1888
G1 X122.749 Y107.123 E3.1916
G1 X122.765 Y107.132 E3.1932
G1 X123.569 Y107.582 E3.2775
G1 X123.584 Y107.591 E3.2791
G1 X123.609 Y107.606 E3.2818
G1 X123.624 Y107.615 E3.2834
G1 X124.394 Y108.107 E3.3671
G1 X124.410 Y108.118 E3.3689
G1 X124.438 Y108.137 E3.3719
G1 X124.455 Y108.149 E3.3738
G1 X125.389 Y108.838 E3.4801
G1 X125.405 Y108.851 E3.4819
G1 X125.431 Y108.871 E3.4850
G1 X125.446 Y108.884 E3.4868
G1 X126.136 Y109.468 E3.5695
G1 X126.149 Y109.480 E3.5711
G1 X126.171 Y109.499 E3.5738
G1 X126.184 Y109.511 E3.5754
G1 X126.813 Y110.110 E3.6549
G1 X126.825 Y110.122 E3.6565
G1 X126.845 Y110.142 E3.6591
G1 X126.857 Y110.155 E3.6607
G1 X127.511 Y110.854 E3.7483
G1 X127.525 Y110.869 E3.7501
G1 X127.547 Y110.894 E3.7532
G1 X127.560 Y110.909 E3.7550
G1 X128.268 Y111.776 E3.8575
G1 X128.281 Y111.792 E3.8593
G1 X128.302 Y111.819 E3.8625
G1 X128.314 Y111.835 E3.8643
G1 X128.897 Y112.657 E3.9566
G1 X128.907 Y112.673 E3.9583
G1 X128.925 Y112.699 E3.9612
G1 X128.935 Y112.715 E3.9629
G1 X129.412 Y113.486 E4.0459
G1 X129.429 Y113.516 E4.0491
G1 X129.457 Y113.567 E4.0543
G1 X129.472 Y113.597 E4.0575
G1 X129.632 Y113.938 E4.0919
G1 X129.654 Y113.992 E4.0973
G1 X129.687 Y114.084 E4.1062
G1 X129.704 Y114.140 E4.1115
G1 X129.783 Y114.456 E4.1414
G1 X129.793 Y114.508 E4.1462
G1 X129.807 Y114.595 E4.1542
G1 X129.813 Y114.647 E4.1591
G1 X129.835 Y114.968 E4.1885
G1 X129.836 Y115.023 E4.1935
G1 X129.834 Y115.115 E4.2020
G1 X129.830 Y115.170 E4.2071
G1 X129.793 Y115.488 E4.2363
G1 X129.784 Y115.544 E4.2415
G1 X129.764 Y115.637 E4.2502
G1 X129.749 Y115.692 E4.2555
G1 X129.634 Y116.056 E4.2904
G1 X129.612 Y116.115 E4.2961
G1 X129.571 Y116.210 E4.3057
G1 X129.543 Y116.266 E4.3114
G1 X129.235 Y116.811 E4.3687
G1 X129.225 Y116.828 E4.3705
G1 X129.208 Y116.856 E4.3735
G1 X129.197 Y116.872 E4.3752
G1 X128.678 Y117.665 E4.4619
G1 X128.664 Y117.685 E4.4642
G1 X128.640 Y117.719 E4.4680
G1 X128.625 Y117.738 E4.4702
G1 X127.662 Y118.974 E4.6137
G1 X127.642 Y118.997 E4.6164
G1 X127.610 Y119.035 E4.6210
G1 X127.589 Y119.058 E4.6238
G1 X126.521 Y120.175 E4.7653
G1 X126.505 Y120.191 E4.7674
G1 X126.477 Y120.218 E4.7709
G1 X126.460 Y120.234 E4.7730
G1 X125.827 Y120.802 E4.8509
G1 X125.814 Y120.813 E4.8524
G1 X125.792 Y120.832 E4.8551
G1 X125.779 Y120.843 E4.8566
G1 X125.065 Y121.413 E4.9403
G1 X125.052 Y121.423 E4.9418
G1 X125.029 Y121.440 E4.9444
G1 X125.015 Y121.450 E4.9460
G1 X124.340 Y121.930 E5.0218
G1 X124.322 Y121.943 E5.0238
G1 X124.291 Y121.963 E5.0272
G1 X124.273 Y121.974 E5.0292
G1 X123.068 Y122.705 E5.1582
G1 X123.046 Y122.718 E5.1604
G1 X123.010 Y122.738 E5.1642
G1 X122.988 Y122.749 E5.1665
G1 X121.908 Y123.287 E5.2769
G1 X121.887 Y123.297 E5.2790
G1 X121.852 Y123.312 E5.2825
G1 X121.831 Y123.321 E5.2846
G1 X120.744 Y123.762 E5.3920
G1 X120.719 Y123.771 E5.3944
G1 X120.678 Y123.786 E5.3984
G1 X120.653 Y123.794 E5.4008
G1 X119.181 Y124.245 E5.5417
G1 X119.154 Y124.253 E5.5443
G1 X119.108 Y124.264 E5.5486
G1 X119.081 Y124.270 E5.5512
G1 X117.724 Y124.550 E5.6780
G1 X117.702 Y124.554 E5.6801
G1 X117.664 Y124.560 E5.6835
G1 X117.642 Y124.564 E5.6856
G1 X116.644 Y124.691 E5.7777
G1 X116.620 Y124.694 E5.7799
G1 X116.578 Y124.698 E5.7837
G1 X116.554 Y124.699 E5.7860
G1 X115.031 Y124.767 E5.9255
G1 X115.009 Y124.767 E5.9275
G1 X114.972 Y124.768 E5.9308
G1 X114.950 Y124.768 E5.9328
G1 X114.232 Y124.747 E5.9986
G1 X114.223 Y124.747 E5.9995
G1 X114.206 Y124.746 E6.0010
G1 X114.196 Y124.745 E6.0019
G1 X90.599 Y123.296 E8.1657
G1 X90.561 Y123.292 E8.1692
G1 X90.497 Y123.284 E8.1751
G1 X90.460 Y123.278 E8.1786
G1 X89.888 Y123.169 E8.2319
G1 X89.818 Y123.151 E8.2385
G1 X89.703 Y123.114 E8.2495
G1 X89.636 Y123.088 E8.2561
G1 X89.196 Y122.886 E8.3004
G1 X89.138 Y122.856 E8.3064
G1 X89.045 Y122.800 E8.3164
G1 X88.990 Y122.764 E8.3224
G1 X88.610 Y122.476 E8.3660
G1 X88.553 Y122.427 E8.3729
G1 X88.463 Y122.339 E8.3844
G1 X88.412 Y122.283 E8.3913
G1 X88.043 Y121.819 E8.4456
G1 X87.995 Y121.749 E8.4533
G1 X87.923 Y121.628 E8.4663
G1 X87.886 Y121.552 E8.4740
G1 X87.640 Y120.954 E8.5331
G1 X87.615 Y120.879 E8.5404
G1 X87.581 Y120.751 E8.5525
G1 X87.566 Y120.673 E8.5598
G1 X87.492 Y120.083 E8.6143
G1 X87.488 Y120.045 E8.6177
G1 X87.484 Y119.982 E8.6235
G1 X87.483 Y119.945 E8.6269
G1 X87.486 Y109.932 E9.5433
G1 X87.488 Y109.886 E9.5476
G1 X87.494 Y109.809 E9.5546
G1 X87.499 Y109.764 E9.5588
G1 X87.573 Y109.291 E9.6026
G1 X87.587 Y109.224 E9.6089
G1 X87.618 Y109.113 E9.6194
G1 X87.640 Y109.048 E9.6257
G1 X87.867 Y108.485 E9.6813
G1 X87.899 Y108.418 E9.6880
G1 X87.958 Y108.310 E9.6993
G1 X87.998 Y108.248 E9.7061
G1 X88.285 Y107.854 E9.7506
G1 X88.334 Y107.796 E9.7576
G1 X88.336 Y107.793 E9.7580
G1 X88.421 Y107.703 F2400
G1 X88.477 Y107.651 F2400
G1 X88.793 Y108.012 F9000
G92 E0
G1 X89.236 Y107.650 E0.0523 F2400
G1 X89.278 Y107.620 E0.0570
G1 X89.370 Y107.564 E0.0670
G1 X89.416 Y107.541 E0.0717
G1 X89.962 Y107.309 E0.1260
G1 X90.003 Y107.295 E0.1300
G1 X90.092 Y107.269 E0.1384
G1 X90.135 Y107.260 E0.1424
G1 X90.571 Y107.190 E0.1828
G1 X90.588 Y107.188 E0.1844
G1 X90.625 Y107.184 E0.1878
G1 X90.642 Y107.182 E0.1894
G1 X114.054 Y105.743 E2.3362
G1 X114.059 Y105.743 E2.3367
G1 X114.070 Y105.743 E2.3377
G1 X114.075 Y105.742 E2.3381
G1 X114.969 Y105.713 E2.4201
G1 X114.981 Y105.712 E2.4212
G1 X115.007 Y105.712 E2.4235
G1 X115.019 Y105.713 E2.4246
G1 X116.155 Y105.750 E2.5286
G1 X116.167 Y105.751 E2.5298
G1 X116.195 Y105.753 E2.5323
G1 X116.207 Y105.754 E2.5335
G1 X117.251 Y105.864 E2.6295
G1 X117.261 Y105.865 E2.6304
G1 X117.282 Y105.868 E2.6324
G1 X117.292 Y105.869 E2.6333
G1 X117.985 Y105.982 E2.6976
G1 X117.995 Y105.983 E2.6984
G1 X118.014 Y105.987 E2.7002
G1 X118.023 Y105.989 E2.7011
G1 X118.875 Y106.173 E2.7809
G1 X118.887 Y106.176 E2.7820
G1 X118.910 Y106.182 E2.7842
G1 X118.921 Y106.185 E2.7852
G1 X120.015 Y106.496 E2.8893
G1 X120.025 Y106.499 E2.8903
G1 X120.046 Y106.505 E2.8923
G1 X120.056 Y106.509 E2.8933
G1 X120.657 Y106.718 E2.9515
G1 X120.666 Y106.721 E2.9524
G1 X120.685 Y106.728 E2.9542
G1 X120.694 Y106.732 E2.9551
G1 X121.616 Y107.108 E3.0462
G1 X121.626 Y107.113 E3.0473
G1 X121.648 Y107.122 E3.0494
G1 X121.658 Y107.127 E3.0505
G1 X122.494 Y107.532 E3.1355
G1 X122.504 Y107.536 E3.1365
G1 X122.524 Y107.547 E3.1385
G1 X122.533 Y107.552 E3.1395
G1 X123.331 Y107.999 E3.2232
G1 X123.340 Y108.004 E3.2242
G1 X123.359 Y108.016 E3.2262
G1 X123.368 Y108.021 E3.2272
G1 X124.132 Y108.509 E3.3102
G1 X124.142 Y108.516 E3.3112
G1 X124.163 Y108.530 E3.3136
G1 X124.173 Y108.538 E3.3147
G1 X125.100 Y109.222 E3.4202
G1 X125.110 Y109.229 E3.4213
G1 X125.130 Y109.245 E3.4236
G1 X125.139 Y109.253 E3.4247
G1 X125.823 Y109.832 E3.5068
G1 X125.831 Y109.839 E3.5077
G1 X125.848 Y109.854 E3.5098
G1 X125.855 Y109.861 E3.5107
G1 X126.479 Y110.455 E3.5896
G1 X126.487 Y110.463 E3.5905
G1 X126.502 Y110.478 E3.5925
G1 X126.509 Y110.485 E3.5935
G1 X127.158 Y111.179 E3.6804
G1 X127.166 Y111.188 E3.6815
G1 X127.183 Y111.207 E3.6839
G1 X127.191 Y111.216 E3.6850
G1 X127.894 Y112.076 E3.7866
G1 X127.902 Y112.086 E3.7877
G1 X127.917 Y112.106 E3.7901
G1 X127.925 Y112.116 E3.7913
G1 X128.503 Y112.932 E3.8828
G1 X128.509 Y112.941 E3.8838
G1 X128.523 Y112.961 E3.8860
G1 X128.529 Y112.971 E3.8870
G1 X129.000 Y113.733 E3.9690
G1 X129.010 Y113.751 E3.9709
G1 X129.031 Y113.789 E3.9749
G1 X129.040 Y113.807 E3.9768
G1 X129.193 Y114.132 E4.0096
G1 X129.206 Y114.164 E4.0128
G1 X129.231 Y114.234 E4.0196
G1 X129.241 Y114.267 E4.0227
G1 X129.314 Y114.562 E4.0506
G1 X129.321 Y114.593 E4.0535
G1 X129.331 Y114.659 E4.0596
G1 X129.335 Y114.690 E4.0625
G1 X129.355 Y114.990 E4.0899
G1 X129.356 Y115.023 E4.0930
G1 X129.354 Y115.093 E4.0994
G1 X129.352 Y115.126 E4.1024
G1 X129.318 Y115.421 E4.1296
