; G-Code generated by Simplify3D(R) Version 4.0.0
; Dec 4, 2018 at 5:57:43 PM
; Settings Summary
;   processName,Process1
;   applyToModels,6mm Glass Frame (1),6mm Glass Frame (1)(2),6mm Glass Frame (1)(3),6mm Glass Frame (1)(4)
;   profileName,Travis_Fletchers_Ultimate_PETG_Profile_v2 (modified)
;   profileVersion,2018-11-14 05:17:17
;   baseProfile,Creality CR-10
;   printMaterial,PETG
;   printQuality,Fast
;   printExtruders,
;   extruderName,Primary Extruder
;   extruderToolheadNumber,0
;   extruderDiameter,0.4
;   extruderAutoWidth,1
;   extruderWidth,0.48
;   extrusionMultiplier,0.99
;   extruderUseRetract,1
;   extruderRetractionDistance,6.5
;   extruderExtraRestartDistance,-0.2
;   extruderRetractionZLift,0
;   extruderRetractionSpeed,3600
;   extruderUseCoasting,1
;   extruderCoastingDistance,0.2
;   extruderUseWipe,0
;   extruderWipeDistance,4
;   primaryExtruder,0
;   layerHeight,0.3
;   topSolidLayers,3
;   bottomSolidLayers,3
;   perimeterOutlines,3
;   printPerimetersInsideOut,1
;   startPointOption,3
;   startPointOriginX,0
;   startPointOriginY,500
;   sequentialIslands,0
;   spiralVaseMode,0
;   firstLayerHeightPercentage,130
;   firstLayerWidthPercentage,120
;   firstLayerUnderspeed,0.6
;   useRaft,0
;   raftExtruder,0
;   raftTopLayers,3
;   raftBaseLayers,2
;   raftOffset,3
;   raftSeparationDistance,0.14
;   raftTopInfill,100
;   aboveRaftSpeedMultiplier,0.3
;   useSkirt,0
;   skirtExtruder,0
;   skirtLayers,1
;   skirtOutlines,2
;   skirtOffset,0.2
;   usePrimePillar,0
;   primePillarExtruder,999
;   primePillarWidth,12
;   primePillarLocation,7
;   primePillarSpeedMultiplier,1
;   useOozeShield,0
;   oozeShieldExtruder,999
;   oozeShieldOffset,2
;   oozeShieldOutlines,1
;   oozeShieldSidewallShape,1
;   oozeShieldSidewallAngle,30
;   oozeShieldSpeedMultiplier,1
;   infillExtruder,0
;   internalInfillPattern,Fast Honeycomb
;   externalInfillPattern,Rectilinear
;   infillPercentage,15
;   outlineOverlapPercentage,35
;   infillExtrusionWidthPercentage,120
;   minInfillLength,4
;   infillLayerInterval,1
;   internalInfillAngles,45,-45
;   overlapInternalInfillAngles,1
;   externalInfillAngles,45,-45
;   generateSupport,1
;   supportExtruder,0
;   supportInfillPercentage,40
;   supportExtraInflation,1
;   supportBaseLayers,0
;   denseSupportExtruder,0
;   denseSupportLayers,0
;   denseSupportInfillPercentage,60
;   supportLayerInterval,1
;   supportHorizontalPartOffset,0.3
;   supportUpperSeparationLayers,2
;   supportLowerSeparationLayers,1
;   supportType,0
;   supportGridSpacing,3.5
;   maxOverhangAngle,45
;   supportAngles,0
;   temperatureName,Heated Bed,Primary Extruder
;   temperatureNumber,0,0
;   temperatureSetpointCount,1,1
;   temperatureSetpointLayers,1,1
;   temperatureSetpointTemperatures,85,240
;   temperatureStabilizeAtStartup,1,1
;   temperatureHeatedBed,1,0
;   temperatureRelayBetweenLayers,0,0
;   temperatureRelayBetweenLoops,0,0
;   fanLayers,1,2,3
;   fanSpeeds,0,25,35
;   blipFanToFullPower,0
;   adjustSpeedForCooling,1
;   minSpeedLayerTime,20
;   minCoolingSpeedSlowdown,30
;   increaseFanForCooling,1
;   minFanLayerTime,30
;   maxCoolingFanSpeed,50
;   increaseFanForBridging,1
;   bridgingFanSpeed,100
;   use5D,1
;   relativeEdistances,0
;   allowEaxisZeroing,1
;   independentExtruderAxes,0
;   includeM10123,0
;   stickySupport,1
;   applyToolheadOffsets,0
;   gcodeXoffset,0
;   gcodeYoffset,0
;   gcodeZoffset,0
;   overrideMachineDefinition,1
;   machineTypeOverride,0
;   strokeXoverride,230
;   strokeYoverride,230
;   strokeZoverride,255
;   originOffsetXoverride,0
;   originOffsetYoverride,0
;   originOffsetZoverride,0
;   homeXdirOverride,-1
;   homeYdirOverride,-1
;   homeZdirOverride,-1
;   flipXoverride,1
;   flipYoverride,-1
;   flipZoverride,1
;   toolheadOffsets,0,0|0,0|0,0|0,0|0,0|0,0
;   overrideFirmwareConfiguration,1
;   firmwareTypeOverride,RepRap (Marlin/Repetier/Sprinter)
;   GPXconfigOverride,r2
;   baudRateOverride,115200
;   overridePrinterModels,1
;   printerModelsOverride
;   startingGcode,G28 ; home all axes,M117 Purging Extruder...,M204 P500 T1000,M205 X10 Y10 ; set jerk x/y=10,G1 Z1.0 F3000 ; lift Z,G1 X0.2 Y25 Z0.2 F3000.0 ; move to start-line position,G92 E0 ; reset extruder,G1 X0.2 Y150.0 F1000.0 E15 ; draw 1st line,G1 X0.7 Y150.0 F3000.0 ; move to side 0.5mm,G1 X0.7 Y50 F1000.0 E30 ; draw 2nd line,G1 X0.7 Y25 F5000.0 ; quick wipe,M117 Printing!,,; Default S3D CR-10 Startup,; G28 ; home all axes,; G1 Z5 F3000 ; lift,; G1 X20 Y2 F1500 ; avoid binder clips,; G1 Z0.2 F3000 ; get ready to prime,; G92 E0 ; reset extrusion distance,; G1 X120 E10 F600 ; prime nozzle,; G1 X150 F5000 ; quick wipe,
;   layerChangeGcode,
;   retractionGcode,
;   toolChangeGcode,
;   endingGcode,M117 Print Complete!,M104 S0 ; turn off extruder,M140 S0 ; turn off bed,G1 X0 Y295 F1000 ; move finished print out front,M84 ; disable motors,M106 S0 ; turn off cooling fan,,; play song,M300 S294 P200 ;D4: 294,M300 S588 P200 ;D5: 588,M300 S440 P200 ;A4: 440,M300 S392 P200 ;G4: 392,M300 S784 P200 ;G5: 784,M300 S440 P200 ;A4: 440,M300 S740 P200 ;F#5: 740,M300 S440 P200 ;A4: 440,,; Default S3D CR-10 Ending Script,; G28 X0 ; home x axis,; M106 S0 ; turn off cooling fan,; M104 S0 ; turn off extruder,; M140 S0 ; turn off bed,; M84 ; disable motors,
;   exportFileFormat,gcode
;   celebration,0
;   celebrationSong,Star Wars
;   postProcessing,,
;   defaultSpeed,3000
;   outlineUnderspeed,0.8
;   solidInfillUnderspeed,0.9
;   supportUnderspeed,1
;   rapidXYspeed,9000
;   rapidZspeed,1002
;   minBridgingArea,50
;   bridgingExtraInflation,0
;   bridgingExtrusionMultiplier,0.9
;   bridgingSpeedMultiplier,1
;   useFixedBridgingAngle,0
;   fixedBridgingAngle,0
;   applyBridgingToPerimeters,0
;   filamentDiameters,1.75|1.75|1.75|1.75|1.75|1.75
;   filamentPricesPerKg,46|46|46|46|46|46
;   filamentDensities,1.25|1.25|1.25|1.25|1.25|1.25
;   useMinPrintHeight,0
;   minPrintHeight,0
;   useMaxPrintHeight,0
;   maxPrintHeight,0
;   useDiaphragm,0
;   diaphragmLayerInterval,20
;   robustSlicing,1
;   mergeAllIntoSolid,0
;   onlyRetractWhenCrossingOutline,0
;   retractBetweenLayers,1
;   useRetractionMinTravel,1
;   retractionMinTravel,3
;   retractWhileWiping,1
;   onlyWipeOutlines,1
;   avoidCrossingOutline,1
;   maxMovementDetourFactor,3
;   toolChangeRetractionDistance,12
;   toolChangeExtraRestartDistance,-0.5
;   toolChangeRetractionSpeed,600
;   externalThinWallType,0
;   internalThinWallType,2
;   thinWallAllowedOverlapPercentage,15
;   singleExtrusionMinLength,1
;   singleExtrusionMinPrintingWidthPercentage,50
;   singleExtrusionMaxPrintingWidthPercentage,200
;   singleExtrusionEndpointExtension,0.2
;   horizontalSizeCompensation,0
G90
M82
M106 S0
M140 S85
M190 S85
M104 S240 T0
M109 S240 T0
G28 ; home all axes
M117 Purging Extruder...
M204 P500 T1000
M205 X10 Y10 ; set jerk x/y=10
G1 Z1.0 F3000 ; lift Z
G1 X0.2 Y25 Z0.2 F3000.0 ; move to start-line position
G92 E0 ; reset extruder
G1 X0.2 Y150.0 F1000.0 E15 ; draw 1st line
G1 X0.7 Y150.0 F3000.0 ; move to side 0.5mm
G1 X0.7 Y50 F1000.0 E30 ; draw 2nd line
G1 X0.7 Y25 F5000.0 ; quick wipe
M117 Printing!
; Default S3D CR-10 Startup
; G28 ; home all axes
; G1 Z5 F3000 ; lift
; G1 X20 Y2 F1500 ; avoid binder clips
; G1 Z0.2 F3000 ; get ready to prime
; G92 E0 ; reset extrusion distance
; G1 X120 E10 F600 ; prime nozzle
; G1 X150 F5000 ; quick wipe
G92 E0
G1 E-6.5000 F3600
G1 Z0.390 F1002
; process Process1
; layer 1, Z = 0.390
T0
; tool H0.390 W0.576
; inner perimeter
G1 X77.879 Y95.537 F9000
G1 E-0.2000 F1080
G92 E0
G1 X70.659 Y91.369 E0.7708 F1620
G1 X70.659 Y83.031 E1.5417
G1 X77.879 Y78.863 E2.3126
G1 X85.099 Y83.031 E3.0834
G1 X85.099 Y91.369 E3.8543
G1 X78.052 Y95.437 E4.6066
G1 X77.879 Y95.537 F1620
G1 X77.879 Y96.202 F9000
G92 E0
G1 X70.083 Y91.701 E0.8323 F1620
G1 X70.083 Y82.699 E1.6647
G1 X77.879 Y78.198 E2.4970
G1 X85.675 Y82.699 E3.3294
G1 X85.675 Y91.701 E4.1617
G1 X78.052 Y96.102 E4.9756
G1 X77.879 Y96.202 F1620
; outer perimeter
G1 X77.879 Y96.867 F9000
G92 E0
G1 X69.507 Y92.034 E0.8938 F1440
G1 X69.507 Y82.366 E1.7877
G1 X77.879 Y77.533 E2.6815
G1 X86.251 Y82.366 E3.5754
G1 X86.251 Y92.034 E4.4692
G1 X78.052 Y96.767 E5.3446
G1 X77.879 Y96.867 F1440
G92 E0
G1 E-6.5000 F3600
; solid layer
G1 X71.033 Y90.583 F9000
G1 E-0.2000 F3600
G92 E0
G1 X72.380 Y91.930 E0.1761 F1620
G1 X74.307 Y93.043 E0.3818
G1 X71.033 Y89.769 E0.8099
G1 X71.033 Y88.954 E0.8852
G1 X76.235 Y94.155 E1.5653
G1 X77.879 Y95.105 E1.7409
G1 X77.955 Y95.061 E1.7490
G1 X71.033 Y88.140 E2.6540
G1 X71.033 Y87.325 E2.7294
G1 X78.471 Y94.763 E3.7019
G1 X78.988 Y94.465 E3.7571
G1 X71.033 Y86.511 E4.7971
G1 X71.033 Y85.696 E4.8725
G1 X79.504 Y94.167 E5.9801
G1 X80.020 Y93.868 E6.0352
G1 X71.033 Y84.881 E7.2104
G1 X71.033 Y84.067 E7.2857
G1 X80.537 Y93.570 E8.5284
G1 X81.053 Y93.272 E8.5835
G1 X71.033 Y83.252 E9.8937
G1 X71.033 Y83.248 E9.8941
G1 X71.547 Y82.951 E9.9489
G1 X81.570 Y92.974 E11.2595
G1 X82.086 Y92.676 E11.3147
G1 X72.063 Y82.653 E12.6253
G1 X72.580 Y82.355 E12.6804
G1 X82.603 Y92.378 E13.9910
G1 X83.119 Y92.079 E14.0461
G1 X73.096 Y82.057 E15.3567
G1 X73.613 Y81.758 E15.4118
G1 X83.635 Y91.781 E16.7224
G1 X84.152 Y91.483 E16.7775
G1 X74.129 Y81.460 E18.0881
G1 X74.645 Y81.162 E18.1433
G1 X84.668 Y91.185 E19.4539
G1 X84.725 Y91.152 E19.4599
G1 X84.725 Y90.427 E19.5270
G1 X75.162 Y80.864 E20.7774
G1 X75.678 Y80.566 E20.8325
G1 X84.725 Y89.612 E22.0154
G1 X84.725 Y88.797 E22.0907
G1 X76.195 Y80.268 E23.2061
G1 X76.711 Y79.969 E23.2612
G1 X84.725 Y87.983 E24.3091
G1 X84.725 Y87.168 E24.3844
G1 X77.227 Y79.671 E25.3647
G1 X77.744 Y79.373 E25.4198
G1 X84.725 Y86.354 E26.3326
G1 X84.725 Y85.539 E26.4079
G1 X79.302 Y80.117 E27.1169
G1 X81.230 Y81.230 E27.3227
G1 X84.725 Y84.725 E27.7797
G1 X84.725 Y83.910 E27.8550
G1 X83.299 Y82.484 E28.0415
G1 X83.157 Y82.343 F1620
G92 E0
G1 E-6.5000 F3600
; inner perimeter
G1 X86.619 Y110.537 F9000
G1 E-0.2000 F3600
G92 E0
G1 X79.398 Y106.369 E0.7709 F1620
G1 X79.398 Y98.031 E1.5418
G1 X88.039 Y93.043 E2.4643
G1 X88.039 Y91.380 E2.6181
G1 X88.019 Y91.368 E2.6202
G1 X88.019 Y83.031 E3.3911
G1 X95.239 Y78.863 E4.1619
G1 X102.460 Y83.031 E4.9328
G1 X102.460 Y91.369 E5.7037
G1 X93.819 Y96.357 E6.6262
G1 X93.819 Y98.020 E6.7800
G1 X93.839 Y98.032 E6.7821
G1 X93.839 Y98.274 E6.8045
G1 X95.279 Y99.105 E6.9582
G1 X103.839 Y94.163 E7.8721
G1 X111.060 Y98.331 E8.6431
G1 X111.060 Y106.669 E9.4139
G1 X103.839 Y110.837 E10.1849
G1 X96.619 Y106.669 E10.9557
G1 X96.619 Y106.426 E10.9781
G1 X95.179 Y105.595 E11.1318
G1 X86.792 Y110.437 E12.0273
G1 X86.619 Y110.537 F1620
G1 X86.619 Y111.202 F9000
G92 E0
G1 X78.822 Y106.701 E0.8324 F1620
G1 X78.822 Y97.699 E1.6648
G1 X87.463 Y92.710 E2.5873
G1 X87.463 Y91.712 E2.6796
G1 X87.443 Y91.701 E2.6817
G1 X87.443 Y82.699 E3.5141
G1 X95.239 Y78.198 E4.3464
G1 X103.036 Y82.699 E5.1788
G1 X103.036 Y91.701 E6.0112
G1 X94.395 Y96.690 E6.9337
G1 X94.395 Y97.688 E7.0260
G1 X94.415 Y97.699 E7.0281
G1 X94.415 Y97.941 E7.0505
G1 X95.279 Y98.440 E7.1427
G1 X103.839 Y93.498 E8.0566
G1 X111.636 Y97.999 E8.8891
G1 X111.636 Y107.001 E9.7214
G1 X103.839 Y111.502 E10.5538
G1 X96.043 Y107.001 E11.3862
G1 X96.043 Y106.759 E11.4086
G1 X95.179 Y106.260 E11.5008
G1 X86.792 Y111.102 E12.3962
G1 X86.619 Y111.202 F1620
; outer perimeter
G1 X86.619 Y111.867 F9000
G92 E0
G1 X78.246 Y107.034 E0.8939 F1440
G1 X78.246 Y97.366 E1.7878
G1 X86.887 Y92.378 E2.7103
G1 X86.887 Y92.045 E2.7411
G1 X86.867 Y92.034 E2.7432
G1 X86.867 Y82.366 E3.6370
G1 X95.239 Y77.533 E4.5309
G1 X103.612 Y82.366 E5.4248
G1 X103.612 Y92.034 E6.3187
G1 X94.971 Y97.022 E7.2412
G1 X94.971 Y97.355 E7.2719
G1 X94.991 Y97.366 E7.2741
G1 X94.991 Y97.609 E7.2965
G1 X95.279 Y97.775 E7.3272
G1 X103.839 Y92.833 E8.2411
G1 X112.212 Y97.666 E9.1350
G1 X112.212 Y107.334 E10.0289
G1 X103.839 Y112.167 E10.9228
G1 X95.467 Y107.334 E11.8167
G1 X95.467 Y107.091 E11.8391
G1 X95.179 Y106.925 E11.8698
G1 X86.792 Y111.767 E12.7652
G1 X86.619 Y111.867 F1440
G92 E0
G1 E-6.5000 F3600
; inner perimeter
G1 X86.651 Y111.856 F9000
G1 X95.179 Y106.932 F9000
G1 X95.461 Y107.095 F9000
G1 X95.461 Y107.337 F9000
G1 X96.793 Y108.106 F9000
G1 X102.865 Y105.861 F9000
G1 E-0.2000 F3600
G92 E0
G1 X103.418 Y106.000 E0.0528 F1620
G1 X103.992 Y106.048 E0.1060
G1 X104.556 Y106.000 E0.1584
G1 X105.112 Y105.858 E0.2114
G1 X105.629 Y105.632 E0.2636
G1 X106.110 Y105.317 E0.3168
G1 X106.526 Y104.935 E0.3689
G1 X106.879 Y104.481 E0.4221
G1 X107.148 Y103.985 E0.4743
G1 X107.336 Y103.438 E0.5277
G1 X107.427 Y102.876 E0.5804
G1 X107.427 Y102.317 E0.6321
G1 X107.333 Y101.751 E0.6852
G1 X107.143 Y101.205 E0.7386
G1 X106.871 Y100.707 E0.7911
G1 X106.523 Y100.262 E0.8433
G1 X106.099 Y99.874 E0.8964
G1 X105.627 Y99.567 E0.9485
G1 X105.105 Y99.339 E1.0012
G1 X104.552 Y99.200 E1.0539
G1 X103.990 Y99.154 E1.1060
G1 X103.413 Y99.201 E1.1595
G1 X102.863 Y99.339 E1.2120
G1 X102.335 Y99.572 E1.2654
G1 X101.863 Y99.880 E1.3175
G1 X101.441 Y100.269 E1.3705
G1 X101.093 Y100.714 E1.4227
G1 X100.821 Y101.220 E1.4759
G1 X100.636 Y101.752 E1.5280
G1 X100.542 Y102.324 E1.5815
G1 X100.543 Y102.894 E1.6343
G1 X100.639 Y103.456 E1.6870
G1 X100.823 Y103.987 E1.7389
G1 X101.095 Y104.487 E1.7916
G1 X101.447 Y104.938 E1.8444
G1 X101.870 Y105.325 E1.8975
G1 X102.341 Y105.632 E1.9494
G1 X102.681 Y105.781 E1.9838
G1 X102.865 Y105.861 F1620
G1 X103.051 Y105.314 F9000
G92 E0
G1 X103.512 Y105.430 E0.0439 F1620
G1 X103.991 Y105.470 E0.0884
G1 X104.460 Y105.430 E0.1319
G1 X104.924 Y105.312 E0.1761
G1 X105.354 Y105.124 E0.2195
G1 X105.755 Y104.861 E0.2639
G1 X106.101 Y104.543 E0.3072
G1 X106.395 Y104.165 E0.3516
G1 X106.619 Y103.753 E0.3949
G1 X106.775 Y103.298 E0.4394
G1 X106.851 Y102.829 E0.4833
G1 X106.851 Y102.364 E0.5263
G1 X106.773 Y101.894 E0.5704
G1 X106.615 Y101.439 E0.6149
G1 X106.388 Y101.024 E0.6586
G1 X106.099 Y100.655 E0.7020
G1 X105.745 Y100.332 E0.7463
G1 X105.353 Y100.076 E0.7896
G1 X104.918 Y99.886 E0.8335
G1 X104.458 Y99.770 E0.8774
G1 X103.990 Y99.732 E0.9207
G1 X103.507 Y99.771 E0.9655
G1 X103.050 Y99.886 E1.0091
G1 X102.610 Y100.080 E1.0536
G1 X102.218 Y100.336 E1.0969
G1 X101.866 Y100.661 E1.1412
G1 X101.577 Y101.030 E1.1845
G1 X101.350 Y101.452 E1.2288
G1 X101.197 Y101.895 E1.2721
G1 X101.118 Y102.371 E1.3167
G1 X101.119 Y102.845 E1.3606
G1 X101.199 Y103.313 E1.4045
G1 X101.352 Y103.754 E1.4476
G1 X101.578 Y104.170 E1.4915
G1 X101.871 Y104.545 E1.5354
G1 X102.224 Y104.868 E1.5797
G1 X102.616 Y105.124 E1.6229
G1 X102.868 Y105.234 E1.6484
G1 X103.052 Y105.314 F1620
; outer perimeter
G1 X103.238 Y104.767 F9000
G92 E0
G1 X103.607 Y104.860 E0.0351 F1440
G1 X103.991 Y104.892 E0.0707
G1 X104.364 Y104.860 E0.1054
G1 X104.736 Y104.765 E0.1408
G1 X105.079 Y104.615 E0.1754
G1 X105.400 Y104.404 E0.2110
G1 X105.676 Y104.152 E0.2455
G1 X105.911 Y103.848 E0.2811
G1 X106.090 Y103.520 E0.3156
G1 X106.214 Y103.157 E0.3511
G1 X106.275 Y102.783 E0.3862
G1 X106.275 Y102.411 E0.4205
G1 X106.213 Y102.037 E0.4556
G1 X106.087 Y101.674 E0.4911
G1 X105.905 Y101.342 E0.5261
G1 X105.675 Y101.048 E0.5607
G1 X105.391 Y100.789 E0.5962
G1 X105.078 Y100.585 E0.6307
G1 X104.731 Y100.433 E0.6658
G1 X104.363 Y100.340 E0.7008
G1 X103.990 Y100.309 E0.7354
G1 X103.602 Y100.341 E0.7715
G1 X103.238 Y100.433 E0.8062
G1 X102.886 Y100.588 E0.8418
G1 X102.573 Y100.792 E0.8763
G1 X102.291 Y101.052 E0.9118
G1 X102.061 Y101.347 E0.9463
G1 X101.879 Y101.685 E0.9818
G1 X101.757 Y102.037 E1.0163
G1 X101.694 Y102.417 E1.0519
G1 X101.695 Y102.795 E1.0869
G1 X101.759 Y103.169 E1.1219
G1 X101.881 Y103.521 E1.1563
G1 X102.061 Y103.853 E1.1913
G1 X102.295 Y104.152 E1.2264
G1 X102.578 Y104.411 E1.2619
G1 X102.891 Y104.615 E1.2964
G1 X103.055 Y104.687 E1.3130
G1 X103.238 Y104.767 F1440
; solid layer
G1 X103.978 Y106.422 F9000
G92 E0
G1 X106.452 Y108.896 E0.3235 F1620
G1 X106.969 Y108.598 E0.3787
G1 X104.716 Y106.345 E0.6732
G1 X105.234 Y106.213 E0.7226
G1 X105.349 Y106.163 E0.7342
G1 X107.485 Y108.300 E1.0136
G1 X108.002 Y108.002 E1.0687
G1 X105.901 Y105.901 E1.3434
G1 X106.341 Y105.613 E1.3920
G1 X106.386 Y105.572 E1.3977
G1 X108.518 Y107.704 E1.6765
