; G-Code generated by Simplify3D(R) Version 3.1.1
; Jan 13, 2019 at 6:25:11 PM
; Settings Summary
;   processName,Process1
;   applyToModels,xyzCalibration_cube,xyzCalibration_cube(2),xyzCalibration_cube(3)
;   profileName,ABS
;   profileVersion,2018-11-19 00:15:08
;   baseProfile,Creality CR-10
;   printMaterial,PETG
;   printQuality,Fast
;   printExtruders,
;   extruderName,Primary Extruder
;   extruderToolheadNumber,0
;   extruderDiameter,0.4
;   extruderAutoWidth,1
;   extruderWidth,0.48
;   extrusionMultiplier,0.99
;   extruderUseRetract,1
;   extruderRetractionDistance,6.5
;   extruderExtraRestartDistance,-0.2
;   extruderRetractionZLift,0
;   extruderRetractionSpeed,3600
;   extruderUseCoasting,1
;   extruderCoastingDistance,0.2
;   extruderUseWipe,0
;   extruderWipeDistance,4
;   primaryExtruder,0
;   layerHeight,0.3
;   topSolidLayers,3
;   bottomSolidLayers,3
;   perimeterOutlines,3
;   printPerimetersInsideOut,1
;   startPointOption,3
;   startPointOriginX,0
;   startPointOriginY,500
;   startPointOriginZ,0
;   sequentialIslands,0
;   spiralVaseMode,0
;   firstLayerHeightPercentage,130
;   firstLayerWidthPercentage,120
;   firstLayerUnderspeed,0.6
;   useRaft,0
;   raftExtruder,0
;   raftLayers,3
;   raftOffset,3
;   raftSeparationDistance,0.14
;   raftInfill,85
;   disableRaftBaseLayers,0
;   useSkirt,1
;   skirtExtruder,0
;   skirtLayers,1
;   skirtOutlines,3
;   skirtOffset,0.2
;   usePrimePillar,0
;   primePillarExtruder,999
;   primePillarWidth,12
;   primePillarLocation,7
;   primePillarSpeedMultiplier,1
;   useOozeShield,0
;   oozeShieldExtruder,999
;   oozeShieldOffset,2
;   oozeShieldOutlines,1
;   oozeShieldSidewallShape,1
;   oozeShieldSidewallAngle,30
;   oozeShieldSpeedMultiplier,1
;   infillExtruder,0
;   internalInfillPattern,Triangular
;   externalInfillPattern,Rectilinear
;   infillPercentage,20
;   outlineOverlapPercentage,35
;   infillExtrusionWidthPercentage,120
;   minInfillLength,4
;   infillLayerInterval,1
;   infillAngles,45,-45
;   overlapInfillAngles,1
;   generateSupport,1
;   supportExtruder,0
;   supportInfillPercentage,28
;   supportExtraInflation,1
;   denseSupportLayers,0
;   denseSupportInfillPercentage,60
;   supportLayerInterval,1
;   supportHorizontalPartOffset,0.3
;   supportUpperSeparationLayers,2
;   supportLowerSeparationLayers,1
;   supportType,0
;   supportGridSpacing,3.5
;   maxOverhangAngle,45
;   supportAngles,0
;   temperatureName,Heated Bed,Primary Extruder
;   temperatureNumber,0,0
;   temperatureSetpointCount,1,1
;   temperatureSetpointLayers,1,1
;   temperatureSetpointTemperatures,85,245
;   temperatureStabilizeAtStartup,1,1
;   temperatureHeatedBed,1,0
;   temperatureRelayBetweenLayers,0,0
;   temperatureRelayBetweenLoops,0,0
;   fanLayers,1,2,3
;   fanSpeeds,0,0,0
;   blipFanToFullPower,0
;   adjustSpeedForCooling,1
;   minSpeedLayerTime,20
;   minCoolingSpeedSlowdown,30
;   increaseFanForCooling,0
;   minFanLayerTime,30
;   maxCoolingFanSpeed,50
;   increaseFanForBridging,0
;   bridgingFanSpeed,100
;   use5D,1
;   relativeEdistances,0
;   allowEaxisZeroing,1
;   independentExtruderAxes,0
;   includeM10123,0
;   stickySupport,1
;   applyToolheadOffsets,0
;   gcodeXoffset,0
;   gcodeYoffset,0
;   gcodeZoffset,0
;   overrideMachineDefinition,1
;   machineTypeOverride,0
;   strokeXoverride,230
;   strokeYoverride,230
;   strokeZoverride,255
;   originOffsetXoverride,0
;   originOffsetYoverride,0
;   originOffsetZoverride,0
;   homeXdirOverride,-1
;   homeYdirOverride,-1
;   homeZdirOverride,-1
;   flipXoverride,1
;   flipYoverride,-1
;   flipZoverride,1
;   toolheadOffsets,0,0|0,0|0,0|0,0|0,0|0,0
;   overrideFirmwareConfiguration,1
;   firmwareTypeOverride,RepRap (Marlin/Repetier/Sprinter)
;   GPXconfigOverride,r2
;   baudRateOverride,115200
;   overridePrinterModels,1
;   printerModelsOverride
;   startingGcode,G28 ; home all axes,M117 Purging Extruder...,M204 P500 T1000,M205 X10 Y10 ; set jerk x/y=10,G1 Z1.0 F3000 ; lift Z,G1 X0.2 Y25 Z0.2 F3000.0 ; move to start-line position,G92 E0 ; reset extruder,G1 X0.2 Y150.0 F1000.0 E15 ; draw 1st line,G1 X0.7 Y150.0 F3000.0 ; move to side 0.5mm,G1 X0.7 Y50 F1000.0 E30 ; draw 2nd line,G1 X0.7 Y25 F5000.0 ; quick wipe,M117 Printing!,,; Default S3D CR-10 Startup,; G28 ; home all axes,; G1 Z5 F3000 ; lift,; G1 X20 Y2 F1500 ; avoid binder clips,; G1 Z0.2 F3000 ; get ready to prime,; G92 E0 ; reset extrusion distance,; G1 X120 E10 F600 ; prime nozzle,; G1 X150 F5000 ; quick wipe,
;   layerChangeGcode,
;   retractionGcode,
;   toolChangeGcode,
;   endingGcode,M117 Print Complete!,M104 S0 ; turn off extruder,M140 S0 ; turn off bed,G1 X0 Y295 F1000 ; move finished print out front,M84 ; disable motors,M106 S0 ; turn off cooling fan,,; play song,M300 S294 P200 ;D4: 294,M300 S588 P200 ;D5: 588,M300 S440 P200 ;A4: 440,M300 S392 P200 ;G4: 392,M300 S784 P200 ;G5: 784,M300 S440 P200 ;A4: 440,M300 S740 P200 ;F#5: 740,M300 S440 P200 ;A4: 440,,; Default S3D CR-10 Ending Script,; G28 X0 ; home x axis,; M106 S0 ; turn off cooling fan,; M104 S0 ; turn off extruder,; M140 S0 ; turn off bed,; M84 ; disable motors,
;   exportFileFormat,gcode
;   celebration,0
;   celebrationSong,Star Wars
;   postProcessing,,
;   defaultSpeed,3000
;   outlineUnderspeed,0.8
;   solidInfillUnderspeed,0.9
;   supportUnderspeed,1
;   rapidXYspeed,9000
;   rapidZspeed,1002
;   minBridgingArea,50
;   bridgingExtraInflation,0
;   bridgingExtrusionMultiplier,0.9
;   bridgingSpeedMultiplier,1
;   filamentDiameter,1.75
;   filamentPricePerKg,46
;   filamentDensity,1.25
;   useMinPrintHeight,0
;   minPrintHeight,0
;   useMaxPrintHeight,0
;   maxPrintHeight,0
;   useDiaphragm,0
;   diaphragmLayerInterval,20
;   robustSlicing,1
;   mergeAllIntoSolid,0
;   onlyRetractWhenCrossingOutline,0
;   retractBetweenLayers,1
;   useRetractionMinTravel,1
;   retractionMinTravel,3
;   retractWhileWiping,1
;   onlyWipeOutlines,1
;   avoidCrossingOutline,1
;   maxMovementDetourFactor,3
;   toolChangeRetractionDistance,12
;   toolChangeExtraRestartDistance,-0.5
;   toolChangeRetractionSpeed,600
;   allowThinWallGapFill,1
;   thinWallAllowedOverlapPercentage,15
;   horizontalSizeCompensation,0
G90
M82
M106 S0
M140 S85
M190 S85
M104 S245 T0
M109 S245 T0
G28 ; home all axes
M117 Purging Extruder...
M204 P500 T1000
M205 X10 Y10 ; set jerk x/y=10
G1 Z1.0 F3000 ; lift Z
G1 X0.2 Y25 Z0.2 F3000.0 ; move to start-line position
G92 E0 ; reset extruder
G1 X0.2 Y150.0 F1000.0 E15 ; draw 1st line
G1 X0.7 Y150.0 F3000.0 ; move to side 0.5mm
G1 X0.7 Y50 F1000.0 E30 ; draw 2nd line
G1 X0.7 Y25 F5000.0 ; quick wipe
M117 Printing!
; Default S3D CR-10 Startup
; G28 ; home all axes
; G1 Z5 F3000 ; lift
; G1 X20 Y2 F1500 ; avoid binder clips
; G1 Z0.2 F3000 ; get ready to prime
; G92 E0 ; reset extrusion distance
; G1 X120 E10 F600 ; prime nozzle
; G1 X150 F5000 ; quick wipe
G92 E0
G1 E-6.5000 F3600
G1 Z0.390 F1002
; layer 1, Z = 0.39
T0
; tool H0.390 W0.576
; skirt
G1 X103.483 Y78.937 F9000
G1 E-0.2000 F1080
G92 E0
G1 X103.937 Y78.483 E0.0595 F1800
G1 X104.378 Y78.300 E0.1036
G1 X125.622 Y78.300 E2.0677
G1 X126.063 Y78.483 E2.1119
G1 X126.517 Y78.937 E2.1713
G1 X126.700 Y79.378 E2.2155
G1 X126.700 Y100.622 E4.1796
G1 X126.517 Y101.063 E4.2238
G1 X126.063 Y101.517 E4.2832
G1 X125.622 Y101.700 E4.3274
G1 X104.378 Y101.700 E6.2915
G1 X103.937 Y101.517 E6.3357
G1 X103.483 Y101.063 E6.3951
G1 X103.300 Y100.622 E6.4392
G1 X103.300 Y79.378 E8.4034
G1 X103.406 Y79.122 E8.4290
G1 X103.483 Y78.937 F1800
G92 E0
G1 E-6.5000 F3600
G1 X104.478 Y103.400 F9000
G1 E-0.2000 F3600
G92 E0
G1 X125.522 Y103.400 E1.9457 F1800
G1 X125.963 Y103.583 E1.9898
G1 X126.417 Y104.037 E2.0493
G1 X126.600 Y104.478 E2.0934
G1 X126.600 Y125.522 E4.0390
G1 X126.417 Y125.963 E4.0832
G1 X125.963 Y126.417 E4.1426
G1 X125.522 Y126.600 E4.1868
G1 X104.478 Y126.600 E6.1324
G1 X104.037 Y126.417 E6.1766
G1 X103.583 Y125.963 E6.2360
G1 X103.400 Y125.522 E6.2802
G1 X103.400 Y104.478 E8.2258
G1 X103.583 Y104.037 E8.2700
G1 X104.037 Y103.583 E8.3294
G1 X104.294 Y103.477 E8.3551
G1 X104.478 Y103.400 F1800
G92 E0
G1 E-6.5000 F3600
G1 X104.678 Y128.600 F9000
G1 E-0.2000 F3600
G92 E0
G1 X125.322 Y128.600 E1.9087 F1800
G1 X125.763 Y128.783 E1.9528
G1 X126.217 Y129.237 E2.0123
G1 X126.400 Y129.678 E2.0564
G1 X126.400 Y150.322 E3.9651
G1 X126.217 Y150.763 E4.0092
G1 X125.763 Y151.217 E4.0687
G1 X125.322 Y151.400 E4.1128
G1 X104.678 Y151.400 E6.0215
G1 X104.237 Y151.217 E6.0656
G1 X103.783 Y150.763 E6.1251
G1 X103.600 Y150.322 E6.1692
G1 X103.600 Y129.678 E8.0779
G1 X103.783 Y129.237 E8.1220
G1 X104.237 Y128.783 E8.1815
G1 X104.494 Y128.677 E8.2071
G1 X104.678 Y128.600 F1800
G1 X104.774 Y129.080 F9000
G92 E0
G1 X125.226 Y129.080 E1.8910 F1800
G1 X125.491 Y129.190 E1.9175
G1 X125.810 Y129.509 E1.9593
G1 X125.920 Y129.774 E1.9858
G1 X125.920 Y150.226 E3.8768
G1 X125.810 Y150.491 E3.9033
G1 X125.491 Y150.810 E3.9451
G1 X125.226 Y150.920 E3.9716
G1 X104.774 Y150.920 E5.8626
G1 X104.509 Y150.810 E5.8891
G1 X104.190 Y150.491 E5.9309
G1 X104.080 Y150.226 E5.9574
G1 X104.080 Y129.774 E7.8484
G1 X104.190 Y129.509 E7.8748
G1 X104.509 Y129.190 E7.9167
G1 X104.589 Y129.157 E7.9246
G1 X104.774 Y129.080 F1800
G1 X104.574 Y126.120 F9000
G92 E0
G1 X104.309 Y126.010 E0.0265 F1800
G1 X103.990 Y125.691 E0.0683
G1 X103.880 Y125.426 E0.0948
G1 X103.880 Y104.574 E2.0228
G1 X103.990 Y104.309 E2.0493
G1 X104.309 Y103.990 E2.0911
G1 X104.574 Y103.880 E2.1175
G1 X125.426 Y103.880 E4.0455
G1 X125.691 Y103.990 E4.0720
G1 X126.010 Y104.309 E4.1138
G1 X126.120 Y104.574 E4.1403
G1 X126.120 Y125.426 E6.0683
G1 X126.010 Y125.691 E6.0948
G1 X125.691 Y126.010 E6.1366
G1 X125.426 Y126.120 E6.1631
G1 X104.774 Y126.120 E8.0726
G1 X104.574 Y126.120 F1800
G92 E0
G1 E-6.5000 F3600
G1 X104.474 Y101.220 F9000
G1 E-0.2000 F3600
G92 E0
G1 X104.209 Y101.110 E0.0265 F1800
G1 X103.890 Y100.791 E0.0683
G1 X103.780 Y100.526 E0.0948
G1 X103.780 Y79.474 E2.0413
G1 X103.890 Y79.209 E2.0677
G1 X104.209 Y78.890 E2.1096
G1 X104.474 Y78.780 E2.1360
G1 X125.526 Y78.780 E4.0825
G1 X125.791 Y78.890 E4.1090
G1 X126.110 Y79.209 E4.1508
G1 X126.220 Y79.474 E4.1773
G1 X126.220 Y100.526 E6.1238
G1 X126.110 Y100.791 E6.1503
G1 X125.791 Y101.110 E6.1921
G1 X125.526 Y101.220 E6.2186
G1 X104.674 Y101.220 E8.1466
G1 X104.474 Y101.220 F1800
G1 X104.569 Y100.740 F9000
G92 E0
G1 X104.481 Y100.703 E0.0088 F1800
G1 X104.297 Y100.519 E0.0330
G1 X104.260 Y100.431 E0.0418
G1 X104.260 Y79.569 E1.9706
G1 X104.297 Y79.481 E1.9795
G1 X104.481 Y79.297 E2.0036
G1 X104.569 Y79.260 E2.0124
G1 X125.431 Y79.260 E3.9413
G1 X125.519 Y79.297 E3.9501
G1 X125.703 Y79.481 E3.9743
G1 X125.740 Y79.569 E3.9831
G1 X125.740 Y100.431 E5.9119
G1 X125.703 Y100.519 E5.9207
G1 X125.519 Y100.703 E5.9449
G1 X125.431 Y100.740 E5.9537
G1 X104.769 Y100.740 E7.8641
G1 X104.569 Y100.740 F1800
G92 E0
G1 E-6.5000 F3600
G1 X104.669 Y104.360 F9000
G1 E-0.2000 F3600
G92 E0
G1 X125.331 Y104.360 E1.9103 F1800
G1 X125.419 Y104.397 E1.9192
G1 X125.603 Y104.581 E1.9433
G1 X125.640 Y104.669 E1.9521
G1 X125.640 Y125.331 E3.8625
G1 X125.603 Y125.419 E3.8713
G1 X125.419 Y125.603 E3.8955
G1 X125.331 Y125.640 E3.9043
G1 X104.669 Y125.640 E5.8146
G1 X104.581 Y125.603 E5.8235
G1 X104.397 Y125.419 E5.8476
G1 X104.360 Y125.331 E5.8564
G1 X104.360 Y104.669 E7.7668
G1 X104.397 Y104.581 E7.7756
G1 X104.507 Y104.470 E7.7901
G1 X104.581 Y104.397 F1800
G1 X104.669 Y104.360 F1800
G92 E0
G1 E-6.5000 F3600
G1 X104.869 Y129.560 F9000
G1 E-0.2000 F3600
G92 E0
G1 X125.131 Y129.560 E1.8734 F1800
G1 X125.219 Y129.597 E1.8822
G1 X125.403 Y129.781 E1.9063
G1 X125.440 Y129.869 E1.9152
G1 X125.440 Y150.131 E3.7885
G1 X125.403 Y150.219 E3.7973
G1 X125.219 Y150.403 E3.8215
G1 X125.131 Y150.440 E3.8303
G1 X104.869 Y150.440 E5.7037
G1 X104.781 Y150.403 E5.7125
G1 X104.597 Y150.219 E5.7367
G1 X104.560 Y150.131 E5.7455
G1 X104.560 Y129.869 E7.6188
G1 X104.597 Y129.781 E7.6277
G1 X104.707 Y129.670 E7.6421
G1 X104.781 Y129.597 F1800
G1 X104.869 Y129.560 F1800
; inner perimeter
G1 X106.440 Y131.440 F9000
G92 E0
G1 X123.560 Y131.440 E1.5829 F1680
G1 X123.560 Y148.560 E3.1658
G1 X106.440 Y148.560 E4.7488
G1 X106.440 Y131.640 E6.3132
G1 X106.440 Y131.440 F1680
; inner perimeter
G1 X105.864 Y130.864 F9000
G92 E0
G1 X124.136 Y130.864 E1.6894 F1560
G1 X124.136 Y149.136 E3.3789
G1 X105.864 Y149.136 E5.0683
G1 X105.864 Y131.064 E6.7393
G1 X105.864 Y130.864 F1560
; outer perimeter
G1 X105.288 Y130.288 F9000
G92 E0
G1 X124.712 Y130.288 E1.7960 F1440
G1 X124.712 Y149.712 E3.5919
G1 X105.288 Y149.712 E5.3879
G1 X105.288 Y130.488 E7.1653
G1 X105.288 Y130.288 F1440
G92 E0
G1 E-6.5000 F3600
; solid layer
G1 X106.814 Y147.394 F9000
G1 E-0.2000 F3600
G92 E0
G1 X107.606 Y148.186 E0.1035 F1620
G1 X108.421 Y148.186 E0.1789
G1 X106.814 Y146.579 E0.3889
G1 X106.814 Y145.765 E0.4642
G1 X109.235 Y148.186 E0.7808
G1 X110.050 Y148.186 E0.8561
G1 X106.814 Y144.950 E1.2792
G1 X106.814 Y144.135 E1.3545
G1 X110.865 Y148.186 E1.8841
G1 X111.679 Y148.186 E1.9594
G1 X106.814 Y143.321 E2.5956
G1 X106.814 Y142.506 E2.6709
G1 X112.494 Y148.186 E3.4135
G1 X113.308 Y148.186 E3.4888
G1 X106.814 Y141.692 E4.3380
G1 X106.814 Y140.877 E4.4133
G1 X114.123 Y148.186 E5.3690
G1 X114.938 Y148.186 E5.4443
G1 X106.814 Y140.062 E6.5064
G1 X106.814 Y139.248 E6.5818
G1 X115.752 Y148.186 E7.7504
G1 X116.567 Y148.186 E7.8258
G1 X106.814 Y138.433 E9.1010
G1 X106.814 Y137.619 E9.1763
G1 X117.381 Y148.186 E10.5580
G1 X118.196 Y148.186 E10.6333
G1 X106.814 Y136.804 E12.1216
G1 X106.814 Y135.990 E12.1969
G1 X119.010 Y148.186 E13.7916
G1 X119.825 Y148.186 E13.8669
G1 X106.814 Y135.175 E15.5682
G1 X106.814 Y134.360 E15.6435
G1 X120.640 Y148.186 E17.4513
G1 X121.454 Y148.186 E17.5266
G1 X106.814 Y133.546 E19.4409
G1 X106.814 Y132.731 E19.5162
G1 X122.269 Y148.186 E21.5370
G1 X123.083 Y148.186 E21.6123
G1 X106.814 Y131.917 E23.7397
G1 X106.814 Y131.814 E23.7491
G1 X107.527 Y131.814 E23.8150
G1 X123.186 Y147.473 E25.8625
G1 X123.186 Y146.659 E25.9378
G1 X108.341 Y131.814 E27.8788
G1 X109.156 Y131.814 E27.9541
G1 X123.186 Y145.844 E29.7886
G1 X123.186 Y145.029 E29.8640
G1 X109.971 Y131.814 E31.5919
G1 X110.785 Y131.814 E31.6673
G1 X123.186 Y144.215 E33.2887
G1 X123.186 Y143.400 E33.3640
G1 X111.600 Y131.814 E34.8790
G1 X112.414 Y131.814 E34.9543
G1 X123.186 Y142.586 E36.3628
G1 X123.186 Y141.771 E36.4381
G1 X113.229 Y131.814 E37.7400
G1 X114.044 Y131.814 E37.8153
G1 X123.186 Y140.956 E39.0107
G1 X123.186 Y140.142 E39.0860
G1 X114.858 Y131.814 E40.1749
G1 X115.673 Y131.814 E40.2503
G1 X123.186 Y139.327 E41.2326
G1 X123.186 Y138.513 E41.3080
G1 X116.487 Y131.814 E42.1838
G1 X117.302 Y131.814 E42.2591
G1 X123.186 Y137.698 E43.0285
G1 X123.186 Y136.884 E43.1038
G1 X118.116 Y131.814 E43.7666
G1 X118.931 Y131.814 E43.8420
G1 X123.186 Y136.069 E44.3983
G1 X123.186 Y135.254 E44.4736
G1 X119.746 Y131.814 E44.9234
G1 X120.560 Y131.814 E44.9987
G1 X123.186 Y134.440 E45.3420
G1 X123.186 Y133.625 E45.4173
G1 X121.375 Y131.814 E45.6541
G1 X122.189 Y131.814 E45.7294
G1 X123.186 Y132.811 E45.8597
G1 X123.186 Y131.996 E45.9350
G1 X123.146 Y131.956 E45.9403
G1 X123.004 Y131.814 F1620
G92 E0
G1 E-6.5000 F3600
; inner perimeter
G1 X106.240 Y106.240 F9000
G1 E-0.2000 F3600
G92 E0
G1 X123.760 Y106.240 E1.6199 F1680
G1 X123.760 Y123.760 E3.2398
G1 X106.240 Y123.760 E4.8597
G1 X106.240 Y106.440 E6.4611
G1 X106.240 Y106.240 F1680
; inner perimeter
G1 X105.664 Y105.664 F9000
G92 E0
G1 X124.336 Y105.664 E1.7264 F1560
G1 X124.336 Y124.336 E3.4528
G1 X105.664 Y124.336 E5.1793
G1 X105.664 Y105.864 E6.8872
G1 X105.664 Y105.664 F1560
; outer perimeter
G1 X105.088 Y105.088 F9000
G92 E0
G1 X124.912 Y105.088 E1.8329 F1440
G1 X124.912 Y124.912 E3.6659
G1 X105.088 Y124.912 E5.4988
G1 X105.088 Y105.288 E7.3133
G1 X105.088 Y105.088 F1440
G92 E0
G1 E-6.5000 F3600
; solid layer
G1 X123.056 Y106.614 F9000
G1 E-0.2000 F3600
G92 E0
G1 X123.386 Y106.944 E0.0431 F1620
G1 X123.386 Y107.758 E0.1184
G1 X122.242 Y106.614 E0.2680
G1 X121.427 Y106.614 E0.3433
G1 X123.386 Y108.573 E0.5994
G1 X123.386 Y109.388 E0.6747
G1 X120.612 Y106.614 E1.0374
G1 X119.798 Y106.614 E1.1127
G1 X123.386 Y110.202 E1.5818
