; G-Code generated by Simplify3D(R) Version 3.1.1
; Oct 20, 2018 at 10:52:40 PM
; Settings Summary
;   processName,Process1
;   applyToModels,bearing_bushing(2),puller_nut,tensioner_puller_R15,X_tensioner_case
;   profileName,Travis_Fletchers_Ultimate_PETG_Profile_v2 (modified)
;   profileVersion,2017-10-07 13:44:38
;   baseProfile,Creality CR-10
;   printMaterial,PETG
;   printQuality,Fast
;   printExtruders,
;   extruderName,Primary Extruder
;   extruderToolheadNumber,0
;   extruderDiameter,0.4
;   extruderAutoWidth,0
;   extruderWidth,0.4
;   extrusionMultiplier,0.99
;   extruderUseRetract,1
;   extruderRetractionDistance,6.5
;   extruderExtraRestartDistance,-0.2
;   extruderRetractionZLift,0
;   extruderRetractionSpeed,3600
;   extruderUseCoasting,1
;   extruderCoastingDistance,0.2
;   extruderUseWipe,0
;   extruderWipeDistance,4
;   primaryExtruder,0
;   layerHeight,0.3
;   topSolidLayers,3
;   bottomSolidLayers,3
;   perimeterOutlines,3
;   printPerimetersInsideOut,1
;   startPointOption,3
;   startPointOriginX,0
;   startPointOriginY,500
;   startPointOriginZ,0
;   sequentialIslands,0
;   spiralVaseMode,0
;   firstLayerHeightPercentage,130
;   firstLayerWidthPercentage,120
;   firstLayerUnderspeed,0.6
;   useRaft,0
;   raftExtruder,0
;   raftLayers,3
;   raftOffset,3
;   raftSeparationDistance,0.14
;   raftInfill,85
;   disableRaftBaseLayers,0
;   useSkirt,0
;   skirtExtruder,0
;   skirtLayers,1
;   skirtOutlines,10
;   skirtOffset,0.2
;   usePrimePillar,0
;   primePillarExtruder,999
;   primePillarWidth,12
;   primePillarLocation,7
;   primePillarSpeedMultiplier,1
;   useOozeShield,0
;   oozeShieldExtruder,999
;   oozeShieldOffset,2
;   oozeShieldOutlines,1
;   oozeShieldSidewallShape,1
;   oozeShieldSidewallAngle,30
;   oozeShieldSpeedMultiplier,1
;   infillExtruder,0
;   internalInfillPattern,Grid
;   externalInfillPattern,Rectilinear
;   infillPercentage,49
;   outlineOverlapPercentage,35
;   infillExtrusionWidthPercentage,120
;   minInfillLength,4
;   infillLayerInterval,1
;   infillAngles,45,-45
;   overlapInfillAngles,1
;   generateSupport,1
;   supportExtruder,0
;   supportInfillPercentage,25
;   supportExtraInflation,2
;   denseSupportLayers,0
;   denseSupportInfillPercentage,60
;   supportLayerInterval,1
;   supportHorizontalPartOffset,0.3
;   supportUpperSeparationLayers,2
;   supportLowerSeparationLayers,1
;   supportType,0
;   supportGridSpacing,3.5
;   maxOverhangAngle,45
;   supportAngles,0
;   temperatureName,Heated Bed,Primary Extruder
;   temperatureNumber,0,0
;   temperatureSetpointCount,1,1
;   temperatureSetpointLayers,1,1
;   temperatureSetpointTemperatures,85,240
;   temperatureStabilizeAtStartup,1,1
;   temperatureHeatedBed,1,0
;   temperatureRelayBetweenLayers,0,0
;   temperatureRelayBetweenLoops,0,0
;   fanLayers,1,2,3
;   fanSpeeds,0,25,35
;   blipFanToFullPower,0
;   adjustSpeedForCooling,1
;   minSpeedLayerTime,20
;   minCoolingSpeedSlowdown,30
;   increaseFanForCooling,1
;   minFanLayerTime,30
;   maxCoolingFanSpeed,50
;   increaseFanForBridging,1
;   bridgingFanSpeed,100
;   use5D,1
;   relativeEdistances,0
;   allowEaxisZeroing,1
;   independentExtruderAxes,0
;   includeM10123,0
;   stickySupport,1
;   applyToolheadOffsets,0
;   gcodeXoffset,0
;   gcodeYoffset,0
;   gcodeZoffset,0
;   overrideMachineDefinition,1
;   machineTypeOverride,0
;   strokeXoverride,230
;   strokeYoverride,230
;   strokeZoverride,250
;   originOffsetXoverride,0
;   originOffsetYoverride,0
;   originOffsetZoverride,0
;   homeXdirOverride,-1
;   homeYdirOverride,-1
;   homeZdirOverride,-1
;   flipXoverride,1
;   flipYoverride,-1
;   flipZoverride,1
;   toolheadOffsets,0,0|0,0|0,0|0,0|0,0|0,0
;   overrideFirmwareConfiguration,1
;   firmwareTypeOverride,RepRap (Marlin/Repetier/Sprinter)
;   GPXconfigOverride,r2
;   baudRateOverride,115200
;   overridePrinterModels,1
;   printerModelsOverride
;   startingGcode,G28 ; home all axes,M117 Purging Extruder...,;M204 P800 T3000 R9000 ; printing =800ms, travel 3000 retract 9000,M205 T0 X1 Y1 ; Set Jerk ; T0 = Extruder (adjust as needed for multi-extruder mahcines) ; X1/Y1 = Jerk of 1 (lowest value) with a rate of up to 20 (which I believe is the highest value and default),G1 Z1.0 F3000 ; lift Z,G1 X0.2 Y25 Z0.2 F3000.0 ; move to start-line position,G92 E0 ; reset extruder,G1 X0.2 Y150.0 F1000.0 E15 ; draw 1st line,G1 X0.7 Y150.0 F3000.0 ; move to side 0.5mm,G1 X0.7 Y50 F1000.0 E30 ; draw 2nd line,G1 X0.7 Y25 F5000.0 ; quick wipe,M117 Printing!,,; Default S3D CR-10 Startup,; G28 ; home all axes,; G1 Z5 F3000 ; lift,; G1 X20 Y2 F1500 ; avoid binder clips,; G1 Z0.2 F3000 ; get ready to prime,; G92 E0 ; reset extrusion distance,; G1 X120 E10 F600 ; prime nozzle,; G1 X150 F5000 ; quick wipe,
;   layerChangeGcode,
;   retractionGcode,
;   toolChangeGcode,
;   endingGcode,M117 Print Complete!,M104 S0 ; turn off extruder,M140 S0 ; turn off bed,G1 X0 Y295 F1000 ; move finished print out front,M84 ; disable motors,M106 S0 ; turn off cooling fan,,; play song,M300 S294 P200 ;D4: 294,M300 S588 P200 ;D5: 588,M300 S440 P200 ;A4: 440,M300 S392 P200 ;G4: 392,M300 S784 P200 ;G5: 784,M300 S440 P200 ;A4: 440,M300 S740 P200 ;F#5: 740,M300 S440 P200 ;A4: 440,,; Default S3D CR-10 Ending Script,; G28 X0 ; home x axis,; M106 S0 ; turn off cooling fan,; M104 S0 ; turn off extruder,; M140 S0 ; turn off bed,; M84 ; disable motors,
;   exportFileFormat,gcode
;   celebration,0
;   celebrationSong,Star Wars
;   postProcessing,{REPLACE "; outer perimeter\n" "; outer perimeter\nM204 S600\n"},{REPLACE "; inner perimeter\n" "; inner perimeter\nM204 S1200\n"},{REPLACE "; solid layer\n" "; solid layer\nM204 S1000\n"},{REPLACE "; infill\n" "; infill\nM204 S2000\n"}
;   defaultSpeed,1500
;   outlineUnderspeed,0.8
;   solidInfillUnderspeed,0.9
;   supportUnderspeed,1
;   rapidXYspeed,9000
;   rapidZspeed,1002
;   minBridgingArea,50
;   bridgingExtraInflation,0
;   bridgingExtrusionMultiplier,0.9
;   bridgingSpeedMultiplier,1
;   filamentDiameter,1.75
;   filamentPricePerKg,46
;   filamentDensity,1.25
;   useMinPrintHeight,0
;   minPrintHeight,0
;   useMaxPrintHeight,0
;   maxPrintHeight,0
;   useDiaphragm,0
;   diaphragmLayerInterval,20
;   robustSlicing,1
;   mergeAllIntoSolid,0
;   onlyRetractWhenCrossingOutline,0
;   retractBetweenLayers,1
;   useRetractionMinTravel,1
;   retractionMinTravel,3
;   retractWhileWiping,1
;   onlyWipeOutlines,1
;   avoidCrossingOutline,1
;   maxMovementDetourFactor,3
;   toolChangeRetractionDistance,12
;   toolChangeExtraRestartDistance,-0.5
;   toolChangeRetractionSpeed,600
;   allowThinWallGapFill,1
;   thinWallAllowedOverlapPercentage,15
;   horizontalSizeCompensation,0
G90
M82
M106 S0
M140 S85
M190 S85
M104 S240 T0
M109 S240 T0
G28 ; home all axes
M117 Purging Extruder...
;M204 P800 T3000 R9000 ; printing =800ms, travel 3000 retract 9000
M205 T0 X1 Y1 ; Set Jerk ; T0 = Extruder (adjust as needed for multi-extruder mahcines) ; X1/Y1 = Jerk of 1 (lowest value) with a rate of up to 20 (which I believe is the highest value and default)
G1 Z1.0 F3000 ; lift Z
G1 X0.2 Y25 Z0.2 F3000.0 ; move to start-line position
G92 E0 ; reset extruder
G1 X0.2 Y150.0 F1000.0 E15 ; draw 1st line
G1 X0.7 Y150.0 F3000.0 ; move to side 0.5mm
G1 X0.7 Y50 F1000.0 E30 ; draw 2nd line
G1 X0.7 Y25 F5000.0 ; quick wipe
M117 Printing!
; Default S3D CR-10 Startup
; G28 ; home all axes
; G1 Z5 F3000 ; lift
; G1 X20 Y2 F1500 ; avoid binder clips
; G1 Z0.2 F3000 ; get ready to prime
; G92 E0 ; reset extrusion distance
; G1 X120 E10 F600 ; prime nozzle
; G1 X150 F5000 ; quick wipe
G92 E0
G1 E-6.5000 F3600
G1 Z0.390 F1002
; layer 1, Z = 0.39
T0
; tool H0.390 W0.480
; inner perimeter
M204 S1200
G1 X88.409 Y87.858 F9000
G1 E-0.2000 F1080
G92 E0
G1 X88.734 Y87.938 E0.0258 F840
G1 X89.538 Y87.913 E0.0877
G1 X90.623 Y87.574 E0.1754
G1 X89.524 Y89.083 E0.3192
G1 X88.718 Y90.545 E0.4478
G1 X88.478 Y91.151 E0.4980
G1 X88.191 Y91.077 E0.5209
G1 X88.269 Y90.465 E0.5684
G1 X88.169 Y89.727 E0.6257
G1 X87.750 Y88.851 E0.7006
G1 X87.809 Y88.749 E0.7097
G1 X88.297 Y88.024 E0.7770
G1 X88.409 Y87.858 F840
G92 E0
G1 E-6.5000 F3600
G1 X91.489 Y86.648 F9000
G1 E-0.2000 F3600
G92 E0
G1 X91.766 Y85.418 E0.0972 F840
G1 X91.735 Y84.822 E0.1431
G1 X91.674 Y84.605 E0.1605
G1 X92.572 Y83.988 E0.2444
G1 X92.663 Y83.933 E0.2527
G1 X93.405 Y84.308 E0.3167
G1 X94.427 Y84.506 E0.3969
G1 X92.977 Y85.423 E0.5291
G1 X91.644 Y86.521 E0.6622
G1 X91.489 Y86.648 F840
G92 E0
G1 E-6.5000 F3600
G1 X96.156 Y83.726 F9000
G1 E-0.2000 F3600
G92 E0
G1 X96.550 Y83.243 E0.0480 F840
G1 X96.762 Y82.869 E0.0812
G1 X96.988 Y82.150 E0.1392
G1 X97.467 Y82.034 E0.1772
G1 X98.168 Y81.911 E0.2320
G1 X98.270 Y82.092 E0.2481
G1 X98.697 Y82.558 E0.2967
G1 X99.235 Y82.954 E0.3482
G1 X97.607 Y83.260 E0.4758
G1 X96.347 Y83.665 E0.5778
G1 X96.156 Y83.726 F840
G92 E0
G1 E-6.5000 F3600
G1 X101.735 Y82.964 F9000
G1 E-0.2000 F3600
G92 E0
G1 X102.343 Y82.476 E0.0601 F840
G1 X102.594 Y82.204 E0.0886
G1 X102.771 Y81.907 E0.1152
G1 X103.326 Y82.000 E0.1586
G1 X103.988 Y82.143 E0.2108
G1 X104.034 Y82.433 E0.2334
G1 X104.210 Y82.909 E0.2725
G1 X104.567 Y83.501 E0.3258
G1 X102.843 Y83.086 E0.4624
G1 X101.934 Y82.986 E0.5329
G1 X101.735 Y82.964 F840
G92 E0
G1 E-6.5000 F3600
G1 X106.724 Y84.444 F9000
G1 E-0.2000 F3600
G92 E0
G1 X107.255 Y84.389 E0.0411 F840
G1 X108.099 Y84.055 E0.1110
G1 X108.249 Y83.913 E0.1269
G1 X108.832 Y84.281 E0.1801
G1 X109.285 Y84.599 E0.2227
G1 X109.182 Y85.142 E0.2653
G1 X109.212 Y85.670 E0.3060
G1 X109.476 Y86.389 E0.3650
G1 X107.688 Y85.009 E0.5390
G1 X106.897 Y84.545 E0.6096
G1 X106.724 Y84.444 F840
G92 E0
G1 E-6.5000 F3600
G1 X110.587 Y87.681 F9000
G1 E-0.2000 F3600
G92 E0
G1 X111.523 Y87.926 E0.0746 F840
G1 X112.008 Y87.954 E0.1120
G1 X112.521 Y87.845 E0.1524
G1 X113.222 Y88.876 E0.2485
G1 X112.927 Y89.353 E0.2917
G1 X112.750 Y89.893 E0.3355
G1 X112.625 Y91.097 E0.4288
G1 X112.180 Y90.073 E0.5148
G1 X111.314 Y88.615 E0.6455
G1 X110.709 Y87.839 E0.7213
G1 X110.587 Y87.681 F840
G92 E0
G1 E-6.5000 F3600
G1 X112.917 Y91.842 F9000
G1 E-0.2000 F3600
G92 E0
G1 X113.775 Y92.657 E0.0912 F840
G1 X114.426 Y93.017 E0.1486
G1 X114.987 Y93.148 E0.1929
G1 X115.221 Y94.355 E0.2877
G1 X115.050 Y94.449 E0.3027
G1 X114.600 Y94.851 E0.3492
G1 X114.126 Y95.589 E0.4168
G1 X113.923 Y96.364 E0.4785
G1 X113.634 Y96.331 E0.5009
G1 X113.587 Y94.882 E0.6126
G1 X113.323 Y93.232 E0.7414
G1 X112.973 Y92.034 E0.8376
G1 X112.917 Y91.842 F840
G92 E0
G1 E-6.5000 F3600
G1 X113.617 Y96.797 F9000
G1 E-0.2000 F3600
G92 E0
G1 X113.912 Y96.786 E0.0227 F840
G1 X114.019 Y97.413 E0.0717
G1 X114.352 Y98.142 E0.1335
G1 X114.645 Y98.512 E0.1698
G1 X115.222 Y98.998 E0.2279
G1 X115.182 Y99.256 E0.2480
G1 X115.069 Y99.832 E0.2933
G1 X114.989 Y100.164 E0.3196
G1 X114.648 Y100.232 E0.3464
G1 X114.237 Y100.391 E0.3804
G1 X113.760 Y100.683 E0.4235
G1 X113.351 Y101.063 E0.4664
G1 X113.015 Y101.532 E0.5110
G1 X112.711 Y102.431 E0.5840
G1 X112.693 Y103.005 E0.6283
G1 X112.774 Y103.522 E0.6686
G1 X112.894 Y103.892 E0.6986
G1 X113.221 Y104.434 E0.7474
G1 X113.106 Y104.627 E0.7647
G1 X112.538 Y105.450 E0.8417
G1 X112.057 Y105.372 E0.8793
G1 X111.735 Y105.376 E0.9041
G1 X111.399 Y105.419 E0.9302
G1 X111.026 Y105.514 E0.9598
G1 X110.551 Y105.726 E0.9999
G1 X110.138 Y106.020 E1.0390
G1 X109.751 Y106.422 E1.0820
G1 X109.378 Y107.057 E1.1387
G1 X109.191 Y107.814 E1.1988
G1 X109.203 Y108.375 E1.2420
G1 X109.284 Y108.708 E1.2685
G1 X108.824 Y109.039 E1.3121
G1 X108.256 Y109.404 E1.3642
G1 X107.668 Y109.056 E1.4168
G1 X107.007 Y108.889 E1.4693
G1 X106.247 Y108.894 E1.5280
G1 X105.394 Y109.172 E1.5970
G1 X104.882 Y109.539 E1.6456
G1 X104.508 Y109.926 E1.6871
G1 X104.266 Y110.300 E1.7214
G1 X104.030 Y110.897 E1.7708
G1 X103.990 Y111.161 E1.7914
G1 X102.766 Y111.409 E1.8876
G1 X102.550 Y111.054 E1.9197
G1 X101.885 Y110.487 E1.9870
G1 X101.320 Y110.235 E2.0347
G1 X100.554 Y110.097 E2.0946
G1 X99.952 Y110.155 E2.1413
G1 X99.524 Y110.275 E2.1755
G1 X99.206 Y110.417 E2.2023
G1 X98.622 Y110.814 E2.2567
G1 X98.184 Y111.409 E2.3137
G1 X97.937 Y111.375 E2.3329
G1 X96.962 Y111.169 E2.4097
G1 X96.913 Y110.862 E2.4337
G1 X96.651 Y110.230 E2.4864
G1 X96.213 Y109.666 E2.5414
G1 X95.801 Y109.327 E2.5825
G1 X95.322 Y109.077 E2.6242
G1 X94.773 Y108.912 E2.6683
G1 X94.183 Y108.875 E2.7138
G1 X93.810 Y108.914 E2.7428
G1 X93.268 Y109.064 E2.7861
G1 X92.700 Y109.400 E2.8369
G1 X92.329 Y109.175 E2.8703
G1 X91.814 Y108.827 E2.9182
G1 X91.684 Y108.727 E2.9308
G1 X91.770 Y108.131 E2.9773
G1 X91.722 Y107.605 E3.0179
G1 X91.623 Y107.218 E3.0487
G1 X91.454 Y106.824 E3.0817
G1 X91.129 Y106.335 E3.1270
G1 X90.743 Y105.964 E3.1682
G1 X90.385 Y105.719 E3.2017
G1 X89.908 Y105.512 E3.2417
G1 X89.373 Y105.384 E3.2841
G1 X88.784 Y105.383 E3.3295
G1 X88.427 Y105.469 E3.3578
G1 X88.055 Y104.953 E3.4068
G1 X87.732 Y104.451 E3.4528
G1 X88.162 Y103.620 E3.5249
G1 X88.264 Y102.921 E3.5793
G1 X88.223 Y102.383 E3.6209
G1 X88.117 Y101.968 E3.6539
G1 X87.943 Y101.563 E3.6878
G1 X87.591 Y101.057 E3.7353
G1 X87.190 Y100.678 E3.7778
G1 X86.702 Y100.381 E3.8219
G1 X85.957 Y100.166 E3.8816
G1 X85.815 Y99.512 E3.9332
G1 X85.725 Y98.951 E3.9770
G1 X86.041 Y98.759 E4.0054
G1 X86.461 Y98.335 E4.0515
G1 X86.744 Y97.871 E4.0933
G1 X86.934 Y97.390 E4.1332
G1 X87.015 Y96.956 E4.1672
G1 X87.024 Y96.442 E4.2068
G1 X86.941 Y95.960 E4.2445
G1 X86.789 Y95.534 E4.2793
G1 X86.454 Y94.979 E4.3293
G1 X85.935 Y94.476 E4.3851
G1 X85.729 Y94.361 E4.4032
G1 X85.816 Y93.805 E4.4465
G1 X85.966 Y93.143 E4.4988
G1 X86.356 Y93.073 E4.5294
G1 X86.772 Y92.900 E4.5641
G1 X87.179 Y92.649 E4.6010
G1 X87.472 Y92.393 E4.6309
G1 X87.778 Y92.025 E4.6678
G1 X87.854 Y91.888 E4.6799
G1 X88.129 Y91.998 E4.7027
G1 X87.693 Y93.689 E4.8373
G1 X87.486 Y95.320 E4.9640
G1 X87.487 Y96.955 E5.0899
G1 X87.690 Y98.570 E5.2154
G1 X88.094 Y100.136 E5.3399
G1 X88.687 Y101.633 E5.4640
G1 X89.460 Y103.035 E5.5874
G1 X90.380 Y104.300 E5.7079
G1 X91.394 Y105.482 E5.8279
G1 X92.545 Y106.529 E5.9477
G1 X92.840 Y106.738 E5.9756
G1 X93.868 Y107.459 E6.0723
G1 X95.270 Y108.200 E6.1945
G1 X96.748 Y108.756 E6.3162
G1 X98.290 Y109.126 E6.4384
G1 X99.868 Y109.299 E6.5607
G1 X101.454 Y109.273 E6.6829
G1 X103.026 Y109.049 E6.8053
G1 X104.538 Y108.635 E6.9261
G1 X106.022 Y108.019 E7.0499
G1 X107.095 Y107.408 E7.1450
G1 X107.334 Y107.289 E7.1656
G1 X108.656 Y106.392 E7.2887
G1 X109.858 Y105.334 E7.4120
G1 X110.924 Y104.126 E7.5362
G1 X111.835 Y102.787 E7.6610
G1 X112.574 Y101.336 E7.7864
G1 X113.129 Y99.797 E7.9125
G1 X113.289 Y99.085 E7.9687
G1 X113.487 Y98.189 E8.0394
G1 X113.599 Y96.996 E8.1317
G1 X113.617 Y96.797 F840
G92 E0
G1 E-6.5000 F3600
; inner perimeter
M204 S1200
G1 X112.672 Y96.444 F9000
G1 X112.625 Y94.974 F9000
G1 X112.380 Y93.445 F9000
G1 X111.943 Y91.950 F9000
G1 X111.319 Y90.514 F9000
G1 X110.515 Y89.160 F9000
G1 X109.542 Y87.910 F9000
G1 X108.413 Y86.788 F9000
G1 X107.147 Y85.810 F9000
G1 X105.754 Y84.994 F9000
G1 X104.215 Y84.408 F9000
G1 X102.676 Y84.038 F9000
G1 X101.045 Y83.858 F9000
G1 X99.762 Y83.880 F9000
G1 X99.425 Y83.900 F9000
G1 X97.844 Y84.197 F9000
G1 X96.322 Y84.687 F9000
G1 X94.881 Y85.360 F9000
G1 X93.544 Y86.206 F9000
G1 X92.141 Y87.361 F9000
G1 X92.164 Y87.384 F9000
G1 X91.256 Y88.344 F9000
G1 X91.196 Y88.428 F9000
G1 X88.223 Y87.318 F9000
G1 E-0.2000 F3600
G92 E0
G1 X88.785 Y87.456 E0.0446 F780
G1 X89.457 Y87.436 E0.0964
G1 X89.951 Y87.281 E0.1363
G1 X90.211 Y87.140 E0.1591
G1 X90.517 Y86.920 E0.1881
G1 X90.776 Y86.655 E0.2167
G1 X91.124 Y86.083 E0.2682
G1 X91.283 Y85.377 E0.3240
G1 X91.258 Y84.900 E0.3608
G1 X91.120 Y84.403 E0.4006
G1 X92.312 Y83.585 E0.5120
G1 X92.757 Y83.317 E0.5520
G1 X93.001 Y83.566 E0.5789
G1 X93.562 Y83.849 E0.6273
G1 X94.157 Y83.964 E0.6740
G1 X94.622 Y83.942 E0.7098
G1 X95.145 Y83.800 E0.7516
G1 X95.538 Y83.583 E0.7862
G1 X95.877 Y83.309 E0.8198
G1 X96.152 Y82.971 E0.8534
G1 X96.320 Y82.676 E0.8795
G1 X96.493 Y82.126 E0.9240
G1 X96.523 Y81.769 E0.9515
G1 X97.369 Y81.564 E1.0186
G1 X98.419 Y81.379 E1.1008
G1 X98.661 Y81.808 E1.1387
G1 X99.020 Y82.199 E1.1796
G1 X99.241 Y82.362 E1.2007
G1 X99.529 Y82.525 E1.2263
G1 X100.051 Y82.702 E1.2687
