; G-Code generated by Simplify3D(R) Version 4.0.0
; Nov 17, 2018 at 3:25:20 PM
; Settings Summary
;   processName,ABS
;   applyToModels,box_clip
;   profileName,ABS
;   profileVersion,2018-11-14 05:17:17
;   baseProfile,Creality CR-10
;   printMaterial,PETG
;   printQuality,Fast
;   printExtruders,
;   extruderName,Primary Extruder
;   extruderToolheadNumber,0
;   extruderDiameter,0.4
;   extruderAutoWidth,1
;   extruderWidth,0.48
;   extrusionMultiplier,0.99
;   extruderUseRetract,1
;   extruderRetractionDistance,6.5
;   extruderExtraRestartDistance,-0.2
;   extruderRetractionZLift,0
;   extruderRetractionSpeed,3600
;   extruderUseCoasting,1
;   extruderCoastingDistance,0.2
;   extruderUseWipe,0
;   extruderWipeDistance,4
;   primaryExtruder,0
;   layerHeight,0.3
;   topSolidLayers,0
;   bottomSolidLayers,0
;   perimeterOutlines,3
;   printPerimetersInsideOut,1
;   startPointOption,3
;   startPointOriginX,0
;   startPointOriginY,500
;   sequentialIslands,0
;   spiralVaseMode,0
;   firstLayerHeightPercentage,130
;   firstLayerWidthPercentage,120
;   firstLayerUnderspeed,0.6
;   useRaft,0
;   raftExtruder,0
;   raftTopLayers,3
;   raftBaseLayers,2
;   raftOffset,3
;   raftSeparationDistance,0.14
;   raftTopInfill,100
;   aboveRaftSpeedMultiplier,0.3
;   useSkirt,1
;   skirtExtruder,0
;   skirtLayers,1
;   skirtOutlines,3
;   skirtOffset,0.2
;   usePrimePillar,0
;   primePillarExtruder,999
;   primePillarWidth,12
;   primePillarLocation,7
;   primePillarSpeedMultiplier,1
;   useOozeShield,0
;   oozeShieldExtruder,999
;   oozeShieldOffset,2
;   oozeShieldOutlines,1
;   oozeShieldSidewallShape,1
;   oozeShieldSidewallAngle,30
;   oozeShieldSpeedMultiplier,1
;   infillExtruder,0
;   internalInfillPattern,Triangular
;   externalInfillPattern,Rectilinear
;   infillPercentage,20
;   outlineOverlapPercentage,35
;   infillExtrusionWidthPercentage,120
;   minInfillLength,4
;   infillLayerInterval,1
;   internalInfillAngles,0,60,-60
;   overlapInternalInfillAngles,1
;   externalInfillAngles,45,-45
;   generateSupport,1
;   supportExtruder,0
;   supportInfillPercentage,28
;   supportExtraInflation,1
;   supportBaseLayers,0
;   denseSupportExtruder,0
;   denseSupportLayers,0
;   denseSupportInfillPercentage,60
;   supportLayerInterval,1
;   supportHorizontalPartOffset,0.3
;   supportUpperSeparationLayers,2
;   supportLowerSeparationLayers,1
;   supportType,0
;   supportGridSpacing,3.5
;   maxOverhangAngle,45
;   supportAngles,0
;   temperatureName,Heated Bed,Primary Extruder
;   temperatureNumber,0,0
;   temperatureSetpointCount,1,1
;   temperatureSetpointLayers,1,1
;   temperatureSetpointTemperatures,85,230
;   temperatureStabilizeAtStartup,1,1
;   temperatureHeatedBed,1,0
;   temperatureRelayBetweenLayers,0,0
;   temperatureRelayBetweenLoops,0,0
;   fanLayers,1,2,3
;   fanSpeeds,0,0,0
;   blipFanToFullPower,0
;   adjustSpeedForCooling,1
;   minSpeedLayerTime,20
;   minCoolingSpeedSlowdown,30
;   increaseFanForCooling,0
;   minFanLayerTime,30
;   maxCoolingFanSpeed,50
;   increaseFanForBridging,0
;   bridgingFanSpeed,100
;   use5D,1
;   relativeEdistances,0
;   allowEaxisZeroing,1
;   independentExtruderAxes,0
;   includeM10123,0
;   stickySupport,1
;   applyToolheadOffsets,0
;   gcodeXoffset,0
;   gcodeYoffset,0
;   gcodeZoffset,0
;   overrideMachineDefinition,1
;   machineTypeOverride,0
;   strokeXoverride,230
;   strokeYoverride,230
;   strokeZoverride,255
;   originOffsetXoverride,0
;   originOffsetYoverride,0
;   originOffsetZoverride,0
;   homeXdirOverride,-1
;   homeYdirOverride,-1
;   homeZdirOverride,-1
;   flipXoverride,1
;   flipYoverride,-1
;   flipZoverride,1
;   toolheadOffsets,0,0|0,0|0,0|0,0|0,0|0,0
;   overrideFirmwareConfiguration,1
;   firmwareTypeOverride,RepRap (Marlin/Repetier/Sprinter)
;   GPXconfigOverride,r2
;   baudRateOverride,115200
;   overridePrinterModels,1
;   printerModelsOverride
;   startingGcode,G28 ; home all axes,M117 Purging Extruder...,M204 P500 T1000,M205 X10 Y10 ; set jerk x/y=10,G1 Z1.0 F3000 ; lift Z,G1 X0.2 Y25 Z0.2 F3000.0 ; move to start-line position,G92 E0 ; reset extruder,G1 X0.2 Y150.0 F1000.0 E15 ; draw 1st line,G1 X0.7 Y150.0 F3000.0 ; move to side 0.5mm,G1 X0.7 Y50 F1000.0 E30 ; draw 2nd line,G1 X0.7 Y25 F5000.0 ; quick wipe,M117 Printing!,,; Default S3D CR-10 Startup,; G28 ; home all axes,; G1 Z5 F3000 ; lift,; G1 X20 Y2 F1500 ; avoid binder clips,; G1 Z0.2 F3000 ; get ready to prime,; G92 E0 ; reset extrusion distance,; G1 X120 E10 F600 ; prime nozzle,; G1 X150 F5000 ; quick wipe,
;   layerChangeGcode,
;   retractionGcode,
;   toolChangeGcode,
;   endingGcode,M117 Print Complete!,M104 S0 ; turn off extruder,M140 S0 ; turn off bed,G1 X0 Y295 F1000 ; move finished print out front,M84 ; disable motors,M106 S0 ; turn off cooling fan,,; play song,M300 S294 P200 ;D4: 294,M300 S588 P200 ;D5: 588,M300 S440 P200 ;A4: 440,M300 S392 P200 ;G4: 392,M300 S784 P200 ;G5: 784,M300 S440 P200 ;A4: 440,M300 S740 P200 ;F#5: 740,M300 S440 P200 ;A4: 440,,; Default S3D CR-10 Ending Script,; G28 X0 ; home x axis,; M106 S0 ; turn off cooling fan,; M104 S0 ; turn off extruder,; M140 S0 ; turn off bed,; M84 ; disable motors,
;   exportFileFormat,gcode
;   celebration,0
;   celebrationSong,Star Wars
;   postProcessing,,
;   defaultSpeed,2800
;   outlineUnderspeed,0.8
;   solidInfillUnderspeed,0.9
;   supportUnderspeed,1
;   rapidXYspeed,9000
;   rapidZspeed,1002
;   minBridgingArea,50
;   bridgingExtraInflation,0
;   bridgingExtrusionMultiplier,0.9
;   bridgingSpeedMultiplier,1
;   useFixedBridgingAngle,0
;   fixedBridgingAngle,0
;   applyBridgingToPerimeters,0
;   filamentDiameters,1.75|1.75|1.75|1.75|1.75|1.75
;   filamentPricesPerKg,46|46|46|46|46|46
;   filamentDensities,1.25|1.25|1.25|1.25|1.25|1.25
;   useMinPrintHeight,0
;   minPrintHeight,0
;   useMaxPrintHeight,0
;   maxPrintHeight,0
;   useDiaphragm,0
;   diaphragmLayerInterval,20
;   robustSlicing,1
;   mergeAllIntoSolid,0
;   onlyRetractWhenCrossingOutline,0
;   retractBetweenLayers,1
;   useRetractionMinTravel,1
;   retractionMinTravel,3
;   retractWhileWiping,1
;   onlyWipeOutlines,1
;   avoidCrossingOutline,1
;   maxMovementDetourFactor,3
;   toolChangeRetractionDistance,12
;   toolChangeExtraRestartDistance,-0.5
;   toolChangeRetractionSpeed,600
;   externalThinWallType,0
;   internalThinWallType,2
;   thinWallAllowedOverlapPercentage,15
;   singleExtrusionMinLength,1
;   singleExtrusionMinPrintingWidthPercentage,50
;   singleExtrusionMaxPrintingWidthPercentage,200
;   singleExtrusionEndpointExtension,0.2
;   horizontalSizeCompensation,0
G90
M82
M106 S0
M140 S85
M190 S85
M104 S230 T0
M109 S230 T0
G28 ; home all axes
M117 Purging Extruder...
M204 P500 T1000
M205 X10 Y10 ; set jerk x/y=10
G1 Z1.0 F3000 ; lift Z
G1 X0.2 Y25 Z0.2 F3000.0 ; move to start-line position
G92 E0 ; reset extruder
G1 X0.2 Y150.0 F1000.0 E15 ; draw 1st line
G1 X0.7 Y150.0 F3000.0 ; move to side 0.5mm
G1 X0.7 Y50 F1000.0 E30 ; draw 2nd line
G1 X0.7 Y25 F5000.0 ; quick wipe
M117 Printing!
; Default S3D CR-10 Startup
; G28 ; home all axes
; G1 Z5 F3000 ; lift
; G1 X20 Y2 F1500 ; avoid binder clips
; G1 Z0.2 F3000 ; get ready to prime
; G92 E0 ; reset extrusion distance
; G1 X120 E10 F600 ; prime nozzle
; G1 X150 F5000 ; quick wipe
G92 E0
G1 E-6.5000 F3600
G1 Z0.390 F1002
; process ABS
; layer 1, Z = 0.390
T0
; tool H0.390 W0.576
; skirt
G1 X100.508 Y88.962 F9000
G1 E-0.2000 F1080
G92 E0
G1 X100.962 Y88.508 E0.0595 F1680
G1 X101.403 Y88.325 E0.1036
G1 X105.591 Y88.325 E0.4908
G1 X105.764 Y88.350 E0.5069
G1 X105.987 Y88.417 E0.5284
G1 X106.145 Y88.490 E0.5446
G1 X106.592 Y88.783 E0.5940
G1 X106.636 Y88.815 E0.5990
G1 X106.693 Y88.860 E0.6057
G1 X106.733 Y88.895 E0.6107
G1 X107.063 Y89.208 E0.6527
G1 X107.100 Y89.247 E0.6577
G1 X107.148 Y89.301 E0.6643
G1 X107.181 Y89.343 E0.6693
G1 X107.449 Y89.710 E0.7113
G1 X107.479 Y89.755 E0.7163
G1 X107.516 Y89.817 E0.7230
G1 X107.542 Y89.865 E0.7280
G1 X107.740 Y90.274 E0.7700
G1 X107.761 Y90.323 E0.7750
G1 X107.786 Y90.391 E0.7817
G1 X107.803 Y90.442 E0.7867
G1 X107.924 Y90.880 E0.8287
G1 X107.937 Y90.933 E0.8337
G1 X107.949 Y91.004 E0.8403
G1 X107.957 Y91.057 E0.8453
G1 X107.998 Y91.510 E0.8874
G1 X108.000 Y91.564 E0.8923
G1 X108.000 Y91.636 E0.8990
G1 X107.998 Y91.690 E0.9040
G1 X107.957 Y92.143 E0.9460
G1 X107.949 Y92.196 E0.9510
G1 X107.937 Y92.267 E0.9577
G1 X107.924 Y92.320 E0.9627
G1 X107.803 Y92.758 E1.0047
G1 X107.786 Y92.809 E1.0097
G1 X107.761 Y92.877 E1.0164
G1 X107.740 Y92.926 E1.0214
G1 X107.542 Y93.335 E1.0634
G1 X107.516 Y93.383 E1.0684
G1 X107.479 Y93.445 E1.0750
G1 X107.449 Y93.490 E1.0800
G1 X107.181 Y93.857 E1.1220
G1 X107.148 Y93.899 E1.1270
G1 X107.100 Y93.953 E1.1337
G1 X107.063 Y93.992 E1.1387
G1 X106.875 Y94.170 E1.1626
G1 X106.875 Y112.325 E2.8412
G1 X123.125 Y112.325 E4.3437
G1 X123.125 Y94.170 E6.0223
G1 X122.938 Y93.992 E6.0462
G1 X122.900 Y93.953 E6.0512
G1 X122.853 Y93.899 E6.0579
G1 X122.819 Y93.857 E6.0629
G1 X122.551 Y93.490 E6.1049
G1 X122.521 Y93.445 E6.1099
G1 X122.484 Y93.383 E6.1165
G1 X122.458 Y93.335 E6.1216
G1 X122.260 Y92.926 E6.1636
G1 X122.239 Y92.877 E6.1686
G1 X122.214 Y92.809 E6.1752
G1 X122.197 Y92.758 E6.1802
G1 X122.076 Y92.320 E6.2222
G1 X122.063 Y92.267 E6.2272
G1 X122.051 Y92.196 E6.2339
G1 X122.043 Y92.143 E6.2389
G1 X122.002 Y91.690 E6.2809
G1 X122.000 Y91.636 E6.2859
G1 X122.000 Y91.564 E6.2926
G1 X122.002 Y91.510 E6.2976
G1 X122.043 Y91.057 E6.3396
G1 X122.051 Y91.004 E6.3446
G1 X122.063 Y90.933 E6.3512
G1 X122.076 Y90.880 E6.3562
G1 X122.197 Y90.442 E6.3983
G1 X122.214 Y90.391 E6.4033
G1 X122.239 Y90.323 E6.4099
G1 X122.260 Y90.274 E6.4149
G1 X122.458 Y89.865 E6.4569
G1 X122.484 Y89.817 E6.4619
G1 X122.521 Y89.755 E6.4686
G1 X122.551 Y89.710 E6.4736
G1 X122.819 Y89.343 E6.5156
G1 X122.852 Y89.301 E6.5206
G1 X122.900 Y89.247 E6.5273
G1 X122.937 Y89.208 E6.5323
G1 X123.267 Y88.895 E6.5743
G1 X123.307 Y88.860 E6.5792
G1 X123.364 Y88.815 E6.5859
G1 X123.408 Y88.783 E6.5909
G1 X123.855 Y88.490 E6.6404
G1 X124.013 Y88.417 E6.6565
G1 X124.236 Y88.350 E6.6780
G1 X124.409 Y88.325 E6.6941
G1 X128.597 Y88.325 E7.0813
G1 X129.038 Y88.508 E7.1255
G1 X129.492 Y88.962 E7.1849
G1 X129.675 Y89.403 E7.2291
G1 X129.675 Y117.591 E9.8353
G1 X129.650 Y117.764 E9.8514
G1 X129.583 Y117.987 E9.8730
G1 X129.510 Y118.145 E9.8891
G1 X129.217 Y118.592 E9.9385
G1 X129.185 Y118.636 E9.9435
G1 X129.141 Y118.692 E9.9502
G1 X129.105 Y118.733 E9.9552
G1 X128.792 Y119.062 E9.9972
G1 X128.753 Y119.100 E10.0022
G1 X128.699 Y119.147 E10.0088
G1 X128.657 Y119.181 E10.0138
G1 X128.290 Y119.449 E10.0559
G1 X128.245 Y119.479 E10.0608
G1 X128.183 Y119.516 E10.0675
G1 X128.135 Y119.542 E10.0725
G1 X127.726 Y119.740 E10.1145
G1 X127.677 Y119.761 E10.1195
G1 X127.609 Y119.786 E10.1262
G1 X127.558 Y119.803 E10.1312
G1 X127.120 Y119.924 E10.1732
G1 X127.067 Y119.936 E10.1782
G1 X126.996 Y119.949 E10.1849
G1 X126.943 Y119.957 E10.1899
G1 X126.490 Y119.998 E10.2319
G1 X126.436 Y120.000 E10.2369
G1 X126.364 Y120.000 E10.2435
G1 X126.310 Y119.998 E10.2485
G1 X125.857 Y119.957 E10.2905
G1 X125.804 Y119.949 E10.2955
G1 X125.733 Y119.936 E10.3022
G1 X125.680 Y119.924 E10.3072
G1 X125.242 Y119.803 E10.3492
G1 X125.191 Y119.786 E10.3542
G1 X125.123 Y119.761 E10.3609
G1 X125.074 Y119.740 E10.3659
G1 X124.665 Y119.542 E10.4079
G1 X124.617 Y119.516 E10.4129
G1 X124.555 Y119.479 E10.4196
G1 X124.510 Y119.449 E10.4245
G1 X124.143 Y119.181 E10.4666
G1 X124.101 Y119.148 E10.4716
G1 X124.047 Y119.100 E10.4782
G1 X124.008 Y119.063 E10.4832
G1 X123.830 Y118.875 E10.5071
G1 X106.875 Y118.875 E12.0748
G1 X106.875 Y135.125 E13.5773
G1 X123.830 Y135.125 E15.1449
G1 X124.008 Y134.938 E15.1688
G1 X124.047 Y134.900 E15.1738
G1 X124.101 Y134.853 E15.1805
G1 X124.143 Y134.819 E15.1855
G1 X124.510 Y134.551 E15.2275
G1 X124.555 Y134.521 E15.2325
G1 X124.617 Y134.484 E15.2392
G1 X124.665 Y134.458 E15.2442
G1 X125.074 Y134.260 E15.2862
G1 X125.123 Y134.239 E15.2912
G1 X125.191 Y134.214 E15.2978
G1 X125.242 Y134.197 E15.3028
G1 X125.680 Y134.076 E15.3448
G1 X125.732 Y134.064 E15.3498
G1 X125.803 Y134.051 E15.3564
G1 X125.857 Y134.043 E15.3615
G1 X126.310 Y134.002 E15.4035
G1 X126.364 Y134.000 E15.4085
G1 X126.436 Y134.000 E15.4152
G1 X126.490 Y134.002 E15.4202
G1 X126.943 Y134.043 E15.4622
G1 X126.997 Y134.051 E15.4673
G1 X127.068 Y134.064 E15.4740
G1 X127.120 Y134.076 E15.4789
G1 X127.558 Y134.197 E15.5209
G1 X127.609 Y134.214 E15.5259
G1 X127.677 Y134.239 E15.5326
G1 X127.726 Y134.260 E15.5375
G1 X128.135 Y134.458 E15.5796
G1 X128.183 Y134.484 E15.5846
G1 X128.245 Y134.521 E15.5912
G1 X128.290 Y134.551 E15.5962
G1 X128.657 Y134.819 E15.6382
G1 X128.699 Y134.852 E15.6432
G1 X128.753 Y134.900 E15.6499
G1 X128.792 Y134.937 E15.6549
G1 X129.105 Y135.267 E15.6969
G1 X129.141 Y135.308 E15.7019
G1 X129.185 Y135.364 E15.7086
G1 X129.217 Y135.408 E15.7135
G1 X129.510 Y135.855 E15.7630
G1 X129.583 Y136.013 E15.7791
G1 X129.650 Y136.236 E15.8006
G1 X129.675 Y136.409 E15.8167
G1 X129.675 Y140.597 E16.2039
G1 X129.492 Y141.038 E16.2481
G1 X129.038 Y141.492 E16.3075
G1 X128.597 Y141.675 E16.3517
G1 X101.403 Y141.675 E18.8660
G1 X100.962 Y141.492 E18.9101
G1 X100.508 Y141.038 E18.9696
G1 X100.325 Y140.597 E19.0137
G1 X100.325 Y89.403 E23.7470
G1 X100.431 Y89.147 E23.7727
G1 X100.508 Y88.962 F1680
G1 X100.915 Y89.234 F9000
G92 E0
G1 X101.234 Y88.915 E0.0418 F1680
G1 X101.499 Y88.805 E0.0683
G1 X105.556 Y88.805 E0.4435
G1 X105.660 Y88.820 E0.4531
G1 X105.816 Y88.867 E0.4682
G1 X105.911 Y88.911 E0.4779
G1 X106.320 Y89.179 E0.5231
G1 X106.346 Y89.198 E0.5261
G1 X106.386 Y89.229 E0.5307
G1 X106.410 Y89.250 E0.5337
G1 X106.724 Y89.549 E0.5738
G1 X106.746 Y89.572 E0.5767
G1 X106.780 Y89.610 E0.5814
G1 X106.800 Y89.635 E0.5844
G1 X107.055 Y89.985 E0.6244
G1 X107.073 Y90.012 E0.6274
G1 X107.099 Y90.055 E0.6321
G1 X107.114 Y90.084 E0.6351
G1 X107.303 Y90.473 E0.6751
G1 X107.316 Y90.503 E0.6781
G1 X107.333 Y90.550 E0.6827
G1 X107.343 Y90.581 E0.6858
G1 X107.459 Y90.998 E0.7258
G1 X107.466 Y91.030 E0.7288
G1 X107.475 Y91.079 E0.7334
G1 X107.480 Y91.111 E0.7364
G1 X107.519 Y91.542 E0.7764
G1 X107.520 Y91.575 E0.7794
G1 X107.520 Y91.625 E0.7841
G1 X107.519 Y91.658 E0.7871
G1 X107.480 Y92.089 E0.8271
G1 X107.475 Y92.121 E0.8301
G1 X107.466 Y92.170 E0.8348
G1 X107.459 Y92.202 E0.8378
G1 X107.343 Y92.619 E0.8778
G1 X107.333 Y92.650 E0.8808
G1 X107.316 Y92.697 E0.8855
G1 X107.303 Y92.727 E0.8885
G1 X107.114 Y93.116 E0.9285
G1 X107.099 Y93.145 E0.9315
G1 X107.073 Y93.188 E0.9361
G1 X107.055 Y93.215 E0.9391
G1 X106.800 Y93.565 E0.9791
G1 X106.780 Y93.590 E0.9821
G1 X106.746 Y93.628 E0.9868
G1 X106.724 Y93.651 E0.9898
G1 X106.410 Y93.950 E1.0298
G1 X106.395 Y93.963 E1.0317
G1 X106.395 Y112.805 E2.7738
G1 X123.605 Y112.805 E4.3651
G1 X123.605 Y93.963 E6.1072
G1 X123.590 Y93.950 E6.1091
G1 X123.276 Y93.652 E6.1491
G1 X123.254 Y93.628 E6.1521
G1 X123.220 Y93.590 E6.1568
G1 X123.200 Y93.565 E6.1598
G1 X122.945 Y93.215 E6.1998
G1 X122.927 Y93.188 E6.2028
G1 X122.901 Y93.145 E6.2074
G1 X122.886 Y93.117 E6.2105
G1 X122.697 Y92.727 E6.2505
G1 X122.684 Y92.697 E6.2535
G1 X122.667 Y92.650 E6.2581
G1 X122.657 Y92.619 E6.2611
G1 X122.541 Y92.202 E6.3011
G1 X122.534 Y92.170 E6.3041
G1 X122.525 Y92.121 E6.3088
G1 X122.520 Y92.089 E6.3118
G1 X122.481 Y91.658 E6.3518
G1 X122.480 Y91.625 E6.3548
G1 X122.480 Y91.575 E6.3595
G1 X122.481 Y91.542 E6.3625
G1 X122.520 Y91.111 E6.4025
G1 X122.525 Y91.079 E6.4055
G1 X122.534 Y91.030 E6.4102
G1 X122.541 Y90.998 E6.4132
G1 X122.657 Y90.581 E6.4532
G1 X122.667 Y90.550 E6.4562
G1 X122.684 Y90.503 E6.4608
G1 X122.697 Y90.473 E6.4638
G1 X122.886 Y90.084 E6.5038
G1 X122.901 Y90.055 E6.5068
G1 X122.927 Y90.012 E6.5115
G1 X122.945 Y89.985 E6.5145
G1 X123.200 Y89.635 E6.5545
G1 X123.220 Y89.610 E6.5575
G1 X123.254 Y89.572 E6.5622
G1 X123.276 Y89.549 E6.5652
G1 X123.590 Y89.250 E6.6052
G1 X123.614 Y89.229 E6.6082
G1 X123.654 Y89.198 E6.6128
G1 X123.680 Y89.179 E6.6158
G1 X124.089 Y88.911 E6.6611
G1 X124.184 Y88.867 E6.6707
G1 X124.340 Y88.820 E6.6858
G1 X124.444 Y88.805 E6.6955
G1 X128.501 Y88.805 E7.0706
G1 X128.766 Y88.915 E7.0971
