; G-Code generated by Simplify3D(R) Version 4.0.0
; Nov 18, 2018 at 7:05:35 PM
; Settings Summary
;   processName,ABS
;   applyToModels,box_clip(4),box_clip(4)(3),box_clip(4)(4),box_clip(4)(5),box_clip(4)(6),box_clip(4)(7),box_clip(4)(8),box_clip(4)(9)
;   profileName,ABS (modified)
;   profileVersion,2018-11-14 05:17:17
;   baseProfile,Creality CR-10
;   printMaterial,PETG
;   printQuality,Fast
;   printExtruders,
;   extruderName,Primary Extruder
;   extruderToolheadNumber,0
;   extruderDiameter,0.4
;   extruderAutoWidth,1
;   extruderWidth,0.48
;   extrusionMultiplier,0.99
;   extruderUseRetract,1
;   extruderRetractionDistance,6.5
;   extruderExtraRestartDistance,-0.2
;   extruderRetractionZLift,0
;   extruderRetractionSpeed,3600
;   extruderUseCoasting,1
;   extruderCoastingDistance,0.2
;   extruderUseWipe,0
;   extruderWipeDistance,4
;   primaryExtruder,0
;   layerHeight,0.3
;   topSolidLayers,3
;   bottomSolidLayers,3
;   perimeterOutlines,3
;   printPerimetersInsideOut,1
;   startPointOption,3
;   startPointOriginX,0
;   startPointOriginY,500
;   sequentialIslands,0
;   spiralVaseMode,0
;   firstLayerHeightPercentage,130
;   firstLayerWidthPercentage,120
;   firstLayerUnderspeed,0.6
;   useRaft,0
;   raftExtruder,0
;   raftTopLayers,3
;   raftBaseLayers,2
;   raftOffset,3
;   raftSeparationDistance,0.14
;   raftTopInfill,100
;   aboveRaftSpeedMultiplier,0.3
;   useSkirt,1
;   skirtExtruder,0
;   skirtLayers,1
;   skirtOutlines,3
;   skirtOffset,0.2
;   usePrimePillar,0
;   primePillarExtruder,999
;   primePillarWidth,12
;   primePillarLocation,7
;   primePillarSpeedMultiplier,1
;   useOozeShield,0
;   oozeShieldExtruder,999
;   oozeShieldOffset,2
;   oozeShieldOutlines,1
;   oozeShieldSidewallShape,1
;   oozeShieldSidewallAngle,30
;   oozeShieldSpeedMultiplier,1
;   infillExtruder,0
;   internalInfillPattern,Triangular
;   externalInfillPattern,Rectilinear
;   infillPercentage,20
;   outlineOverlapPercentage,35
;   infillExtrusionWidthPercentage,120
;   minInfillLength,4
;   infillLayerInterval,1
;   internalInfillAngles,0,60,-60
;   overlapInternalInfillAngles,1
;   externalInfillAngles,45,-45
;   generateSupport,1
;   supportExtruder,0
;   supportInfillPercentage,28
;   supportExtraInflation,1
;   supportBaseLayers,0
;   denseSupportExtruder,0
;   denseSupportLayers,0
;   denseSupportInfillPercentage,60
;   supportLayerInterval,1
;   supportHorizontalPartOffset,0.3
;   supportUpperSeparationLayers,2
;   supportLowerSeparationLayers,1
;   supportType,0
;   supportGridSpacing,3.5
;   maxOverhangAngle,45
;   supportAngles,0
;   temperatureName,Heated Bed,Primary Extruder
;   temperatureNumber,0,0
;   temperatureSetpointCount,1,1
;   temperatureSetpointLayers,1,1
;   temperatureSetpointTemperatures,85,245
;   temperatureStabilizeAtStartup,1,1
;   temperatureHeatedBed,1,0
;   temperatureRelayBetweenLayers,0,0
;   temperatureRelayBetweenLoops,0,0
;   fanLayers,1,2,3
;   fanSpeeds,0,0,0
;   blipFanToFullPower,0
;   adjustSpeedForCooling,1
;   minSpeedLayerTime,20
;   minCoolingSpeedSlowdown,30
;   increaseFanForCooling,0
;   minFanLayerTime,30
;   maxCoolingFanSpeed,50
;   increaseFanForBridging,0
;   bridgingFanSpeed,100
;   use5D,1
;   relativeEdistances,0
;   allowEaxisZeroing,1
;   independentExtruderAxes,0
;   includeM10123,0
;   stickySupport,1
;   applyToolheadOffsets,0
;   gcodeXoffset,0
;   gcodeYoffset,0
;   gcodeZoffset,0
;   overrideMachineDefinition,1
;   machineTypeOverride,0
;   strokeXoverride,230
;   strokeYoverride,230
;   strokeZoverride,255
;   originOffsetXoverride,0
;   originOffsetYoverride,0
;   originOffsetZoverride,0
;   homeXdirOverride,-1
;   homeYdirOverride,-1
;   homeZdirOverride,-1
;   flipXoverride,1
;   flipYoverride,-1
;   flipZoverride,1
;   toolheadOffsets,0,0|0,0|0,0|0,0|0,0|0,0
;   overrideFirmwareConfiguration,1
;   firmwareTypeOverride,RepRap (Marlin/Repetier/Sprinter)
;   GPXconfigOverride,r2
;   baudRateOverride,115200
;   overridePrinterModels,1
;   printerModelsOverride
;   startingGcode,G28 ; home all axes,M117 Purging Extruder...,M204 P500 T1000,M205 X10 Y10 ; set jerk x/y=10,G1 Z1.0 F3000 ; lift Z,G1 X0.2 Y25 Z0.2 F3000.0 ; move to start-line position,G92 E0 ; reset extruder,G1 X0.2 Y150.0 F1000.0 E15 ; draw 1st line,G1 X0.7 Y150.0 F3000.0 ; move to side 0.5mm,G1 X0.7 Y50 F1000.0 E30 ; draw 2nd line,G1 X0.7 Y25 F5000.0 ; quick wipe,M117 Printing!,,; Default S3D CR-10 Startup,; G28 ; home all axes,; G1 Z5 F3000 ; lift,; G1 X20 Y2 F1500 ; avoid binder clips,; G1 Z0.2 F3000 ; get ready to prime,; G92 E0 ; reset extrusion distance,; G1 X120 E10 F600 ; prime nozzle,; G1 X150 F5000 ; quick wipe,
;   layerChangeGcode,
;   retractionGcode,
;   toolChangeGcode,
;   endingGcode,M117 Print Complete!,M104 S0 ; turn off extruder,M140 S0 ; turn off bed,G1 X0 Y295 F1000 ; move finished print out front,M84 ; disable motors,M106 S0 ; turn off cooling fan,,; play song,M300 S294 P200 ;D4: 294,M300 S588 P200 ;D5: 588,M300 S440 P200 ;A4: 440,M300 S392 P200 ;G4: 392,M300 S784 P200 ;G5: 784,M300 S440 P200 ;A4: 440,M300 S740 P200 ;F#5: 740,M300 S440 P200 ;A4: 440,,; Default S3D CR-10 Ending Script,; G28 X0 ; home x axis,; M106 S0 ; turn off cooling fan,; M104 S0 ; turn off extruder,; M140 S0 ; turn off bed,; M84 ; disable motors,
;   exportFileFormat,gcode
;   celebration,0
;   celebrationSong,Star Wars
;   postProcessing,,
;   defaultSpeed,3000
;   outlineUnderspeed,0.8
;   solidInfillUnderspeed,0.9
;   supportUnderspeed,1
;   rapidXYspeed,9000
;   rapidZspeed,1002
;   minBridgingArea,50
;   bridgingExtraInflation,0
;   bridgingExtrusionMultiplier,0.9
;   bridgingSpeedMultiplier,1
;   useFixedBridgingAngle,0
;   fixedBridgingAngle,0
;   applyBridgingToPerimeters,0
;   filamentDiameters,1.75|1.75|1.75|1.75|1.75|1.75
;   filamentPricesPerKg,46|46|46|46|46|46
;   filamentDensities,1.25|1.25|1.25|1.25|1.25|1.25
;   useMinPrintHeight,0
;   minPrintHeight,0
;   useMaxPrintHeight,0
;   maxPrintHeight,0
;   useDiaphragm,0
;   diaphragmLayerInterval,20
;   robustSlicing,1
;   mergeAllIntoSolid,0
;   onlyRetractWhenCrossingOutline,0
;   retractBetweenLayers,1
;   useRetractionMinTravel,1
;   retractionMinTravel,3
;   retractWhileWiping,1
;   onlyWipeOutlines,1
;   avoidCrossingOutline,1
;   maxMovementDetourFactor,3
;   toolChangeRetractionDistance,12
;   toolChangeExtraRestartDistance,-0.5
;   toolChangeRetractionSpeed,600
;   externalThinWallType,0
;   internalThinWallType,2
;   thinWallAllowedOverlapPercentage,15
;   singleExtrusionMinLength,1
;   singleExtrusionMinPrintingWidthPercentage,50
;   singleExtrusionMaxPrintingWidthPercentage,200
;   singleExtrusionEndpointExtension,0.2
;   horizontalSizeCompensation,0
G90
M82
M106 S0
M140 S85
M190 S85
M104 S245 T0
M109 S245 T0
G28 ; home all axes
M117 Purging Extruder...
M204 P500 T1000
M205 X10 Y10 ; set jerk x/y=10
G1 Z1.0 F3000 ; lift Z
G1 X0.2 Y25 Z0.2 F3000.0 ; move to start-line position
G92 E0 ; reset extruder
G1 X0.2 Y150.0 F1000.0 E15 ; draw 1st line
G1 X0.7 Y150.0 F3000.0 ; move to side 0.5mm
G1 X0.7 Y50 F1000.0 E30 ; draw 2nd line
G1 X0.7 Y25 F5000.0 ; quick wipe
M117 Printing!
; Default S3D CR-10 Startup
; G28 ; home all axes
; G1 Z5 F3000 ; lift
; G1 X20 Y2 F1500 ; avoid binder clips
; G1 Z0.2 F3000 ; get ready to prime
; G92 E0 ; reset extrusion distance
; G1 X120 E10 F600 ; prime nozzle
; G1 X150 F5000 ; quick wipe
G92 E0
G1 E-6.5000 F3600
G1 Z0.390 F1002
; process ABS
; layer 1, Z = 0.390
T0
; tool H0.390 W0.576
; skirt
G1 X53.183 Y61.187 F9000
G1 E-0.2000 F1080
G92 E0
G1 X53.637 Y60.733 E0.0595 F1800
G1 X54.078 Y60.550 E0.1036
G1 X58.266 Y60.550 E0.4908
G1 X58.439 Y60.575 E0.5069
G1 X58.662 Y60.642 E0.5284
G1 X58.820 Y60.715 E0.5446
G1 X59.267 Y61.008 E0.5940
G1 X59.311 Y61.040 E0.5990
G1 X59.368 Y61.085 E0.6057
G1 X59.408 Y61.120 E0.6107
G1 X59.738 Y61.433 E0.6527
G1 X59.775 Y61.472 E0.6577
G1 X59.823 Y61.526 E0.6643
G1 X59.856 Y61.568 E0.6693
G1 X60.124 Y61.935 E0.7113
G1 X60.154 Y61.980 E0.7163
G1 X60.191 Y62.042 E0.7230
G1 X60.217 Y62.090 E0.7280
G1 X60.415 Y62.499 E0.7700
G1 X60.436 Y62.548 E0.7750
G1 X60.461 Y62.616 E0.7817
G1 X60.478 Y62.667 E0.7867
G1 X60.599 Y63.105 E0.8287
G1 X60.612 Y63.158 E0.8337
G1 X60.624 Y63.229 E0.8403
G1 X60.632 Y63.282 E0.8453
G1 X60.673 Y63.735 E0.8874
G1 X60.675 Y63.789 E0.8923
G1 X60.675 Y63.861 E0.8990
G1 X60.673 Y63.915 E0.9040
G1 X60.632 Y64.368 E0.9460
G1 X60.624 Y64.421 E0.9510
G1 X60.612 Y64.492 E0.9577
G1 X60.599 Y64.545 E0.9627
G1 X60.478 Y64.983 E1.0047
G1 X60.461 Y65.034 E1.0097
G1 X60.436 Y65.102 E1.0164
G1 X60.415 Y65.151 E1.0214
G1 X60.217 Y65.560 E1.0634
G1 X60.191 Y65.608 E1.0684
G1 X60.154 Y65.670 E1.0750
G1 X60.124 Y65.715 E1.0800
G1 X59.856 Y66.082 E1.1220
G1 X59.823 Y66.124 E1.1270
G1 X59.775 Y66.178 E1.1337
G1 X59.738 Y66.217 E1.1387
G1 X59.550 Y66.395 E1.1626
G1 X59.550 Y84.550 E2.8412
G1 X75.800 Y84.550 E4.3437
G1 X75.800 Y66.395 E6.0223
G1 X75.612 Y66.217 E6.0462
G1 X75.575 Y66.178 E6.0513
G1 X75.527 Y66.124 E6.0579
G1 X75.494 Y66.081 E6.0629
G1 X75.226 Y65.715 E6.1049
G1 X75.196 Y65.670 E6.1099
G1 X75.159 Y65.608 E6.1166
G1 X75.133 Y65.560 E6.1216
G1 X74.935 Y65.151 E6.1636
G1 X74.914 Y65.102 E6.1686
G1 X74.889 Y65.034 E6.1752
G1 X74.872 Y64.983 E6.1802
G1 X74.751 Y64.545 E6.2222
G1 X74.739 Y64.492 E6.2272
G1 X74.726 Y64.421 E6.2339
G1 X74.718 Y64.368 E6.2389
G1 X74.677 Y63.915 E6.2809
G1 X74.675 Y63.861 E6.2859
G1 X74.675 Y63.789 E6.2926
G1 X74.677 Y63.735 E6.2976
G1 X74.718 Y63.282 E6.3396
G1 X74.726 Y63.229 E6.3446
G1 X74.738 Y63.158 E6.3512
G1 X74.751 Y63.105 E6.3562
G1 X74.872 Y62.667 E6.3983
G1 X74.889 Y62.616 E6.4033
G1 X74.914 Y62.548 E6.4100
G1 X74.935 Y62.499 E6.4149
G1 X75.133 Y62.090 E6.4569
G1 X75.159 Y62.042 E6.4619
G1 X75.196 Y61.980 E6.4686
G1 X75.226 Y61.935 E6.4736
G1 X75.494 Y61.568 E6.5156
G1 X75.527 Y61.526 E6.5206
G1 X75.575 Y61.472 E6.5273
G1 X75.612 Y61.433 E6.5323
G1 X75.942 Y61.120 E6.5743
G1 X75.982 Y61.085 E6.5793
G1 X76.039 Y61.040 E6.5859
G1 X76.083 Y61.008 E6.5909
G1 X76.530 Y60.715 E6.6404
G1 X76.688 Y60.642 E6.6565
G1 X76.911 Y60.575 E6.6780
G1 X77.084 Y60.550 E6.6941
G1 X81.272 Y60.550 E7.0813
G1 X81.713 Y60.733 E7.1255
G1 X82.167 Y61.187 E7.1849
G1 X82.350 Y61.628 E7.2291
G1 X82.350 Y89.816 E9.8353
G1 X82.325 Y89.989 E9.8514
G1 X82.258 Y90.212 E9.8730
G1 X82.185 Y90.370 E9.8891
G1 X81.892 Y90.817 E9.9385
G1 X81.860 Y90.861 E9.9435
G1 X81.816 Y90.917 E9.9502
G1 X81.780 Y90.958 E9.9552
G1 X81.467 Y91.288 E9.9972
G1 X81.427 Y91.325 E10.0022
G1 X81.373 Y91.373 E10.0089
G1 X81.331 Y91.406 E10.0139
G1 X80.965 Y91.674 E10.0559
G1 X80.920 Y91.704 E10.0608
G1 X80.858 Y91.741 E10.0675
G1 X80.810 Y91.767 E10.0725
G1 X80.401 Y91.965 E10.1145
G1 X80.351 Y91.986 E10.1195
G1 X80.284 Y92.011 E10.1262
G1 X80.233 Y92.028 E10.1312
G1 X79.795 Y92.149 E10.1732
G1 X79.742 Y92.161 E10.1782
G1 X79.671 Y92.174 E10.1849
G1 X79.618 Y92.182 E10.1899
G1 X79.165 Y92.223 E10.2319
G1 X79.111 Y92.225 E10.2369
G1 X79.039 Y92.225 E10.2435
G1 X78.985 Y92.223 E10.2485
G1 X78.532 Y92.182 E10.2905
G1 X78.479 Y92.174 E10.2955
G1 X78.408 Y92.161 E10.3022
G1 X78.355 Y92.149 E10.3072
G1 X77.917 Y92.028 E10.3492
G1 X77.866 Y92.011 E10.3542
G1 X77.799 Y91.986 E10.3609
G1 X77.749 Y91.965 E10.3659
G1 X77.340 Y91.767 E10.4079
G1 X77.292 Y91.741 E10.4129
G1 X77.230 Y91.704 E10.4196
G1 X77.185 Y91.674 E10.4245
G1 X76.818 Y91.406 E10.4666
G1 X76.776 Y91.372 E10.4716
G1 X76.722 Y91.325 E10.4782
G1 X76.683 Y91.287 E10.4832
G1 X76.505 Y91.100 E10.5071
G1 X59.550 Y91.100 E12.0748
G1 X59.550 Y107.350 E13.5773
G1 X76.505 Y107.350 E15.1449
G1 X76.683 Y107.162 E15.1688
G1 X76.722 Y107.125 E15.1738
G1 X76.776 Y107.078 E15.1805
G1 X76.818 Y107.044 E15.1855
G1 X77.185 Y106.776 E15.2275
G1 X77.231 Y106.746 E15.2325
G1 X77.292 Y106.709 E15.2392
G1 X77.340 Y106.683 E15.2442
G1 X77.749 Y106.485 E15.2862
G1 X77.799 Y106.464 E15.2912
G1 X77.866 Y106.439 E15.2979
G1 X77.917 Y106.422 E15.3028
G1 X78.355 Y106.301 E15.3449
G1 X78.408 Y106.289 E15.3499
G1 X78.479 Y106.276 E15.3565
G1 X78.532 Y106.268 E15.3615
G1 X78.985 Y106.227 E15.4035
G1 X79.039 Y106.225 E15.4085
G1 X79.111 Y106.225 E15.4152
G1 X79.165 Y106.227 E15.4202
G1 X79.618 Y106.268 E15.4622
G1 X79.671 Y106.276 E15.4672
G1 X79.742 Y106.289 E15.4739
G1 X79.795 Y106.301 E15.4789
G1 X80.233 Y106.422 E15.5209
G1 X80.284 Y106.439 E15.5259
G1 X80.351 Y106.464 E15.5325
G1 X80.401 Y106.485 E15.5375
G1 X80.810 Y106.683 E15.5795
G1 X80.858 Y106.709 E15.5846
G1 X80.920 Y106.746 E15.5912
G1 X80.965 Y106.776 E15.5962
G1 X81.331 Y107.043 E15.6382
G1 X81.373 Y107.077 E15.6431
G1 X81.427 Y107.125 E15.6498
G1 X81.467 Y107.162 E15.6549
G1 X81.780 Y107.492 E15.6969
G1 X81.816 Y107.533 E15.7019
G1 X81.860 Y107.589 E15.7086
G1 X81.892 Y107.633 E15.7135
G1 X82.185 Y108.080 E15.7630
G1 X82.258 Y108.238 E15.7791
G1 X82.325 Y108.461 E15.8006
G1 X82.350 Y108.634 E15.8167
G1 X82.350 Y112.822 E16.2039
G1 X82.167 Y113.263 E16.2481
G1 X81.713 Y113.717 E16.3075
G1 X81.272 Y113.900 E16.3517
G1 X54.078 Y113.900 E18.8660
G1 X53.637 Y113.717 E18.9101
G1 X53.183 Y113.263 E18.9696
G1 X53.000 Y112.822 E19.0137
G1 X53.000 Y61.628 E23.7470
G1 X53.106 Y61.372 E23.7727
G1 X53.183 Y61.187 F1800
G92 E0
G1 E-6.5000 F3600
G1 X84.733 Y61.187 F9000
G1 E-0.2000 F3600
G92 E0
G1 X85.187 Y60.733 E0.0595 F1800
G1 X85.628 Y60.550 E0.1036
G1 X89.816 Y60.550 E0.4908
G1 X89.989 Y60.575 E0.5069
G1 X90.212 Y60.642 E0.5284
G1 X90.370 Y60.715 E0.5446
G1 X90.817 Y61.008 E0.5940
G1 X90.861 Y61.040 E0.5990
G1 X90.918 Y61.085 E0.6057
G1 X90.958 Y61.120 E0.6107
G1 X91.288 Y61.433 E0.6527
G1 X91.325 Y61.472 E0.6577
G1 X91.373 Y61.526 E0.6643
G1 X91.406 Y61.568 E0.6693
G1 X91.674 Y61.935 E0.7113
G1 X91.704 Y61.980 E0.7163
G1 X91.741 Y62.042 E0.7230
G1 X91.767 Y62.090 E0.7280
G1 X91.965 Y62.499 E0.7700
G1 X91.986 Y62.548 E0.7750
G1 X92.011 Y62.616 E0.7817
G1 X92.028 Y62.667 E0.7867
G1 X92.149 Y63.105 E0.8287
G1 X92.161 Y63.158 E0.8337
G1 X92.174 Y63.229 E0.8403
G1 X92.182 Y63.282 E0.8453
G1 X92.223 Y63.735 E0.8873
G1 X92.225 Y63.789 E0.8923
G1 X92.225 Y63.861 E0.8990
G1 X92.223 Y63.915 E0.9040
G1 X92.182 Y64.368 E0.9460
G1 X92.174 Y64.421 E0.9510
G1 X92.161 Y64.492 E0.9577
G1 X92.149 Y64.545 E0.9627
G1 X92.028 Y64.983 E1.0047
G1 X92.011 Y65.034 E1.0097
G1 X91.986 Y65.102 E1.0164
G1 X91.965 Y65.151 E1.0214
G1 X91.767 Y65.560 E1.0634
G1 X91.741 Y65.608 E1.0684
G1 X91.704 Y65.670 E1.0750
G1 X91.674 Y65.715 E1.0800
G1 X91.406 Y66.082 E1.1220
G1 X91.373 Y66.124 E1.1270
G1 X91.325 Y66.178 E1.1337
G1 X91.288 Y66.217 E1.1387
G1 X91.100 Y66.395 E1.1626
G1 X91.100 Y84.550 E2.8412
G1 X107.350 Y84.550 E4.3437
G1 X107.350 Y66.395 E6.0223
G1 X107.162 Y66.217 E6.0462
G1 X107.125 Y66.178 E6.0513
G1 X107.077 Y66.124 E6.0579
G1 X107.044 Y66.082 E6.0629
G1 X106.776 Y65.715 E6.1049
G1 X106.746 Y65.670 E6.1099
G1 X106.709 Y65.608 E6.1166
G1 X106.683 Y65.560 E6.1216
G1 X106.485 Y65.151 E6.1636
G1 X106.464 Y65.102 E6.1686
G1 X106.439 Y65.034 E6.1752
G1 X106.422 Y64.983 E6.1802
G1 X106.301 Y64.545 E6.2222
G1 X106.289 Y64.492 E6.2272
G1 X106.276 Y64.421 E6.2339
G1 X106.268 Y64.368 E6.2389
G1 X106.227 Y63.915 E6.2809
G1 X106.225 Y63.861 E6.2859
G1 X106.225 Y63.789 E6.2926
G1 X106.227 Y63.735 E6.2976
G1 X106.268 Y63.282 E6.3396
G1 X106.276 Y63.229 E6.3446
G1 X106.289 Y63.158 E6.3513
G1 X106.301 Y63.105 E6.3562
G1 X106.422 Y62.667 E6.3983
G1 X106.439 Y62.616 E6.4033
G1 X106.464 Y62.548 E6.4099
G1 X106.485 Y62.499 E6.4149
G1 X106.683 Y62.090 E6.4569
G1 X106.709 Y62.042 E6.4619
G1 X106.746 Y61.980 E6.4686
G1 X106.776 Y61.935 E6.4736
G1 X107.044 Y61.568 E6.5156
G1 X107.078 Y61.526 E6.5206
G1 X107.125 Y61.472 E6.5273
G1 X107.163 Y61.433 E6.5323
G1 X107.492 Y61.120 E6.5743
G1 X107.532 Y61.085 E6.5792
G1 X107.589 Y61.040 E6.5859
G1 X107.633 Y61.008 E6.5909
G1 X108.080 Y60.715 E6.6404
G1 X108.238 Y60.642 E6.6565
G1 X108.461 Y60.575 E6.6780
G1 X108.634 Y60.550 E6.6941
G1 X112.822 Y60.550 E7.0813
G1 X113.263 Y60.733 E7.1255
G1 X113.717 Y61.187 E7.1849
G1 X113.900 Y61.628 E7.2291
G1 X113.900 Y89.816 E9.8353
G1 X113.875 Y89.989 E9.8514
G1 X113.808 Y90.212 E9.8730
G1 X113.735 Y90.370 E9.8891
G1 X113.442 Y90.817 E9.9385
