; G-Code generated by Simplify3D(R) Version 4.0.0
; Nov 18, 2018 at 7:00:43 PM
; Settings Summary
;   processName,ABS
;   applyToModels,boxguide
;   profileName,ABS (modified)
;   profileVersion,2018-11-14 05:17:17
;   baseProfile,Creality CR-10
;   printMaterial,PETG
;   printQuality,Fast
;   printExtruders,
;   extruderName,Primary Extruder
;   extruderToolheadNumber,0
;   extruderDiameter,0.4
;   extruderAutoWidth,1
;   extruderWidth,0.48
;   extrusionMultiplier,0.99
;   extruderUseRetract,1
;   extruderRetractionDistance,6.5
;   extruderExtraRestartDistance,-0.2
;   extruderRetractionZLift,0
;   extruderRetractionSpeed,3600
;   extruderUseCoasting,1
;   extruderCoastingDistance,0.2
;   extruderUseWipe,0
;   extruderWipeDistance,4
;   primaryExtruder,0
;   layerHeight,0.3
;   topSolidLayers,3
;   bottomSolidLayers,3
;   perimeterOutlines,3
;   printPerimetersInsideOut,1
;   startPointOption,3
;   startPointOriginX,0
;   startPointOriginY,500
;   sequentialIslands,0
;   spiralVaseMode,0
;   firstLayerHeightPercentage,130
;   firstLayerWidthPercentage,120
;   firstLayerUnderspeed,0.6
;   useRaft,0
;   raftExtruder,0
;   raftTopLayers,3
;   raftBaseLayers,2
;   raftOffset,3
;   raftSeparationDistance,0.14
;   raftTopInfill,100
;   aboveRaftSpeedMultiplier,0.3
;   useSkirt,1
;   skirtExtruder,0
;   skirtLayers,1
;   skirtOutlines,3
;   skirtOffset,0.2
;   usePrimePillar,0
;   primePillarExtruder,999
;   primePillarWidth,12
;   primePillarLocation,7
;   primePillarSpeedMultiplier,1
;   useOozeShield,0
;   oozeShieldExtruder,999
;   oozeShieldOffset,2
;   oozeShieldOutlines,1
;   oozeShieldSidewallShape,1
;   oozeShieldSidewallAngle,30
;   oozeShieldSpeedMultiplier,1
;   infillExtruder,0
;   internalInfillPattern,Triangular
;   externalInfillPattern,Rectilinear
;   infillPercentage,20
;   outlineOverlapPercentage,35
;   infillExtrusionWidthPercentage,120
;   minInfillLength,4
;   infillLayerInterval,1
;   internalInfillAngles,0,60,-60
;   overlapInternalInfillAngles,1
;   externalInfillAngles,45,-45
;   generateSupport,1
;   supportExtruder,0
;   supportInfillPercentage,28
;   supportExtraInflation,1
;   supportBaseLayers,0
;   denseSupportExtruder,0
;   denseSupportLayers,0
;   denseSupportInfillPercentage,60
;   supportLayerInterval,1
;   supportHorizontalPartOffset,0.3
;   supportUpperSeparationLayers,2
;   supportLowerSeparationLayers,1
;   supportType,0
;   supportGridSpacing,3.5
;   maxOverhangAngle,45
;   supportAngles,0
;   temperatureName,Heated Bed,Primary Extruder
;   temperatureNumber,0,0
;   temperatureSetpointCount,1,1
;   temperatureSetpointLayers,1,1
;   temperatureSetpointTemperatures,85,245
;   temperatureStabilizeAtStartup,1,1
;   temperatureHeatedBed,1,0
;   temperatureRelayBetweenLayers,0,0
;   temperatureRelayBetweenLoops,0,0
;   fanLayers,1,2,3
;   fanSpeeds,0,0,0
;   blipFanToFullPower,0
;   adjustSpeedForCooling,1
;   minSpeedLayerTime,20
;   minCoolingSpeedSlowdown,30
;   increaseFanForCooling,0
;   minFanLayerTime,30
;   maxCoolingFanSpeed,50
;   increaseFanForBridging,0
;   bridgingFanSpeed,100
;   use5D,1
;   relativeEdistances,0
;   allowEaxisZeroing,1
;   independentExtruderAxes,0
;   includeM10123,0
;   stickySupport,1
;   applyToolheadOffsets,0
;   gcodeXoffset,0
;   gcodeYoffset,0
;   gcodeZoffset,0
;   overrideMachineDefinition,1
;   machineTypeOverride,0
;   strokeXoverride,230
;   strokeYoverride,230
;   strokeZoverride,255
;   originOffsetXoverride,0
;   originOffsetYoverride,0
;   originOffsetZoverride,0
;   homeXdirOverride,-1
;   homeYdirOverride,-1
;   homeZdirOverride,-1
;   flipXoverride,1
;   flipYoverride,-1
;   flipZoverride,1
;   toolheadOffsets,0,0|0,0|0,0|0,0|0,0|0,0
;   overrideFirmwareConfiguration,1
;   firmwareTypeOverride,RepRap (Marlin/Repetier/Sprinter)
;   GPXconfigOverride,r2
;   baudRateOverride,115200
;   overridePrinterModels,1
;   printerModelsOverride
;   startingGcode,G28 ; home all axes,M117 Purging Extruder...,M204 P500 T1000,M205 X10 Y10 ; set jerk x/y=10,G1 Z1.0 F3000 ; lift Z,G1 X0.2 Y25 Z0.2 F3000.0 ; move to start-line position,G92 E0 ; reset extruder,G1 X0.2 Y150.0 F1000.0 E15 ; draw 1st line,G1 X0.7 Y150.0 F3000.0 ; move to side 0.5mm,G1 X0.7 Y50 F1000.0 E30 ; draw 2nd line,G1 X0.7 Y25 F5000.0 ; quick wipe,M117 Printing!,,; Default S3D CR-10 Startup,; G28 ; home all axes,; G1 Z5 F3000 ; lift,; G1 X20 Y2 F1500 ; avoid binder clips,; G1 Z0.2 F3000 ; get ready to prime,; G92 E0 ; reset extrusion distance,; G1 X120 E10 F600 ; prime nozzle,; G1 X150 F5000 ; quick wipe,
;   layerChangeGcode,
;   retractionGcode,
;   toolChangeGcode,
;   endingGcode,M117 Print Complete!,M104 S0 ; turn off extruder,M140 S0 ; turn off bed,G1 X0 Y295 F1000 ; move finished print out front,M84 ; disable motors,M106 S0 ; turn off cooling fan,,; play song,M300 S294 P200 ;D4: 294,M300 S588 P200 ;D5: 588,M300 S440 P200 ;A4: 440,M300 S392 P200 ;G4: 392,M300 S784 P200 ;G5: 784,M300 S440 P200 ;A4: 440,M300 S740 P200 ;F#5: 740,M300 S440 P200 ;A4: 440,,; Default S3D CR-10 Ending Script,; G28 X0 ; home x axis,; M106 S0 ; turn off cooling fan,; M104 S0 ; turn off extruder,; M140 S0 ; turn off bed,; M84 ; disable motors,
;   exportFileFormat,gcode
;   celebration,0
;   celebrationSong,Star Wars
;   postProcessing,,
;   defaultSpeed,3000
;   outlineUnderspeed,0.8
;   solidInfillUnderspeed,0.9
;   supportUnderspeed,1
;   rapidXYspeed,9000
;   rapidZspeed,1002
;   minBridgingArea,50
;   bridgingExtraInflation,0
;   bridgingExtrusionMultiplier,0.9
;   bridgingSpeedMultiplier,1
;   useFixedBridgingAngle,0
;   fixedBridgingAngle,0
;   applyBridgingToPerimeters,0
;   filamentDiameters,1.75|1.75|1.75|1.75|1.75|1.75
;   filamentPricesPerKg,46|46|46|46|46|46
;   filamentDensities,1.25|1.25|1.25|1.25|1.25|1.25
;   useMinPrintHeight,0
;   minPrintHeight,0
;   useMaxPrintHeight,0
;   maxPrintHeight,0
;   useDiaphragm,0
;   diaphragmLayerInterval,20
;   robustSlicing,1
;   mergeAllIntoSolid,0
;   onlyRetractWhenCrossingOutline,0
;   retractBetweenLayers,1
;   useRetractionMinTravel,1
;   retractionMinTravel,3
;   retractWhileWiping,1
;   onlyWipeOutlines,1
;   avoidCrossingOutline,1
;   maxMovementDetourFactor,3
;   toolChangeRetractionDistance,12
;   toolChangeExtraRestartDistance,-0.5
;   toolChangeRetractionSpeed,600
;   externalThinWallType,0
;   internalThinWallType,2
;   thinWallAllowedOverlapPercentage,15
;   singleExtrusionMinLength,1
;   singleExtrusionMinPrintingWidthPercentage,50
;   singleExtrusionMaxPrintingWidthPercentage,200
;   singleExtrusionEndpointExtension,0.2
;   horizontalSizeCompensation,0
G90
M82
M106 S0
M140 S85
M190 S85
M104 S245 T0
M109 S245 T0
G28 ; home all axes
M117 Purging Extruder...
M204 P500 T1000
M205 X10 Y10 ; set jerk x/y=10
G1 Z1.0 F3000 ; lift Z
G1 X0.2 Y25 Z0.2 F3000.0 ; move to start-line position
G92 E0 ; reset extruder
G1 X0.2 Y150.0 F1000.0 E15 ; draw 1st line
G1 X0.7 Y150.0 F3000.0 ; move to side 0.5mm
G1 X0.7 Y50 F1000.0 E30 ; draw 2nd line
G1 X0.7 Y25 F5000.0 ; quick wipe
M117 Printing!
; Default S3D CR-10 Startup
; G28 ; home all axes
; G1 Z5 F3000 ; lift
; G1 X20 Y2 F1500 ; avoid binder clips
; G1 Z0.2 F3000 ; get ready to prime
; G92 E0 ; reset extrusion distance
; G1 X120 E10 F600 ; prime nozzle
; G1 X150 F5000 ; quick wipe
G92 E0
G1 E-6.5000 F3600
G1 Z0.390 F1002
; process ABS
; layer 1, Z = 0.390
T0
; tool H0.390 W0.576
; skirt
G1 X99.885 Y99.851 F9000
G1 E-0.2000 F1080
G92 E0
G1 X100.652 Y99.123 E0.0978 F1800
G1 X100.663 Y99.112 E0.0993
G1 X100.679 Y99.098 E0.1012
G1 X100.691 Y99.088 E0.1026
G1 X101.491 Y98.403 E0.2001
G1 X101.502 Y98.394 E0.2014
G1 X101.518 Y98.381 E0.2033
G1 X101.531 Y98.370 E0.2048
G1 X102.365 Y97.728 E0.3021
G1 X102.377 Y97.719 E0.3035
G1 X102.394 Y97.707 E0.3054
G1 X102.407 Y97.698 E0.3069
G1 X103.268 Y97.103 E0.4037
G1 X103.280 Y97.094 E0.4051
G1 X103.298 Y97.083 E0.4070
G1 X103.311 Y97.075 E0.4085
G1 X104.198 Y96.527 E0.5048
G1 X104.211 Y96.519 E0.5062
G1 X104.228 Y96.509 E0.5081
G1 X104.241 Y96.501 E0.5095
G1 X105.148 Y96.003 E0.6052
G1 X105.161 Y95.996 E0.6065
G1 X105.179 Y95.987 E0.6084
G1 X105.193 Y95.980 E0.6099
G1 X106.117 Y95.531 E0.7048
G1 X106.130 Y95.525 E0.7062
G1 X106.148 Y95.516 E0.7080
G1 X106.163 Y95.510 E0.7095
G1 X107.099 Y95.112 E0.8036
G1 X107.113 Y95.107 E0.8049
G1 X107.131 Y95.099 E0.8067
G1 X107.146 Y95.094 E0.8082
G1 X108.092 Y94.746 E0.9014
G1 X108.106 Y94.741 E0.9028
G1 X108.125 Y94.735 E0.9046
G1 X108.138 Y94.730 E0.9059
G1 X109.088 Y94.433 E0.9979
G1 X109.102 Y94.429 E0.9992
G1 X109.120 Y94.424 E1.0010
G1 X109.135 Y94.420 E1.0024
G1 X110.086 Y94.172 E1.0933
G1 X110.099 Y94.169 E1.0946
G1 X110.118 Y94.164 E1.0964
G1 X110.133 Y94.161 E1.0977
G1 X111.083 Y93.962 E1.1875
G1 X111.096 Y93.959 E1.1888
G1 X111.115 Y93.956 E1.1905
G1 X111.129 Y93.953 E1.1918
G1 X112.073 Y93.801 E1.2802
G1 X112.087 Y93.799 E1.2816
G1 X112.106 Y93.797 E1.2833
G1 X112.119 Y93.795 E1.2845
G1 X113.054 Y93.689 E1.3716
G1 X113.068 Y93.687 E1.3728
G1 X113.086 Y93.686 E1.3745
G1 X113.100 Y93.685 E1.3758
G1 X114.023 Y93.622 E1.4614
G1 X114.037 Y93.622 E1.4626
G1 X114.055 Y93.621 E1.4643
G1 X114.068 Y93.620 E1.4655
G1 X114.978 Y93.600 E1.5497
G1 X114.991 Y93.600 E1.5509
G1 X115.009 Y93.600 E1.5525
G1 X115.022 Y93.600 E1.5538
G1 X115.932 Y93.620 E1.6379
G1 X115.945 Y93.621 E1.6391
G1 X115.963 Y93.622 E1.6408
G1 X115.977 Y93.622 E1.6420
G1 X116.902 Y93.685 E1.7278
G1 X116.919 Y93.686 E1.7294
G1 X116.942 Y93.688 E1.7315
G1 X116.959 Y93.690 E1.7331
G1 X118.315 Y93.859 E1.8594
G1 X118.332 Y93.862 E1.8610
G1 X118.356 Y93.865 E1.8632
G1 X118.374 Y93.868 E1.8649
G1 X119.414 Y94.061 E1.9627
G1 X119.427 Y94.063 E1.9640
G1 X119.445 Y94.067 E1.9657
G1 X119.460 Y94.071 E1.9671
G1 X120.320 Y94.272 E2.0488
G1 X120.333 Y94.276 E2.0500
G1 X120.351 Y94.280 E2.0517
G1 X120.364 Y94.284 E2.0530
G1 X121.316 Y94.554 E2.1445
G1 X121.332 Y94.559 E2.1460
G1 X121.351 Y94.565 E2.1479
G1 X121.365 Y94.569 E2.1492
G1 X122.404 Y94.923 E2.2507
G1 X122.418 Y94.927 E2.2520
G1 X122.436 Y94.934 E2.2539
G1 X122.450 Y94.940 E2.2553
G1 X123.302 Y95.277 E2.3399
G1 X123.315 Y95.282 E2.3413
G1 X123.333 Y95.290 E2.3431
G1 X123.346 Y95.295 E2.3444
G1 X124.322 Y95.737 E2.4434
G1 X124.336 Y95.744 E2.4448
G1 X124.354 Y95.753 E2.4467
G1 X124.369 Y95.760 E2.4482
G1 X125.285 Y96.234 E2.5436
G1 X125.298 Y96.241 E2.5450
G1 X125.316 Y96.251 E2.5469
G1 X125.329 Y96.258 E2.5483
G1 X126.227 Y96.781 E2.6443
G1 X126.240 Y96.789 E2.6457
G1 X126.257 Y96.800 E2.6476
G1 X126.270 Y96.808 E2.6490
G1 X127.144 Y97.380 E2.7456
G1 X127.157 Y97.388 E2.7470
G1 X127.174 Y97.400 E2.7489
G1 X127.187 Y97.409 E2.7504
G1 X128.035 Y98.028 E2.8475
G1 X128.047 Y98.037 E2.8489
G1 X128.063 Y98.050 E2.8508
G1 X128.076 Y98.059 E2.8522
G1 X128.894 Y98.724 E2.9497
G1 X128.907 Y98.734 E2.9512
G1 X128.922 Y98.748 E2.9531
G1 X128.933 Y98.757 E2.9544
G1 X129.718 Y99.465 E3.0521
G1 X129.731 Y99.477 E3.0538
G1 X129.750 Y99.495 E3.0562
G1 X129.764 Y99.510 E3.0581
G1 X130.867 Y100.641 E3.2041
G1 X130.880 Y100.655 E3.2060
G1 X130.898 Y100.674 E3.2084
G1 X130.910 Y100.689 E3.2101
G1 X131.598 Y101.492 E3.3079
G1 X131.608 Y101.504 E3.3094
G1 X131.621 Y101.520 E3.3113
G1 X131.630 Y101.532 E3.3126
G1 X132.272 Y102.365 E3.4098
G1 X132.281 Y102.377 E3.4112
G1 X132.293 Y102.394 E3.4131
G1 X132.302 Y102.406 E3.4146
G1 X132.897 Y103.268 E3.5115
G1 X132.906 Y103.281 E3.5129
G1 X132.917 Y103.298 E3.5148
G1 X132.925 Y103.311 E3.5162
G1 X133.474 Y104.198 E3.6126
G1 X133.482 Y104.213 E3.6142
G1 X133.493 Y104.230 E3.6161
G1 X133.499 Y104.242 E3.6173
G1 X133.997 Y105.149 E3.7130
G1 X134.005 Y105.162 E3.7144
G1 X134.014 Y105.180 E3.7163
G1 X134.021 Y105.194 E3.7176
G1 X134.469 Y106.117 E3.8126
G1 X134.475 Y106.130 E3.8139
G1 X134.484 Y106.148 E3.8158
G1 X134.490 Y106.163 E3.8172
G1 X134.888 Y107.098 E3.9112
G1 X134.892 Y107.110 E3.9123
G1 X134.900 Y107.128 E3.9142
G1 X134.906 Y107.145 E3.9158
G1 X135.254 Y108.092 E4.0091
G1 X135.260 Y108.108 E4.0107
G1 X135.266 Y108.127 E4.0125
G1 X135.270 Y108.139 E4.0137
G1 X135.567 Y109.087 E4.1056
G1 X135.571 Y109.100 E4.1068
G1 X135.576 Y109.119 E4.1086
G1 X135.580 Y109.134 E4.1101
G1 X135.828 Y110.086 E4.2010
G1 X135.831 Y110.100 E4.2023
G1 X135.836 Y110.118 E4.2041
G1 X135.839 Y110.133 E4.2055
G1 X136.038 Y111.083 E4.2952
G1 X136.041 Y111.097 E4.2965
G1 X136.044 Y111.115 E4.2983
G1 X136.047 Y111.129 E4.2996
G1 X136.199 Y112.073 E4.3880
G1 X136.201 Y112.087 E4.3893
G1 X136.203 Y112.106 E4.3910
G1 X136.205 Y112.119 E4.3923
G1 X136.311 Y113.054 E4.4792
G1 X136.312 Y113.066 E4.4804
G1 X136.314 Y113.084 E4.4821
G1 X136.315 Y113.099 E4.4835
G1 X136.378 Y114.027 E4.5695
G1 X136.379 Y114.047 E4.5713
G1 X136.380 Y114.074 E4.5738
G1 X136.380 Y114.095 E4.5757
G1 X136.380 Y115.905 E4.7431
G1 X136.380 Y115.926 E4.7450
G1 X136.379 Y115.953 E4.7475
G1 X136.378 Y115.972 E4.7493
G1 X136.315 Y116.901 E4.8354
G1 X136.314 Y116.915 E4.8367
G1 X136.312 Y116.934 E4.8384
G1 X136.311 Y116.946 E4.8396
G1 X136.205 Y117.881 E4.9266
G1 X136.203 Y117.894 E4.9278
G1 X136.201 Y117.913 E4.9295
G1 X136.199 Y117.927 E4.9309
G1 X136.046 Y118.873 E5.0195
G1 X136.043 Y118.891 E5.0211
G1 X136.039 Y118.914 E5.0233
G1 X136.035 Y118.931 E5.0249
G1 X135.731 Y120.305 E5.1551
G1 X135.727 Y120.322 E5.1567
G1 X135.721 Y120.346 E5.1589
G1 X135.716 Y120.364 E5.1607
G1 X135.417 Y121.410 E5.2612
G1 X135.413 Y121.424 E5.2626
G1 X135.406 Y121.443 E5.2645
G1 X135.401 Y121.459 E5.2660
G1 X135.076 Y122.407 E5.3587
G1 X135.072 Y122.421 E5.3600
G1 X135.065 Y122.438 E5.3617
G1 X135.060 Y122.451 E5.3630
G1 X134.723 Y123.302 E5.4476
G1 X134.718 Y123.315 E5.4490
G1 X134.710 Y123.333 E5.4507
G1 X134.705 Y123.346 E5.4521
G1 X134.263 Y124.321 E5.5510
G1 X134.257 Y124.335 E5.5524
G1 X134.248 Y124.354 E5.5544
G1 X134.240 Y124.368 E5.5559
G1 X133.766 Y125.285 E5.6513
G1 X133.759 Y125.298 E5.6527
G1 X133.749 Y125.316 E5.6546
G1 X133.742 Y125.329 E5.6560
G1 X133.218 Y126.227 E5.7520
G1 X133.210 Y126.241 E5.7535
G1 X133.199 Y126.258 E5.7554
G1 X133.191 Y126.270 E5.7568
G1 X132.619 Y127.145 E5.8534
G1 X132.610 Y127.159 E5.8550
G1 X132.598 Y127.176 E5.8569
G1 X132.590 Y127.188 E5.8582
G1 X131.972 Y128.035 E5.9552
G1 X131.962 Y128.048 E5.9567
G1 X131.949 Y128.064 E5.9586
G1 X131.940 Y128.076 E5.9599
G1 X131.277 Y128.893 E6.0572
G1 X131.268 Y128.904 E6.0586
G1 X131.254 Y128.920 E6.0605
G1 X131.243 Y128.932 E6.0620
G1 X130.535 Y129.718 E6.1599
G1 X130.522 Y129.732 E6.1617
G1 X130.504 Y129.751 E6.1641
G1 X130.490 Y129.765 E6.1659
G1 X129.359 Y130.867 E6.3118
G1 X129.345 Y130.880 E6.3136
G1 X129.326 Y130.897 E6.3160
G1 X129.312 Y130.910 E6.3178
G1 X128.508 Y131.598 E6.4156
G1 X128.495 Y131.609 E6.4172
G1 X128.479 Y131.622 E6.4191
G1 X128.468 Y131.630 E6.4204
G1 X127.634 Y132.272 E6.5176
G1 X127.621 Y132.282 E6.5192
G1 X127.604 Y132.294 E6.5211
G1 X127.593 Y132.302 E6.5224
G1 X126.731 Y132.898 E6.6192
G1 X126.718 Y132.906 E6.6206
G1 X126.701 Y132.918 E6.6225
G1 X126.689 Y132.926 E6.6239
G1 X125.802 Y133.473 E6.7203
G1 X125.789 Y133.482 E6.7217
G1 X125.771 Y133.492 E6.7236
G1 X125.758 Y133.499 E6.7250
G1 X124.851 Y133.998 E6.8207
G1 X124.838 Y134.005 E6.8221
G1 X124.820 Y134.014 E6.8239
G1 X124.806 Y134.021 E6.8253
G1 X123.882 Y134.470 E6.9203
G1 X123.867 Y134.477 E6.9219
G1 X123.849 Y134.485 E6.9237
G1 X123.836 Y134.490 E6.9250
G1 X122.899 Y134.889 E7.0191
G1 X122.884 Y134.895 E7.0207
G1 X122.865 Y134.902 E7.0225
G1 X122.853 Y134.907 E7.0237
G1 X121.908 Y135.254 E7.1168
G1 X121.891 Y135.260 E7.1184
G1 X121.873 Y135.266 E7.1202
G1 X121.861 Y135.270 E7.1214
G1 X120.912 Y135.567 E7.2133
G1 X120.899 Y135.571 E7.2146
G1 X120.880 Y135.576 E7.2164
G1 X120.866 Y135.580 E7.2178
G1 X119.914 Y135.828 E7.3087
G1 X119.900 Y135.831 E7.3100
G1 X119.882 Y135.836 E7.3118
G1 X119.867 Y135.839 E7.3132
G1 X118.917 Y136.038 E7.4029
G1 X118.903 Y136.041 E7.4042
G1 X118.885 Y136.044 E7.4060
G1 X118.871 Y136.047 E7.4073
G1 X117.927 Y136.199 E7.4957
G1 X117.913 Y136.201 E7.4970
G1 X117.894 Y136.203 E7.4987
G1 X117.881 Y136.205 E7.5000
G1 X116.945 Y136.311 E7.5870
G1 X116.930 Y136.313 E7.5885
G1 X116.912 Y136.314 E7.5902
G1 X116.900 Y136.315 E7.5913
G1 X115.972 Y136.378 E7.6772
