; G-Code generated by Simplify3D(R) Version 3.1.1
; Dec 8, 2018 at 2:36:13 PM
; Settings Summary
;   processName,Process1
;   applyToModels,cableChain_40MountSide_v2
;   profileName,ABS (modified)
;   profileVersion,2018-11-19 00:15:08
;   baseProfile,Creality CR-10
;   printMaterial,PETG
;   printQuality,Fast
;   printExtruders,
;   extruderName,Primary Extruder
;   extruderToolheadNumber,0
;   extruderDiameter,0.4
;   extruderAutoWidth,1
;   extruderWidth,0.48
;   extrusionMultiplier,0.98
;   extruderUseRetract,1
;   extruderRetractionDistance,6.5
;   extruderExtraRestartDistance,-0.2
;   extruderRetractionZLift,0
;   extruderRetractionSpeed,3600
;   extruderUseCoasting,1
;   extruderCoastingDistance,0.2
;   extruderUseWipe,0
;   extruderWipeDistance,4
;   primaryExtruder,0
;   layerHeight,0.3
;   topSolidLayers,3
;   bottomSolidLayers,3
;   perimeterOutlines,3
;   printPerimetersInsideOut,1
;   startPointOption,3
;   startPointOriginX,0
;   startPointOriginY,500
;   startPointOriginZ,0
;   sequentialIslands,0
;   spiralVaseMode,0
;   firstLayerHeightPercentage,130
;   firstLayerWidthPercentage,120
;   firstLayerUnderspeed,0.6
;   useRaft,0
;   raftExtruder,0
;   raftLayers,3
;   raftOffset,3
;   raftSeparationDistance,0.14
;   raftInfill,85
;   disableRaftBaseLayers,0
;   useSkirt,1
;   skirtExtruder,0
;   skirtLayers,1
;   skirtOutlines,3
;   skirtOffset,0.4
;   usePrimePillar,0
;   primePillarExtruder,999
;   primePillarWidth,12
;   primePillarLocation,7
;   primePillarSpeedMultiplier,1
;   useOozeShield,0
;   oozeShieldExtruder,999
;   oozeShieldOffset,2
;   oozeShieldOutlines,1
;   oozeShieldSidewallShape,1
;   oozeShieldSidewallAngle,30
;   oozeShieldSpeedMultiplier,1
;   infillExtruder,0
;   internalInfillPattern,Triangular
;   externalInfillPattern,Rectilinear
;   infillPercentage,20
;   outlineOverlapPercentage,35
;   infillExtrusionWidthPercentage,120
;   minInfillLength,4
;   infillLayerInterval,1
;   infillAngles,45,-45
;   overlapInfillAngles,1
;   generateSupport,1
;   supportExtruder,0
;   supportInfillPercentage,28
;   supportExtraInflation,1
;   denseSupportLayers,0
;   denseSupportInfillPercentage,60
;   supportLayerInterval,1
;   supportHorizontalPartOffset,0.3
;   supportUpperSeparationLayers,2
;   supportLowerSeparationLayers,1
;   supportType,0
;   supportGridSpacing,3.5
;   maxOverhangAngle,45
;   supportAngles,0
;   temperatureName,Heated Bed,Primary Extruder
;   temperatureNumber,0,0
;   temperatureSetpointCount,1,1
;   temperatureSetpointLayers,1,1
;   temperatureSetpointTemperatures,85,245
;   temperatureStabilizeAtStartup,1,1
;   temperatureHeatedBed,1,0
;   temperatureRelayBetweenLayers,0,0
;   temperatureRelayBetweenLoops,0,0
;   fanLayers,1,2,3
;   fanSpeeds,0,0,0
;   blipFanToFullPower,0
;   adjustSpeedForCooling,1
;   minSpeedLayerTime,20
;   minCoolingSpeedSlowdown,30
;   increaseFanForCooling,0
;   minFanLayerTime,30
;   maxCoolingFanSpeed,50
;   increaseFanForBridging,0
;   bridgingFanSpeed,100
;   use5D,1
;   relativeEdistances,0
;   allowEaxisZeroing,1
;   independentExtruderAxes,0
;   includeM10123,0
;   stickySupport,1
;   applyToolheadOffsets,0
;   gcodeXoffset,0
;   gcodeYoffset,0
;   gcodeZoffset,0
;   overrideMachineDefinition,1
;   machineTypeOverride,0
;   strokeXoverride,230
;   strokeYoverride,230
;   strokeZoverride,255
;   originOffsetXoverride,0
;   originOffsetYoverride,0
;   originOffsetZoverride,0
;   homeXdirOverride,-1
;   homeYdirOverride,-1
;   homeZdirOverride,-1
;   flipXoverride,1
;   flipYoverride,-1
;   flipZoverride,1
;   toolheadOffsets,0,0|0,0|0,0|0,0|0,0|0,0
;   overrideFirmwareConfiguration,1
;   firmwareTypeOverride,RepRap (Marlin/Repetier/Sprinter)
;   GPXconfigOverride,r2
;   baudRateOverride,115200
;   overridePrinterModels,1
;   printerModelsOverride
;   startingGcode,G28 ; home all axes,M117 Purging Extruder...,M204 P500 T1000,M205 X10 Y10 ; set jerk x/y=10,G1 Z1.0 F3000 ; lift Z,G1 X0.2 Y25 Z0.2 F3000.0 ; move to start-line position,G92 E0 ; reset extruder,G1 X0.2 Y150.0 F1000.0 E15 ; draw 1st line,G1 X0.7 Y150.0 F3000.0 ; move to side 0.5mm,G1 X0.7 Y50 F1000.0 E30 ; draw 2nd line,G1 X0.7 Y25 F5000.0 ; quick wipe,M117 Printing!,,; Default S3D CR-10 Startup,; G28 ; home all axes,; G1 Z5 F3000 ; lift,; G1 X20 Y2 F1500 ; avoid binder clips,; G1 Z0.2 F3000 ; get ready to prime,; G92 E0 ; reset extrusion distance,; G1 X120 E10 F600 ; prime nozzle,; G1 X150 F5000 ; quick wipe,
;   layerChangeGcode,
;   retractionGcode,
;   toolChangeGcode,
;   endingGcode,M117 Print Complete!,M104 S0 ; turn off extruder,M140 S0 ; turn off bed,G1 X0 Y295 F1000 ; move finished print out front,M84 ; disable motors,M106 S0 ; turn off cooling fan,,; play song,M300 S294 P200 ;D4: 294,M300 S588 P200 ;D5: 588,M300 S440 P200 ;A4: 440,M300 S392 P200 ;G4: 392,M300 S784 P200 ;G5: 784,M300 S440 P200 ;A4: 440,M300 S740 P200 ;F#5: 740,M300 S440 P200 ;A4: 440,,; Default S3D CR-10 Ending Script,; G28 X0 ; home x axis,; M106 S0 ; turn off cooling fan,; M104 S0 ; turn off extruder,; M140 S0 ; turn off bed,; M84 ; disable motors,
;   exportFileFormat,gcode
;   celebration,0
;   celebrationSong,Star Wars
;   postProcessing,,
;   defaultSpeed,4000
;   outlineUnderspeed,0.8
;   solidInfillUnderspeed,0.9
;   supportUnderspeed,1
;   rapidXYspeed,9000
;   rapidZspeed,1002
;   minBridgingArea,50
;   bridgingExtraInflation,0
;   bridgingExtrusionMultiplier,0.9
;   bridgingSpeedMultiplier,1
;   filamentDiameter,1.75
;   filamentPricePerKg,46
;   filamentDensity,1.25
;   useMinPrintHeight,0
;   minPrintHeight,0
;   useMaxPrintHeight,0
;   maxPrintHeight,0
;   useDiaphragm,0
;   diaphragmLayerInterval,20
;   robustSlicing,1
;   mergeAllIntoSolid,0
;   onlyRetractWhenCrossingOutline,0
;   retractBetweenLayers,1
;   useRetractionMinTravel,1
;   retractionMinTravel,3
;   retractWhileWiping,1
;   onlyWipeOutlines,1
;   avoidCrossingOutline,1
;   maxMovementDetourFactor,3
;   toolChangeRetractionDistance,12
;   toolChangeExtraRestartDistance,-0.5
;   toolChangeRetractionSpeed,600
;   allowThinWallGapFill,1
;   thinWallAllowedOverlapPercentage,15
;   horizontalSizeCompensation,0
G90
M82
M106 S0
M140 S85
M190 S85
M104 S245 T0
M109 S245 T0
G28 ; home all axes
M117 Purging Extruder...
M204 P500 T1000
M205 X10 Y10 ; set jerk x/y=10
G1 Z1.0 F3000 ; lift Z
G1 X0.2 Y25 Z0.2 F3000.0 ; move to start-line position
G92 E0 ; reset extruder
G1 X0.2 Y150.0 F1000.0 E15 ; draw 1st line
G1 X0.7 Y150.0 F3000.0 ; move to side 0.5mm
G1 X0.7 Y50 F1000.0 E30 ; draw 2nd line
G1 X0.7 Y25 F5000.0 ; quick wipe
M117 Printing!
; Default S3D CR-10 Startup
; G28 ; home all axes
; G1 Z5 F3000 ; lift
; G1 X20 Y2 F1500 ; avoid binder clips
; G1 Z0.2 F3000 ; get ready to prime
; G92 E0 ; reset extrusion distance
; G1 X120 E10 F600 ; prime nozzle
; G1 X150 F5000 ; quick wipe
G92 E0
G1 E-6.5000 F3600
G1 Z0.390 F1002
; layer 1, Z = 0.39
T0
; tool H0.390 W0.576
; skirt
G1 X95.576 Y104.963 F9000
G1 E-0.2000 F1080
G92 E0
G1 X95.780 Y104.817 E0.0229 F2076
G1 X96.163 Y104.648 E0.0613
G1 X96.408 Y104.596 E0.0842
G1 X119.492 Y104.596 E2.1970
G1 X119.602 Y104.606 E2.2071
G1 X119.782 Y104.640 E2.2239
G1 X119.888 Y104.669 E2.2340
G1 X121.160 Y105.158 E2.3587
G1 X121.160 Y102.610 E2.5919
G1 X121.172 Y102.493 E2.6027
G1 X121.210 Y102.300 E2.6207
G1 X121.245 Y102.187 E2.6315
G1 X121.558 Y101.430 E2.7064
G1 X121.689 Y101.234 E2.7281
G1 X121.969 Y100.954 E2.7643
G1 X122.166 Y100.823 E2.7859
G1 X122.922 Y100.509 E2.8609
G1 X123.035 Y100.475 E2.8717
G1 X123.228 Y100.437 E2.8897
G1 X123.345 Y100.425 E2.9005
G1 X130.005 Y100.425 E3.5100
G1 X130.065 Y99.988 E3.5504
G1 X130.272 Y99.605 E3.5902
G1 X130.826 Y99.123 E3.6574
G1 X131.233 Y98.970 E3.6972
G1 X133.105 Y98.970 E3.8685
G1 X133.278 Y98.995 E3.8846
G1 X133.558 Y99.079 E3.9113
G1 X133.717 Y99.154 E3.9274
G1 X136.689 Y101.112 E4.2531
G1 X136.890 Y101.332 E4.2804
G1 X137.127 Y101.772 E4.3261
G1 X137.200 Y102.061 E4.3534
G1 X137.200 Y104.131 E4.5428
G1 X137.017 Y104.572 E4.5865
G1 X136.445 Y105.144 E4.6606
G1 X136.004 Y105.326 E4.7042
G1 X126.000 Y105.328 E5.6198
G1 X126.000 Y110.400 E6.0841
G1 X128.998 Y110.400 E6.3584
G1 X129.115 Y110.412 E6.3692
G1 X129.308 Y110.450 E6.3872
G1 X129.421 Y110.484 E6.3980
G1 X130.119 Y110.773 E6.4672
G1 X130.315 Y110.905 E6.4888
G1 X130.595 Y111.184 E6.5250
G1 X130.726 Y111.381 E6.5466
G1 X131.015 Y112.078 E6.6158
G1 X131.050 Y112.191 E6.6266
G1 X131.088 Y112.384 E6.6446
G1 X131.100 Y112.502 E6.6553
G1 X131.100 Y117.498 E7.1127
G1 X131.088 Y117.616 E7.1235
G1 X131.050 Y117.809 E7.1415
G1 X131.015 Y117.922 E7.1523
G1 X130.726 Y118.619 E7.2214
G1 X130.595 Y118.816 E7.2430
G1 X130.315 Y119.095 E7.2792
G1 X130.119 Y119.227 E7.3009
G1 X129.421 Y119.516 E7.3700
G1 X129.308 Y119.550 E7.3808
G1 X129.115 Y119.588 E7.3988
G1 X128.998 Y119.600 E7.4096
G1 X126.000 Y119.600 E7.6839
G1 X126.000 Y124.672 E8.1482
G1 X136.004 Y124.674 E9.0638
G1 X136.445 Y124.856 E9.1075
G1 X137.017 Y125.428 E9.1815
G1 X137.200 Y125.869 E9.2252
G1 X137.200 Y127.939 E9.4146
G1 X137.127 Y128.228 E9.4419
G1 X136.890 Y128.668 E9.4876
G1 X136.689 Y128.888 E9.5149
G1 X133.717 Y130.846 E9.8407
G1 X133.558 Y130.921 E9.8567
G1 X133.278 Y131.005 E9.8835
G1 X133.105 Y131.030 E9.8995
G1 X131.233 Y131.030 E10.0708
G1 X130.826 Y130.877 E10.1106
G1 X130.272 Y130.394 E10.1779
G1 X130.065 Y130.012 E10.2177
G1 X130.005 Y129.575 E10.2580
G1 X123.345 Y129.575 E10.8676
G1 X123.228 Y129.563 E10.8784
G1 X123.035 Y129.525 E10.8964
G1 X122.922 Y129.491 E10.9072
G1 X122.166 Y129.177 E10.9821
G1 X121.969 Y129.046 E11.0038
G1 X121.689 Y128.766 E11.0400
G1 X121.558 Y128.570 E11.0616
G1 X121.245 Y127.813 E11.1366
G1 X121.210 Y127.700 E11.1474
G1 X121.172 Y127.507 E11.1654
G1 X121.160 Y127.390 E11.1762
G1 X121.160 Y124.226 E11.4658
G1 X115.075 Y124.226 E12.0227
G1 X114.958 Y124.214 E12.0335
G1 X114.765 Y124.176 E12.0515
G1 X114.652 Y124.142 E12.0623
G1 X113.917 Y123.837 E12.1352
G1 X113.720 Y123.706 E12.1568
G1 X113.440 Y123.426 E12.1930
G1 X113.309 Y123.230 E12.2146
G1 X113.005 Y122.494 E12.2875
G1 X112.970 Y122.381 E12.2983
G1 X112.932 Y122.189 E12.3163
G1 X112.920 Y122.071 E12.3271
G1 X112.920 Y110.600 E13.3770
G1 X99.510 Y110.600 E14.6044
G1 X99.478 Y110.629 E14.6084
G1 X99.054 Y110.797 E14.6501
G1 X95.836 Y110.797 E14.9446
G1 X95.395 Y110.614 E14.9883
G1 X94.823 Y110.043 E15.0623
G1 X94.640 Y109.602 E15.1060
G1 X94.640 Y106.424 E15.3969
G1 X94.681 Y106.206 E15.4172
G1 X94.816 Y105.859 E15.4512
G1 X94.933 Y105.670 E15.4716
G1 X95.442 Y105.111 E15.5407
G1 X95.576 Y104.963 F2076
G1 X95.897 Y105.324 F9000
G92 E0
G1 X96.019 Y105.236 E0.0138 F2076
G1 X96.311 Y105.107 E0.0430
G1 X96.458 Y105.076 E0.0567
G1 X119.470 Y105.076 E2.1629
G1 X119.536 Y105.082 E2.1690
G1 X119.673 Y105.107 E2.1817
G1 X119.737 Y105.125 E2.1878
G1 X121.640 Y105.856 E2.3744
G1 X121.640 Y102.634 E2.6693
G1 X121.647 Y102.563 E2.6758
G1 X121.677 Y102.417 E2.6895
G1 X121.697 Y102.349 E2.6960
G1 X121.983 Y101.658 E2.7645
G1 X122.062 Y101.540 E2.7775
G1 X122.275 Y101.327 E2.8050
G1 X122.393 Y101.248 E2.8180
G1 X123.084 Y100.962 E2.8865
G1 X123.152 Y100.941 E2.8929
G1 X123.299 Y100.912 E2.9066
G1 X123.369 Y100.905 E2.9131
G1 X130.424 Y100.905 E3.5588
G1 X130.529 Y100.140 E3.6295
G1 X130.653 Y99.910 E3.6534
G1 X131.076 Y99.542 E3.7047
G1 X131.320 Y99.450 E3.7286
G1 X133.070 Y99.450 E3.8887
G1 X133.174 Y99.465 E3.8984
G1 X133.387 Y99.529 E3.9187
G1 X133.482 Y99.574 E3.9283
G1 X136.375 Y101.480 E4.2454
G1 X136.495 Y101.612 E4.2618
G1 X136.676 Y101.947 E4.2966
G1 X136.720 Y102.120 E4.3130
G1 X136.720 Y104.035 E4.4882
G1 X136.610 Y104.300 E4.5144
G1 X136.173 Y104.737 E4.5710
G1 X135.909 Y104.846 E4.5972
G1 X125.520 Y104.848 E5.5480
G1 X125.520 Y110.880 E6.1001
G1 X128.974 Y110.880 E6.4162
G1 X129.045 Y110.887 E6.4227
G1 X129.191 Y110.916 E6.4364
G1 X129.259 Y110.937 E6.4429
G1 X129.891 Y111.199 E6.5055
G1 X130.009 Y111.277 E6.5185
G1 X130.222 Y111.490 E6.5460
G1 X130.301 Y111.608 E6.5590
G1 X130.563 Y112.240 E6.6217
G1 X130.583 Y112.308 E6.6281
G1 X130.613 Y112.455 E6.6418
G1 X130.620 Y112.525 E6.6483
G1 X130.620 Y117.475 E7.1013
G1 X130.613 Y117.545 E7.1078
G1 X130.583 Y117.692 E7.1215
G1 X130.563 Y117.760 E7.1280
G1 X130.301 Y118.392 E7.1906
G1 X130.222 Y118.510 E7.2036
G1 X130.009 Y118.723 E7.2311
G1 X129.891 Y118.801 E7.2441
G1 X129.259 Y119.063 E7.3067
G1 X129.191 Y119.084 E7.3132
G1 X129.045 Y119.113 E7.3269
G1 X128.974 Y119.120 E7.3334
G1 X125.520 Y119.120 E7.6495
G1 X125.520 Y125.152 E8.2016
G1 X135.909 Y125.154 E9.1524
G1 X136.173 Y125.263 E9.1786
G1 X136.610 Y125.700 E9.2352
G1 X136.720 Y125.965 E9.2614
G1 X136.720 Y127.880 E9.4366
G1 X136.676 Y128.053 E9.4530
G1 X136.495 Y128.388 E9.4878
G1 X136.375 Y128.520 E9.5042
G1 X133.482 Y130.426 E9.8213
G1 X133.387 Y130.471 E9.8309
G1 X133.174 Y130.535 E9.8513
G1 X133.070 Y130.550 E9.8609
G1 X131.320 Y130.550 E10.0210
G1 X131.076 Y130.458 E10.0449
G1 X130.653 Y130.090 E10.0962
G1 X130.529 Y129.860 E10.1201
G1 X130.424 Y129.095 E10.1908
G1 X123.369 Y129.095 E10.8365
G1 X123.299 Y129.088 E10.8430
G1 X123.152 Y129.059 E10.8567
G1 X123.084 Y129.038 E10.8632
G1 X122.393 Y128.752 E10.9316
G1 X122.275 Y128.673 E10.9446
G1 X122.062 Y128.460 E10.9722
G1 X121.983 Y128.342 E10.9851
G1 X121.697 Y127.651 E11.0536
G1 X121.677 Y127.583 E11.0601
G1 X121.647 Y127.437 E11.0738
G1 X121.640 Y127.366 E11.0803
G1 X121.640 Y123.746 E11.4117
G1 X115.099 Y123.746 E12.0104
G1 X115.028 Y123.739 E12.0169
G1 X114.881 Y123.710 E12.0306
G1 X114.814 Y123.689 E12.0371
G1 X114.144 Y123.412 E12.1034
G1 X114.026 Y123.333 E12.1164
G1 X113.813 Y123.120 E12.1439
G1 X113.734 Y123.002 E12.1569
G1 X113.457 Y122.332 E12.2233
G1 X113.437 Y122.265 E12.2297
G1 X113.407 Y122.118 E12.2434
G1 X113.400 Y122.048 E12.2499
G1 X113.400 Y110.120 E13.3416
G1 X99.320 Y110.120 E14.6303
G1 X99.217 Y110.217 E14.6432
G1 X98.962 Y110.317 E14.6683
G1 X95.932 Y110.317 E14.9457
G1 X95.667 Y110.208 E14.9719
G1 X95.230 Y109.771 E15.0285
G1 X95.120 Y109.506 E15.0547
G1 X95.120 Y106.469 E15.3327
G1 X95.145 Y106.338 E15.3449
G1 X95.247 Y106.074 E15.3708
G1 X95.317 Y105.960 E15.3830
G1 X95.763 Y105.472 E15.4435
G1 X95.897 Y105.324 F2076
G1 X96.218 Y105.684 F9000
G92 E0
G1 X96.259 Y105.655 E0.0046 F2076
G1 X96.459 Y105.566 E0.0246
G1 X96.508 Y105.556 E0.0292
G1 X119.448 Y105.556 E2.1288
G1 X119.470 Y105.558 E2.1308
G1 X119.564 Y105.575 E2.1396
G1 X119.585 Y105.581 E2.1416
G1 X122.120 Y106.554 E2.3901
G1 X122.120 Y102.657 E2.7468
G1 X122.123 Y102.634 E2.7490
G1 X122.143 Y102.533 E2.7583
G1 X122.150 Y102.511 E2.7605
G1 X122.409 Y101.885 E2.8225
G1 X122.435 Y101.846 E2.8268
G1 X122.581 Y101.700 E2.8457
G1 X122.620 Y101.673 E2.8501
G1 X123.246 Y101.414 E2.9121
G1 X123.269 Y101.407 E2.9142
G1 X123.369 Y101.387 E2.9236
G1 X123.393 Y101.385 E2.9257
G1 X130.842 Y101.385 E3.6076
G1 X130.993 Y100.291 E3.7086
G1 X131.034 Y100.215 E3.7166
G1 X131.326 Y99.961 E3.7520
G1 X131.407 Y99.930 E3.7600
G1 X133.035 Y99.930 E3.9089
G1 X133.069 Y99.935 E3.9121
G1 X133.215 Y99.979 E3.9261
G1 X133.247 Y99.994 E3.9293
G1 X136.061 Y101.848 E4.2377
G1 X136.101 Y101.892 E4.2432
G1 X136.225 Y102.122 E4.2671
G1 X136.240 Y102.180 E4.2726
G1 X136.240 Y103.940 E4.4336
G1 X136.203 Y104.028 E4.4424
G1 X135.901 Y104.330 E4.4814
G1 X135.813 Y104.366 E4.4902
G1 X125.040 Y104.368 E5.4761
G1 X125.040 Y111.360 E6.1161
G1 X128.951 Y111.360 E6.4740
G1 X128.974 Y111.362 E6.4762
G1 X129.075 Y111.382 E6.4855
G1 X129.097 Y111.389 E6.4877
G1 X129.664 Y111.624 E6.5439
G1 X129.703 Y111.650 E6.5482
G1 X129.849 Y111.796 E6.5671
G1 X129.876 Y111.835 E6.5714
G1 X130.110 Y112.402 E6.6276
G1 X130.117 Y112.425 E6.6297
G1 X130.137 Y112.525 E6.6391
G1 X130.140 Y112.549 E6.6412
G1 X130.140 Y117.451 E7.0900
G1 X130.137 Y117.475 E7.0921
G1 X130.117 Y117.575 E7.1015
G1 X130.110 Y117.598 E7.1036
G1 X129.876 Y118.165 E7.1598
G1 X129.849 Y118.204 E7.1641
G1 X129.703 Y118.350 E7.1830
G1 X129.664 Y118.376 E7.1873
G1 X129.097 Y118.611 E7.2435
G1 X129.075 Y118.618 E7.2457
G1 X128.974 Y118.638 E7.2550
G1 X128.951 Y118.640 E7.2572
G1 X125.040 Y118.640 E7.6151
G1 X125.040 Y125.632 E8.2551
G1 X135.813 Y125.634 E9.2410
