; G-Code generated by Simplify3D(R) Version 3.1.1
; Dec 7, 2018 at 10:36:11 PM
; Settings Summary
;   processName,Process1
;   applyToModels,cableChain_link_v3,cableChain_link_v3(2),cableChain_link_v3(3),cableChain_link_v3(4),cableChain_link_v3(5),cableChain_link_v3(6),cableChain_link_v3(7),cableChain_link_v3(8),cableChain_link_v3(9),cableChain_link_v3(10),cableChain_link_v3(11),cableChain_link_v3(12),cableChain_link_v3(13),cableChain_link_v3(14),cableChain_link_v3(15),cableChain_link_v3(16)
;   profileName,ABS (modified)
;   profileVersion,2018-11-19 00:15:08
;   baseProfile,Creality CR-10
;   printMaterial,PETG
;   printQuality,Fast
;   printExtruders,
;   extruderName,Primary Extruder
;   extruderToolheadNumber,0
;   extruderDiameter,0.4
;   extruderAutoWidth,1
;   extruderWidth,0.48
;   extrusionMultiplier,0.98
;   extruderUseRetract,1
;   extruderRetractionDistance,6.5
;   extruderExtraRestartDistance,-0.2
;   extruderRetractionZLift,0
;   extruderRetractionSpeed,3600
;   extruderUseCoasting,1
;   extruderCoastingDistance,0.2
;   extruderUseWipe,0
;   extruderWipeDistance,4
;   primaryExtruder,0
;   layerHeight,0.3
;   topSolidLayers,3
;   bottomSolidLayers,3
;   perimeterOutlines,3
;   printPerimetersInsideOut,1
;   startPointOption,3
;   startPointOriginX,0
;   startPointOriginY,500
;   startPointOriginZ,0
;   sequentialIslands,0
;   spiralVaseMode,0
;   firstLayerHeightPercentage,130
;   firstLayerWidthPercentage,120
;   firstLayerUnderspeed,0.6
;   useRaft,0
;   raftExtruder,0
;   raftLayers,3
;   raftOffset,3
;   raftSeparationDistance,0.14
;   raftInfill,85
;   disableRaftBaseLayers,0
;   useSkirt,1
;   skirtExtruder,0
;   skirtLayers,1
;   skirtOutlines,3
;   skirtOffset,0.4
;   usePrimePillar,0
;   primePillarExtruder,999
;   primePillarWidth,12
;   primePillarLocation,7
;   primePillarSpeedMultiplier,1
;   useOozeShield,0
;   oozeShieldExtruder,999
;   oozeShieldOffset,2
;   oozeShieldOutlines,1
;   oozeShieldSidewallShape,1
;   oozeShieldSidewallAngle,30
;   oozeShieldSpeedMultiplier,1
;   infillExtruder,0
;   internalInfillPattern,Triangular
;   externalInfillPattern,Rectilinear
;   infillPercentage,20
;   outlineOverlapPercentage,35
;   infillExtrusionWidthPercentage,120
;   minInfillLength,4
;   infillLayerInterval,1
;   infillAngles,45,-45
;   overlapInfillAngles,1
;   generateSupport,1
;   supportExtruder,0
;   supportInfillPercentage,28
;   supportExtraInflation,1
;   denseSupportLayers,0
;   denseSupportInfillPercentage,60
;   supportLayerInterval,1
;   supportHorizontalPartOffset,0.3
;   supportUpperSeparationLayers,2
;   supportLowerSeparationLayers,1
;   supportType,0
;   supportGridSpacing,3.5
;   maxOverhangAngle,45
;   supportAngles,0
;   temperatureName,Heated Bed,Primary Extruder
;   temperatureNumber,0,0
;   temperatureSetpointCount,1,1
;   temperatureSetpointLayers,1,1
;   temperatureSetpointTemperatures,85,245
;   temperatureStabilizeAtStartup,1,1
;   temperatureHeatedBed,1,0
;   temperatureRelayBetweenLayers,0,0
;   temperatureRelayBetweenLoops,0,0
;   fanLayers,1,2,3
;   fanSpeeds,0,0,0
;   blipFanToFullPower,0
;   adjustSpeedForCooling,1
;   minSpeedLayerTime,20
;   minCoolingSpeedSlowdown,30
;   increaseFanForCooling,0
;   minFanLayerTime,30
;   maxCoolingFanSpeed,50
;   increaseFanForBridging,0
;   bridgingFanSpeed,100
;   use5D,1
;   relativeEdistances,0
;   allowEaxisZeroing,1
;   independentExtruderAxes,0
;   includeM10123,0
;   stickySupport,1
;   applyToolheadOffsets,0
;   gcodeXoffset,0
;   gcodeYoffset,0
;   gcodeZoffset,0
;   overrideMachineDefinition,1
;   machineTypeOverride,0
;   strokeXoverride,230
;   strokeYoverride,230
;   strokeZoverride,255
;   originOffsetXoverride,0
;   originOffsetYoverride,0
;   originOffsetZoverride,0
;   homeXdirOverride,-1
;   homeYdirOverride,-1
;   homeZdirOverride,-1
;   flipXoverride,1
;   flipYoverride,-1
;   flipZoverride,1
;   toolheadOffsets,0,0|0,0|0,0|0,0|0,0|0,0
;   overrideFirmwareConfiguration,1
;   firmwareTypeOverride,RepRap (Marlin/Repetier/Sprinter)
;   GPXconfigOverride,r2
;   baudRateOverride,115200
;   overridePrinterModels,1
;   printerModelsOverride
;   startingGcode,G28 ; home all axes,M117 Purging Extruder...,M204 P500 T1000,M205 X10 Y10 ; set jerk x/y=10,G1 Z1.0 F3000 ; lift Z,G1 X0.2 Y25 Z0.2 F3000.0 ; move to start-line position,G92 E0 ; reset extruder,G1 X0.2 Y150.0 F1000.0 E15 ; draw 1st line,G1 X0.7 Y150.0 F3000.0 ; move to side 0.5mm,G1 X0.7 Y50 F1000.0 E30 ; draw 2nd line,G1 X0.7 Y25 F5000.0 ; quick wipe,M117 Printing!,,; Default S3D CR-10 Startup,; G28 ; home all axes,; G1 Z5 F3000 ; lift,; G1 X20 Y2 F1500 ; avoid binder clips,; G1 Z0.2 F3000 ; get ready to prime,; G92 E0 ; reset extrusion distance,; G1 X120 E10 F600 ; prime nozzle,; G1 X150 F5000 ; quick wipe,
;   layerChangeGcode,
;   retractionGcode,
;   toolChangeGcode,
;   endingGcode,M117 Print Complete!,M104 S0 ; turn off extruder,M140 S0 ; turn off bed,G1 X0 Y295 F1000 ; move finished print out front,M84 ; disable motors,M106 S0 ; turn off cooling fan,,; play song,M300 S294 P200 ;D4: 294,M300 S588 P200 ;D5: 588,M300 S440 P200 ;A4: 440,M300 S392 P200 ;G4: 392,M300 S784 P200 ;G5: 784,M300 S440 P200 ;A4: 440,M300 S740 P200 ;F#5: 740,M300 S440 P200 ;A4: 440,,; Default S3D CR-10 Ending Script,; G28 X0 ; home x axis,; M106 S0 ; turn off cooling fan,; M104 S0 ; turn off extruder,; M140 S0 ; turn off bed,; M84 ; disable motors,
;   exportFileFormat,gcode
;   celebration,0
;   celebrationSong,Star Wars
;   postProcessing,,
;   defaultSpeed,4000
;   outlineUnderspeed,0.8
;   solidInfillUnderspeed,0.9
;   supportUnderspeed,1
;   rapidXYspeed,9000
;   rapidZspeed,1002
;   minBridgingArea,50
;   bridgingExtraInflation,0
;   bridgingExtrusionMultiplier,0.9
;   bridgingSpeedMultiplier,1
;   filamentDiameter,1.75
;   filamentPricePerKg,46
;   filamentDensity,1.25
;   useMinPrintHeight,0
;   minPrintHeight,0
;   useMaxPrintHeight,0
;   maxPrintHeight,0
;   useDiaphragm,0
;   diaphragmLayerInterval,20
;   robustSlicing,1
;   mergeAllIntoSolid,0
;   onlyRetractWhenCrossingOutline,0
;   retractBetweenLayers,1
;   useRetractionMinTravel,1
;   retractionMinTravel,3
;   retractWhileWiping,1
;   onlyWipeOutlines,1
;   avoidCrossingOutline,1
;   maxMovementDetourFactor,3
;   toolChangeRetractionDistance,12
;   toolChangeExtraRestartDistance,-0.5
;   toolChangeRetractionSpeed,600
;   allowThinWallGapFill,1
;   thinWallAllowedOverlapPercentage,15
;   horizontalSizeCompensation,0
G90
M82
M106 S0
M140 S85
M190 S85
M104 S245 T0
M109 S245 T0
G28 ; home all axes
M117 Purging Extruder...
M204 P500 T1000
M205 X10 Y10 ; set jerk x/y=10
G1 Z1.0 F3000 ; lift Z
G1 X0.2 Y25 Z0.2 F3000.0 ; move to start-line position
G92 E0 ; reset extruder
G1 X0.2 Y150.0 F1000.0 E15 ; draw 1st line
G1 X0.7 Y150.0 F3000.0 ; move to side 0.5mm
G1 X0.7 Y50 F1000.0 E30 ; draw 2nd line
G1 X0.7 Y25 F5000.0 ; quick wipe
M117 Printing!
; Default S3D CR-10 Startup
; G28 ; home all axes
; G1 Z5 F3000 ; lift
; G1 X20 Y2 F1500 ; avoid binder clips
; G1 Z0.2 F3000 ; get ready to prime
; G92 E0 ; reset extrusion distance
; G1 X120 E10 F600 ; prime nozzle
; G1 X150 F5000 ; quick wipe
G92 E0
G1 E-6.5000 F3600
G1 Z0.390 F1002
; layer 1, Z = 0.39
T0
; tool H0.390 W0.576
; skirt
G1 X59.923 Y55.221 F9000
G1 E-0.2000 F1080
G92 E0
G1 X60.495 Y54.649 E0.0740 F2400
G1 X60.936 Y54.467 E0.1177
G1 X63.384 Y54.467 E0.3418
G1 X63.825 Y54.649 E0.3855
G1 X64.397 Y55.221 E0.4596
G1 X64.580 Y55.662 E0.5033
G1 X64.580 Y55.944 E0.5291
G1 X78.420 Y55.944 E1.7958
G1 X78.420 Y55.662 E1.8216
G1 X78.603 Y55.221 E1.8653
G1 X79.175 Y54.649 E1.9393
G1 X79.616 Y54.467 E1.9830
G1 X82.064 Y54.467 E2.2072
G1 X82.505 Y54.649 E2.2509
G1 X83.077 Y55.221 E2.3249
G1 X83.260 Y55.662 E2.3686
G1 X83.260 Y58.559 E2.6337
G1 X83.801 Y58.559 E2.6832
G1 X84.242 Y58.742 E2.7269
G1 X84.814 Y59.314 E2.8010
G1 X84.996 Y59.755 E2.8447
G1 X84.996 Y73.515 E4.1041
G1 X84.996 Y73.544 E4.1068
G1 X84.993 Y73.593 E4.1112
G1 X84.991 Y73.622 E4.1139
G1 X84.870 Y74.857 E4.2274
G1 X84.862 Y74.912 E4.2325
G1 X84.845 Y75.002 E4.2410
G1 X84.832 Y75.056 E4.2460
G1 X84.647 Y75.695 E4.3069
G1 X84.425 Y76.015 E4.3426
G1 X83.900 Y76.410 E4.4027
G1 X83.530 Y76.533 E4.4384
G1 X81.456 Y76.533 E4.6282
G1 X81.015 Y76.351 E4.6719
G1 X80.443 Y75.779 E4.7459
G1 X80.260 Y75.338 E4.7896
G1 X80.260 Y71.451 E5.1453
G1 X62.740 Y71.451 E6.7489
G1 X62.740 Y75.338 E7.1046
G1 X62.557 Y75.779 E7.1483
G1 X61.985 Y76.351 E7.2223
G1 X61.544 Y76.533 E7.2660
G1 X59.470 Y76.533 E7.4559
G1 X59.100 Y76.410 E7.4915
G1 X58.575 Y76.015 E7.5517
G1 X58.354 Y75.695 E7.5873
G1 X58.168 Y75.056 E7.6482
G1 X58.155 Y75.002 E7.6533
G1 X58.138 Y74.912 E7.6617
G1 X58.130 Y74.857 E7.6668
G1 X58.009 Y73.622 E7.7803
G1 X58.007 Y73.593 E7.7830
G1 X58.004 Y73.544 E7.7875
G1 X58.004 Y73.515 E7.7902
G1 X58.004 Y59.755 E9.0496
G1 X58.186 Y59.314 E9.0933
G1 X58.758 Y58.742 E9.1673
G1 X59.199 Y58.559 E9.2110
G1 X59.740 Y58.559 E9.2605
G1 X59.740 Y55.662 E9.5256
G1 X59.846 Y55.406 E9.5510
G1 X59.923 Y55.221 F2400
G92 E0
G1 E-6.5000 F3600
G1 X75.485 Y57.827 F9000
G1 X80.302 Y57.827 F9000
G1 X80.302 Y56.349 F9000
G1 X81.378 Y56.349 F9000
G1 X81.378 Y58.813 F9000
G1 X87.004 Y59.755 F9000
G1 E-0.2000 F3600
G92 E0
G1 X87.186 Y59.314 E0.0437 F2400
G1 X87.758 Y58.742 E0.1177
G1 X88.199 Y58.559 E0.1614
G1 X88.740 Y58.559 E0.2109
G1 X88.740 Y55.662 E0.4761
G1 X88.923 Y55.221 E0.5198
G1 X89.495 Y54.649 E0.5938
G1 X89.936 Y54.467 E0.6375
G1 X92.384 Y54.467 E0.8616
G1 X92.825 Y54.649 E0.9053
G1 X93.397 Y55.221 E0.9793
G1 X93.580 Y55.662 E1.0230
G1 X93.580 Y55.944 E1.0489
G1 X107.420 Y55.944 E2.3156
G1 X107.420 Y55.662 E2.3414
G1 X107.603 Y55.221 E2.3851
G1 X108.175 Y54.649 E2.4591
G1 X108.616 Y54.467 E2.5028
G1 X111.064 Y54.467 E2.7269
G1 X111.505 Y54.649 E2.7706
G1 X112.077 Y55.221 E2.8447
G1 X112.260 Y55.662 E2.8884
G1 X112.260 Y58.559 E3.1535
G1 X112.801 Y58.559 E3.2030
G1 X113.242 Y58.742 E3.2467
G1 X113.814 Y59.314 E3.3207
G1 X113.996 Y59.755 E3.3644
G1 X113.996 Y73.515 E4.6238
G1 X113.996 Y73.544 E4.6265
G1 X113.993 Y73.593 E4.6310
G1 X113.991 Y73.622 E4.6337
G1 X113.870 Y74.857 E4.7472
G1 X113.862 Y74.912 E4.7523
G1 X113.845 Y75.002 E4.7607
G1 X113.832 Y75.056 E4.7658
G1 X113.646 Y75.695 E4.8267
G1 X113.425 Y76.015 E4.8623
G1 X112.900 Y76.410 E4.9224
G1 X112.530 Y76.533 E4.9581
G1 X110.456 Y76.533 E5.1480
G1 X110.015 Y76.351 E5.1917
G1 X109.443 Y75.779 E5.2657
G1 X109.260 Y75.338 E5.3094
G1 X109.260 Y71.451 E5.6651
G1 X91.740 Y71.451 E7.2687
G1 X91.740 Y75.338 E7.6244
G1 X91.557 Y75.779 E7.6681
G1 X90.985 Y76.351 E7.7421
G1 X90.544 Y76.533 E7.7858
G1 X88.470 Y76.533 E7.9756
G1 X88.100 Y76.410 E8.0113
G1 X87.575 Y76.015 E8.0714
G1 X87.354 Y75.695 E8.1071
G1 X87.168 Y75.056 E8.1680
G1 X87.155 Y75.002 E8.1730
G1 X87.138 Y74.912 E8.1815
G1 X87.130 Y74.857 E8.1866
G1 X87.009 Y73.622 E8.3001
G1 X87.007 Y73.593 E8.3028
G1 X87.004 Y73.544 E8.3073
G1 X87.004 Y73.515 E8.3100
G1 X87.004 Y59.955 E9.5510
G1 X87.004 Y59.755 F2400
G92 E0
G1 E-6.5000 F3600
G1 X89.936 Y87.467 F9000
G1 E-0.2000 F3600
G92 E0
G1 X92.384 Y87.467 E0.2241 F2400
G1 X92.825 Y87.649 E0.2678
G1 X93.397 Y88.221 E0.3418
G1 X93.580 Y88.662 E0.3855
G1 X93.580 Y88.944 E0.4114
G1 X107.420 Y88.944 E1.6781
G1 X107.420 Y88.662 E1.7039
G1 X107.603 Y88.221 E1.7476
G1 X108.175 Y87.649 E1.8216
G1 X108.616 Y87.467 E1.8653
G1 X111.064 Y87.467 E2.0895
G1 X111.505 Y87.649 E2.1331
G1 X112.077 Y88.221 E2.2072
G1 X112.260 Y88.662 E2.2509
G1 X112.260 Y91.559 E2.5160
G1 X112.801 Y91.559 E2.5655
G1 X113.242 Y91.742 E2.6092
G1 X113.814 Y92.314 E2.6832
G1 X113.996 Y92.755 E2.7269
G1 X113.996 Y106.515 E3.9863
G1 X113.996 Y106.544 E3.9890
G1 X113.993 Y106.593 E3.9935
G1 X113.991 Y106.622 E3.9962
G1 X113.870 Y107.857 E4.1097
G1 X113.862 Y107.912 E4.1148
G1 X113.845 Y108.002 E4.1232
G1 X113.832 Y108.056 E4.1283
G1 X113.646 Y108.695 E4.1892
G1 X113.425 Y109.015 E4.2248
G1 X112.900 Y109.410 E4.2850
G1 X112.530 Y109.533 E4.3206
G1 X110.456 Y109.533 E4.5105
G1 X110.015 Y109.351 E4.5542
G1 X109.443 Y108.779 E4.6282
G1 X109.260 Y108.338 E4.6719
G1 X109.260 Y104.451 E5.0276
G1 X91.740 Y104.451 E6.6312
G1 X91.740 Y108.338 E6.9869
G1 X91.557 Y108.779 E7.0306
G1 X90.985 Y109.351 E7.1046
G1 X90.544 Y109.533 E7.1483
G1 X88.470 Y109.533 E7.3381
G1 X88.100 Y109.410 E7.3738
G1 X87.575 Y109.015 E7.4339
G1 X87.354 Y108.695 E7.4696
G1 X87.168 Y108.056 E7.5305
G1 X87.155 Y108.002 E7.5355
G1 X87.138 Y107.912 E7.5440
G1 X87.130 Y107.857 E7.5491
G1 X87.009 Y106.622 E7.6626
G1 X87.007 Y106.593 E7.6653
G1 X87.004 Y106.544 E7.6698
G1 X87.004 Y106.515 E7.6725
G1 X87.004 Y92.755 E8.9318
G1 X87.186 Y92.314 E8.9755
G1 X87.758 Y91.742 E9.0496
G1 X88.199 Y91.559 E9.0933
G1 X88.740 Y91.559 E9.1428
G1 X88.740 Y88.662 E9.4079
G1 X88.923 Y88.221 E9.4516
G1 X89.495 Y87.649 E9.5256
G1 X89.751 Y87.543 E9.5510
G1 X89.936 Y87.467 F2400
G92 E0
G1 E-6.5000 F3600
G1 X83.260 Y88.662 F9000
G1 E-0.2000 F3600
G92 E0
G1 X83.260 Y91.559 E0.2652 F2400
G1 X83.801 Y91.559 E0.3147
G1 X84.242 Y91.742 E0.3584
G1 X84.814 Y92.314 E0.4324
G1 X84.996 Y92.755 E0.4761
G1 X84.996 Y106.515 E1.7355
G1 X84.996 Y106.544 E1.7382
G1 X84.993 Y106.593 E1.7426
G1 X84.991 Y106.622 E1.7453
G1 X84.870 Y107.857 E1.8588
G1 X84.862 Y107.912 E1.8639
G1 X84.845 Y108.002 E1.8724
G1 X84.832 Y108.056 E1.8775
G1 X84.647 Y108.695 E1.9383
G1 X84.425 Y109.015 E1.9740
G1 X83.900 Y109.410 E2.0341
G1 X83.530 Y109.533 E2.0698
G1 X81.456 Y109.533 E2.2596
G1 X81.015 Y109.351 E2.3033
G1 X80.443 Y108.779 E2.3773
G1 X80.260 Y108.338 E2.4210
G1 X80.260 Y104.451 E2.7768
G1 X62.740 Y104.451 E4.3803
G1 X62.740 Y108.338 E4.7360
G1 X62.557 Y108.779 E4.7797
G1 X61.985 Y109.351 E4.8537
G1 X61.544 Y109.533 E4.8974
G1 X59.470 Y109.533 E5.0873
G1 X59.100 Y109.410 E5.1230
G1 X58.575 Y109.015 E5.1831
G1 X58.354 Y108.695 E5.2188
G1 X58.168 Y108.056 E5.2796
G1 X58.155 Y108.002 E5.2847
G1 X58.138 Y107.912 E5.2931
G1 X58.130 Y107.857 E5.2982
G1 X58.009 Y106.622 E5.4118
G1 X58.007 Y106.593 E5.4145
G1 X58.004 Y106.544 E5.4189
G1 X58.004 Y106.515 E5.4216
G1 X58.004 Y92.755 E6.6810
G1 X58.186 Y92.314 E6.7247
G1 X58.758 Y91.742 E6.7987
G1 X59.199 Y91.559 E6.8424
G1 X59.740 Y91.559 E6.8919
G1 X59.740 Y88.662 E7.1571
G1 X59.923 Y88.221 E7.2008
G1 X60.495 Y87.649 E7.2748
G1 X60.936 Y87.467 E7.3185
G1 X63.384 Y87.467 E7.5426
G1 X63.825 Y87.649 E7.5863
G1 X64.397 Y88.221 E7.6603
G1 X64.580 Y88.662 E7.7040
G1 X64.580 Y88.944 E7.7298
G1 X78.420 Y88.944 E8.9966
G1 X78.420 Y88.662 E9.0224
G1 X78.603 Y88.221 E9.0661
G1 X79.175 Y87.649 E9.1401
G1 X79.616 Y87.467 E9.1838
G1 X82.064 Y87.467 E9.4079
G1 X82.505 Y87.649 E9.4516
G1 X83.077 Y88.221 E9.5256
G1 X83.183 Y88.478 E9.5510
G1 X83.260 Y88.662 F2400
G92 E0
G1 E-6.5000 F3600
G1 X83.080 Y93.442 F9000
G1 X83.114 Y93.442 F9000
G1 X83.114 Y106.477 F9000
G1 X83.004 Y107.601 F9000
G1 X82.990 Y107.651 F9000
G1 X82.546 Y107.651 F9000
G1 X82.064 Y120.467 F9000
G1 E-0.2000 F3600
G92 E0
G1 X82.505 Y120.649 E0.0437 F2400
G1 X83.077 Y121.221 E0.1177
G1 X83.260 Y121.662 E0.1614
G1 X83.260 Y124.559 E0.4266
G1 X83.801 Y124.559 E0.4761
G1 X84.242 Y124.742 E0.5198
G1 X84.814 Y125.314 E0.5938
G1 X84.996 Y125.755 E0.6375
G1 X84.996 Y139.515 E1.8969
G1 X84.996 Y139.544 E1.8996
G1 X84.993 Y139.593 E1.9041
G1 X84.991 Y139.622 E1.9067
G1 X84.870 Y140.857 E2.0203
G1 X84.862 Y140.912 E2.0253
G1 X84.845 Y141.002 E2.0338
G1 X84.832 Y141.056 E2.0389
G1 X84.647 Y141.695 E2.0997
G1 X84.425 Y142.015 E2.1354
G1 X83.900 Y142.410 E2.1955
G1 X83.530 Y142.533 E2.2312
G1 X81.456 Y142.533 E2.4210
G1 X81.015 Y142.351 E2.4647
G1 X80.443 Y141.779 E2.5388
G1 X80.260 Y141.338 E2.5824
G1 X80.260 Y137.451 E2.9382
G1 X62.740 Y137.451 E4.5417
G1 X62.740 Y141.338 E4.8974
G1 X62.557 Y141.779 E4.9411
G1 X61.985 Y142.351 E5.0151
G1 X61.544 Y142.533 E5.0588
G1 X59.470 Y142.533 E5.2487
G1 X59.100 Y142.410 E5.2844
G1 X58.575 Y142.015 E5.3445
G1 X58.354 Y141.695 E5.3802
G1 X58.168 Y141.056 E5.4410
G1 X58.155 Y141.002 E5.4461
G1 X58.138 Y140.912 E5.4545
G1 X58.130 Y140.857 E5.4596
G1 X58.009 Y139.622 E5.5732
G1 X58.007 Y139.593 E5.5759
G1 X58.004 Y139.544 E5.5803
G1 X58.004 Y139.515 E5.5830
G1 X58.004 Y125.755 E6.8424
