; G-Code generated by Simplify3D(R) Version 3.1.1
; Dec 8, 2018 at 9:49:16 AM
; Settings Summary
;   processName,Process1
;   applyToModels,cableChain_linkCover_v2,cableChain_linkCover_v2(2),cableChain_linkCover_v2(3),cableChain_linkCover_v2(4),cableChain_linkCover_v2(5),cableChain_linkCover_v2(6),cableChain_linkCover_v2(7),cableChain_linkCover_v2(8),cableChain_linkCover_v2(9),cableChain_linkCover_v2(10),cableChain_linkCover_v2(11),cableChain_linkCover_v2(12),cableChain_linkCover_v2(13),cableChain_linkCover_v2(14),cableChain_linkCover_v2(15),cableChain_plateMount_v2,cableChain_bedCorner_v2,cableChain_bedCornerCover_v2
;   profileName,ABS (modified)
;   profileVersion,2018-11-19 00:15:08
;   baseProfile,Creality CR-10
;   printMaterial,PETG
;   printQuality,Fast
;   printExtruders,
;   extruderName,Primary Extruder
;   extruderToolheadNumber,0
;   extruderDiameter,0.4
;   extruderAutoWidth,1
;   extruderWidth,0.48
;   extrusionMultiplier,0.98
;   extruderUseRetract,1
;   extruderRetractionDistance,6.5
;   extruderExtraRestartDistance,-0.2
;   extruderRetractionZLift,0
;   extruderRetractionSpeed,3600
;   extruderUseCoasting,1
;   extruderCoastingDistance,0.2
;   extruderUseWipe,0
;   extruderWipeDistance,4
;   primaryExtruder,0
;   layerHeight,0.3
;   topSolidLayers,3
;   bottomSolidLayers,3
;   perimeterOutlines,3
;   printPerimetersInsideOut,1
;   startPointOption,3
;   startPointOriginX,0
;   startPointOriginY,500
;   startPointOriginZ,0
;   sequentialIslands,0
;   spiralVaseMode,0
;   firstLayerHeightPercentage,130
;   firstLayerWidthPercentage,120
;   firstLayerUnderspeed,0.6
;   useRaft,0
;   raftExtruder,0
;   raftLayers,3
;   raftOffset,3
;   raftSeparationDistance,0.14
;   raftInfill,85
;   disableRaftBaseLayers,0
;   useSkirt,1
;   skirtExtruder,0
;   skirtLayers,1
;   skirtOutlines,3
;   skirtOffset,0.4
;   usePrimePillar,0
;   primePillarExtruder,999
;   primePillarWidth,12
;   primePillarLocation,7
;   primePillarSpeedMultiplier,1
;   useOozeShield,0
;   oozeShieldExtruder,999
;   oozeShieldOffset,2
;   oozeShieldOutlines,1
;   oozeShieldSidewallShape,1
;   oozeShieldSidewallAngle,30
;   oozeShieldSpeedMultiplier,1
;   infillExtruder,0
;   internalInfillPattern,Triangular
;   externalInfillPattern,Rectilinear
;   infillPercentage,20
;   outlineOverlapPercentage,35
;   infillExtrusionWidthPercentage,120
;   minInfillLength,4
;   infillLayerInterval,1
;   infillAngles,45,-45
;   overlapInfillAngles,1
;   generateSupport,1
;   supportExtruder,0
;   supportInfillPercentage,28
;   supportExtraInflation,1
;   denseSupportLayers,0
;   denseSupportInfillPercentage,60
;   supportLayerInterval,1
;   supportHorizontalPartOffset,0.3
;   supportUpperSeparationLayers,2
;   supportLowerSeparationLayers,1
;   supportType,0
;   supportGridSpacing,3.5
;   maxOverhangAngle,45
;   supportAngles,0
;   temperatureName,Heated Bed,Primary Extruder
;   temperatureNumber,0,0
;   temperatureSetpointCount,1,1
;   temperatureSetpointLayers,1,1
;   temperatureSetpointTemperatures,85,245
;   temperatureStabilizeAtStartup,1,1
;   temperatureHeatedBed,1,0
;   temperatureRelayBetweenLayers,0,0
;   temperatureRelayBetweenLoops,0,0
;   fanLayers,1,2,3
;   fanSpeeds,0,0,0
;   blipFanToFullPower,0
;   adjustSpeedForCooling,1
;   minSpeedLayerTime,20
;   minCoolingSpeedSlowdown,30
;   increaseFanForCooling,0
;   minFanLayerTime,30
;   maxCoolingFanSpeed,50
;   increaseFanForBridging,0
;   bridgingFanSpeed,100
;   use5D,1
;   relativeEdistances,0
;   allowEaxisZeroing,1
;   independentExtruderAxes,0
;   includeM10123,0
;   stickySupport,1
;   applyToolheadOffsets,0
;   gcodeXoffset,0
;   gcodeYoffset,0
;   gcodeZoffset,0
;   overrideMachineDefinition,1
;   machineTypeOverride,0
;   strokeXoverride,230
;   strokeYoverride,230
;   strokeZoverride,255
;   originOffsetXoverride,0
;   originOffsetYoverride,0
;   originOffsetZoverride,0
;   homeXdirOverride,-1
;   homeYdirOverride,-1
;   homeZdirOverride,-1
;   flipXoverride,1
;   flipYoverride,-1
;   flipZoverride,1
;   toolheadOffsets,0,0|0,0|0,0|0,0|0,0|0,0
;   overrideFirmwareConfiguration,1
;   firmwareTypeOverride,RepRap (Marlin/Repetier/Sprinter)
;   GPXconfigOverride,r2
;   baudRateOverride,115200
;   overridePrinterModels,1
;   printerModelsOverride
;   startingGcode,G28 ; home all axes,M117 Purging Extruder...,M204 P500 T1000,M205 X10 Y10 ; set jerk x/y=10,G1 Z1.0 F3000 ; lift Z,G1 X0.2 Y25 Z0.2 F3000.0 ; move to start-line position,G92 E0 ; reset extruder,G1 X0.2 Y150.0 F1000.0 E15 ; draw 1st line,G1 X0.7 Y150.0 F3000.0 ; move to side 0.5mm,G1 X0.7 Y50 F1000.0 E30 ; draw 2nd line,G1 X0.7 Y25 F5000.0 ; quick wipe,M117 Printing!,,; Default S3D CR-10 Startup,; G28 ; home all axes,; G1 Z5 F3000 ; lift,; G1 X20 Y2 F1500 ; avoid binder clips,; G1 Z0.2 F3000 ; get ready to prime,; G92 E0 ; reset extrusion distance,; G1 X120 E10 F600 ; prime nozzle,; G1 X150 F5000 ; quick wipe,
;   layerChangeGcode,
;   retractionGcode,
;   toolChangeGcode,
;   endingGcode,M117 Print Complete!,M104 S0 ; turn off extruder,M140 S0 ; turn off bed,G1 X0 Y295 F1000 ; move finished print out front,M84 ; disable motors,M106 S0 ; turn off cooling fan,,; play song,M300 S294 P200 ;D4: 294,M300 S588 P200 ;D5: 588,M300 S440 P200 ;A4: 440,M300 S392 P200 ;G4: 392,M300 S784 P200 ;G5: 784,M300 S440 P200 ;A4: 440,M300 S740 P200 ;F#5: 740,M300 S440 P200 ;A4: 440,,; Default S3D CR-10 Ending Script,; G28 X0 ; home x axis,; M106 S0 ; turn off cooling fan,; M104 S0 ; turn off extruder,; M140 S0 ; turn off bed,; M84 ; disable motors,
;   exportFileFormat,gcode
;   celebration,0
;   celebrationSong,Star Wars
;   postProcessing,,
;   defaultSpeed,4000
;   outlineUnderspeed,0.8
;   solidInfillUnderspeed,0.9
;   supportUnderspeed,1
;   rapidXYspeed,9000
;   rapidZspeed,1002
;   minBridgingArea,50
;   bridgingExtraInflation,0
;   bridgingExtrusionMultiplier,0.9
;   bridgingSpeedMultiplier,1
;   filamentDiameter,1.75
;   filamentPricePerKg,46
;   filamentDensity,1.25
;   useMinPrintHeight,0
;   minPrintHeight,0
;   useMaxPrintHeight,0
;   maxPrintHeight,0
;   useDiaphragm,0
;   diaphragmLayerInterval,20
;   robustSlicing,1
;   mergeAllIntoSolid,0
;   onlyRetractWhenCrossingOutline,0
;   retractBetweenLayers,1
;   useRetractionMinTravel,1
;   retractionMinTravel,3
;   retractWhileWiping,1
;   onlyWipeOutlines,1
;   avoidCrossingOutline,1
;   maxMovementDetourFactor,3
;   toolChangeRetractionDistance,12
;   toolChangeExtraRestartDistance,-0.5
;   toolChangeRetractionSpeed,600
;   allowThinWallGapFill,1
;   thinWallAllowedOverlapPercentage,15
;   horizontalSizeCompensation,0
G90
M82
M106 S0
M140 S85
M190 S85
M104 S245 T0
M109 S245 T0
G28 ; home all axes
M117 Purging Extruder...
M204 P500 T1000
M205 X10 Y10 ; set jerk x/y=10
G1 Z1.0 F3000 ; lift Z
G1 X0.2 Y25 Z0.2 F3000.0 ; move to start-line position
G92 E0 ; reset extruder
G1 X0.2 Y150.0 F1000.0 E15 ; draw 1st line
G1 X0.7 Y150.0 F3000.0 ; move to side 0.5mm
G1 X0.7 Y50 F1000.0 E30 ; draw 2nd line
G1 X0.7 Y25 F5000.0 ; quick wipe
M117 Printing!
; Default S3D CR-10 Startup
; G28 ; home all axes
; G1 Z5 F3000 ; lift
; G1 X20 Y2 F1500 ; avoid binder clips
; G1 Z0.2 F3000 ; get ready to prime
; G92 E0 ; reset extrusion distance
; G1 X120 E10 F600 ; prime nozzle
; G1 X150 F5000 ; quick wipe
G92 E0
G1 E-6.5000 F3600
G1 Z0.390 F1002
; layer 1, Z = 0.39
T0
; tool H0.390 W0.576
; skirt
G1 X81.835 Y59.338 F9000
G1 E-0.2000 F1080
G92 E0
G1 X82.483 Y58.456 E0.1001 F2400
G1 X82.501 Y58.433 E0.1028
G1 X82.532 Y58.394 E0.1074
G1 X82.552 Y58.371 E0.1101
G1 X83.456 Y57.367 E0.2338
G1 X83.473 Y57.350 E0.2360
G1 X83.501 Y57.321 E0.2397
G1 X83.518 Y57.304 E0.2419
G1 X84.022 Y56.827 E0.3054
G1 X84.040 Y56.811 E0.3076
G1 X84.070 Y56.785 E0.3113
G1 X84.089 Y56.769 E0.3135
G1 X85.143 Y55.921 E0.4373
G1 X85.169 Y55.902 E0.4403
G1 X85.212 Y55.871 E0.4452
G1 X85.239 Y55.853 E0.4481
G1 X86.378 Y55.123 E0.5720
G1 X86.399 Y55.110 E0.5742
G1 X86.434 Y55.090 E0.5779
G1 X86.455 Y55.078 E0.5801
G1 X87.063 Y54.754 E0.6432
G1 X87.080 Y54.745 E0.6449
G1 X87.109 Y54.731 E0.6479
G1 X87.126 Y54.723 E0.6496
G1 X87.984 Y54.334 E0.7358
G1 X88.001 Y54.327 E0.7375
G1 X88.030 Y54.315 E0.7404
G1 X88.048 Y54.308 E0.7422
G1 X88.687 Y54.066 E0.8047
G1 X88.702 Y54.060 E0.8062
G1 X88.728 Y54.052 E0.8086
G1 X88.743 Y54.047 E0.8101
G1 X89.395 Y53.839 E0.8727
G1 X89.415 Y53.833 E0.8746
G1 X89.449 Y53.824 E0.8779
G1 X89.470 Y53.818 E0.8798
G1 X90.527 Y53.563 E0.9794
G1 X90.550 Y53.557 E0.9816
G1 X90.589 Y53.550 E0.9851
G1 X90.612 Y53.546 E0.9873
G1 X91.551 Y53.395 E1.0744
G1 X91.579 Y53.391 E1.0769
G1 X91.624 Y53.386 E1.0811
G1 X91.652 Y53.384 E1.0837
G1 X92.998 Y53.293 E1.2072
G1 X93.022 Y53.292 E1.2094
G1 X93.063 Y53.291 E1.2131
G1 X93.087 Y53.291 E1.2153
G1 X93.780 Y53.300 E1.2787
G1 X93.804 Y53.301 E1.2809
G1 X93.844 Y53.303 E1.2846
G1 X93.869 Y53.305 E1.2868
G1 X95.216 Y53.432 E1.4107
G1 X95.248 Y53.436 E1.4136
G1 X95.301 Y53.444 E1.4185
G1 X95.332 Y53.449 E1.4215
G1 X96.665 Y53.721 E1.5459
G1 X96.696 Y53.728 E1.5489
G1 X96.748 Y53.742 E1.5538
G1 X96.779 Y53.751 E1.5567
G1 X98.069 Y54.162 E1.6806
G1 X98.092 Y54.169 E1.6828
G1 X98.129 Y54.183 E1.6865
G1 X98.152 Y54.192 E1.6887
G1 X98.793 Y54.455 E1.7522
G1 X98.816 Y54.464 E1.7544
G1 X98.852 Y54.481 E1.7581
G1 X98.874 Y54.491 E1.7603
G1 X100.081 Y55.103 E1.8841
G1 X100.109 Y55.119 E1.8871
G1 X100.156 Y55.145 E1.8920
G1 X100.183 Y55.162 E1.8949
G1 X101.323 Y55.903 E2.0194
G1 X101.350 Y55.921 E2.0223
G1 X101.393 Y55.953 E2.0272
G1 X101.418 Y55.973 E2.0302
G1 X102.473 Y56.831 E2.1546
G1 X102.497 Y56.852 E2.1576
G1 X102.537 Y56.888 E2.1625
G1 X102.560 Y56.911 E2.1654
G1 X103.517 Y57.877 E2.2899
G1 X103.539 Y57.901 E2.2929
G1 X103.574 Y57.941 E2.2978
G1 X103.595 Y57.965 E2.3007
G1 X104.442 Y59.029 E2.4251
G1 X104.462 Y59.054 E2.4281
G1 X104.493 Y59.098 E2.4330
G1 X104.511 Y59.125 E2.4359
G1 X105.236 Y60.267 E2.5598
G1 X105.249 Y60.288 E2.5620
G1 X105.269 Y60.322 E2.5657
G1 X105.280 Y60.344 E2.5679
G1 X105.602 Y60.954 E2.6310
G1 X105.611 Y60.971 E2.6328
G1 X105.625 Y61.000 E2.6357
G1 X105.633 Y61.017 E2.6375
G1 X106.018 Y61.876 E2.7236
G1 X106.025 Y61.894 E2.7254
G1 X106.037 Y61.923 E2.7283
G1 X106.044 Y61.941 E2.7300
G1 X106.285 Y62.586 E2.7931
G1 X106.293 Y62.609 E2.7953
G1 X106.306 Y62.647 E2.7990
G1 X106.313 Y62.670 E2.8012
G1 X106.683 Y63.972 E2.9250
G1 X106.691 Y64.003 E2.9279
G1 X106.703 Y64.055 E2.9329
G1 X106.709 Y64.087 E2.9358
G1 X106.939 Y65.427 E3.0603
G1 X106.944 Y65.459 E3.0632
G1 X106.950 Y65.512 E3.0681
G1 X106.953 Y65.544 E3.0711
G1 X107.038 Y66.895 E3.1949
G1 X107.039 Y66.919 E3.1971
G1 X107.040 Y66.959 E3.2008
G1 X107.040 Y66.983 E3.2030
G1 X107.028 Y67.677 E3.2665
G1 X107.027 Y67.701 E3.2687
G1 X107.024 Y67.741 E3.2724
G1 X107.023 Y67.765 E3.2746
G1 X106.891 Y69.105 E3.3978
G1 X106.888 Y69.129 E3.4001
G1 X106.882 Y69.169 E3.4037
G1 X106.878 Y69.193 E3.4059
G1 X106.755 Y69.875 E3.4694
G1 X106.751 Y69.899 E3.4716
G1 X106.742 Y69.938 E3.4753
G1 X106.736 Y69.961 E3.4775
G1 X106.390 Y71.269 E3.6014
G1 X106.381 Y71.300 E3.6043
G1 X106.364 Y71.351 E3.6092
G1 X106.354 Y71.382 E3.6121
G1 X105.871 Y72.640 E3.7355
G1 X105.864 Y72.657 E3.7372
G1 X105.853 Y72.684 E3.7398
G1 X105.846 Y72.700 E3.7414
G1 X91.616 Y104.180 E6.9034
G1 X91.783 Y104.710 E6.9542
G1 X91.804 Y104.799 E6.9626
G1 X91.827 Y104.950 E6.9765
G1 X91.834 Y105.041 E6.9849
G1 X91.832 Y123.829 E8.7045
G1 X91.649 Y124.270 E8.7482
G1 X91.077 Y124.842 E8.8223
G1 X90.636 Y125.025 E8.8659
G1 X65.850 Y125.025 E11.1345
G1 X65.409 Y124.842 E11.1782
G1 X64.837 Y124.270 E11.2522
G1 X64.654 Y123.829 E11.2959
G1 X64.654 Y105.041 E13.0156
G1 X64.661 Y104.949 E13.0239
G1 X64.685 Y104.799 E13.0379
G1 X64.705 Y104.710 E13.0463
G1 X65.059 Y103.586 E13.1540
G1 X65.063 Y103.573 E13.1553
G1 X65.071 Y103.550 E13.1576
G1 X65.076 Y103.535 E13.1590
G1 X80.327 Y62.246 E17.1876
G1 X80.333 Y62.230 E17.1892
G1 X80.344 Y62.203 E17.1918
G1 X80.351 Y62.187 E17.1934
G1 X80.887 Y60.958 E17.3161
G1 X80.897 Y60.937 E17.3183
G1 X80.914 Y60.900 E17.3220
G1 X80.925 Y60.879 E17.3242
G1 X81.251 Y60.270 E17.3874
G1 X81.261 Y60.253 E17.3892
G1 X81.278 Y60.224 E17.3923
G1 X81.288 Y60.206 E17.3941
G1 X81.727 Y59.506 E17.4698
G1 X81.789 Y59.406 F2400
G1 X81.801 Y59.387 F2400
G1 X81.822 Y59.357 F2400
G1 X81.835 Y59.338 F2400
G92 E0
G1 E-6.5000 F3600
G1 X84.486 Y59.016 F9000
G1 X84.831 Y58.652 F9000
G1 X85.295 Y58.214 F9000
G1 X85.782 Y57.801 F9000
G1 X86.290 Y57.415 F9000
G1 X86.818 Y57.056 F9000
G1 X87.364 Y56.726 F9000
G1 X87.926 Y56.427 F9000
G1 X88.738 Y56.059 F9000
G1 X89.333 Y55.834 F9000
G1 X89.941 Y55.640 F9000
G1 X90.560 Y55.479 F9000
G1 X90.936 Y55.400 F9000
G1 X91.818 Y55.259 F9000
G1 X92.451 Y55.199 F9000
G1 X93.089 Y55.174 F9000
G1 X93.727 Y55.182 F9000
G1 X94.364 Y55.225 F9000
G1 X94.998 Y55.302 F9000
G1 X95.377 Y55.368 F9000
G1 X96.250 Y55.557 F9000
G1 X96.861 Y55.734 F9000
G1 X97.464 Y55.944 F9000
G1 X98.054 Y56.186 F9000
G1 X98.631 Y56.459 F9000
G1 X99.192 Y56.763 F9000
G1 X99.737 Y57.096 F9000
G1 X99.819 Y57.152 F9000
G1 X109.157 Y56.018 F9000
G1 E-0.2000 F3600
G92 E0
G1 X109.146 Y55.901 E0.0107 F2400
G1 X109.146 Y55.222 E0.0729
G1 X109.328 Y54.781 E0.1166
G1 X109.900 Y54.209 E0.1906
G1 X110.341 Y54.027 E0.2343
G1 X139.437 Y54.027 E2.8973
G1 X139.878 Y54.209 E2.9410
G1 X140.450 Y54.781 E3.0151
G1 X140.633 Y55.222 E3.0588
G1 X140.633 Y55.901 E3.1209
G1 X140.622 Y56.017 E3.1316
G1 X140.584 Y56.209 E3.1494
G1 X140.550 Y56.321 E3.1601
G1 X134.035 Y72.218 E4.7326
G1 X134.035 Y79.054 E5.3583
G1 X138.168 Y83.244 E5.8970
G1 X138.297 Y83.439 E5.9184
G1 X138.446 Y83.802 E5.9543
G1 X138.491 Y84.032 E5.9757
G1 X138.492 Y93.123 E6.8078
G1 X138.309 Y93.564 E6.8515
G1 X137.737 Y94.136 E6.9255
G1 X137.296 Y94.318 E6.9692
G1 X134.845 Y94.318 E7.1935
G1 X134.404 Y94.136 E7.2372
G1 X133.832 Y93.564 E7.3113
G1 X133.649 Y93.123 E7.3549
G1 X133.649 Y89.236 E7.7107
G1 X133.221 Y89.236 E7.7498
G1 X131.025 Y90.189 E7.9690
G1 X130.225 Y90.596 E8.0511
G1 X130.160 Y90.625 E8.0576
G1 X130.049 Y90.666 E8.0685
G1 X129.981 Y90.686 E8.0750
G1 X129.272 Y90.855 E8.1417
G1 X129.203 Y90.867 E8.1481
G1 X129.087 Y90.881 E8.1588
G1 X129.017 Y90.885 E8.1652
G1 X120.762 Y90.885 E8.9207
G1 X120.692 Y90.881 E8.9272
G1 X120.576 Y90.867 E8.9379
G1 X120.507 Y90.855 E8.9443
G1 X119.798 Y90.686 E9.0109
G1 X119.730 Y90.666 E9.0175
G1 X119.618 Y90.625 E9.0283
G1 X119.553 Y90.596 E9.0348
G1 X118.753 Y90.189 E9.1170
G1 X116.557 Y89.236 E9.3361
G1 X116.129 Y89.236 E9.3753
G1 X116.129 Y93.123 E9.7310
G1 X115.947 Y93.564 E9.7747
G1 X115.375 Y94.136 E9.8487
G1 X114.934 Y94.318 E9.8924
G1 X112.483 Y94.318 E10.1167
G1 X112.042 Y94.136 E10.1604
G1 X111.470 Y93.564 E10.2345
G1 X111.287 Y93.123 E10.2781
G1 X111.287 Y84.032 E11.1102
G1 X111.332 Y83.802 E11.1316
G1 X111.481 Y83.439 E11.1675
G1 X111.610 Y83.244 E11.1890
G1 X115.743 Y79.054 E11.7276
G1 X115.743 Y72.218 E12.3533
G1 X109.228 Y56.321 E13.9258
G1 X109.196 Y56.214 E13.9360
G1 X109.195 Y56.209 F2400
G1 X109.157 Y56.018 F2400
G92 E0
G1 E-6.5000 F3600
G1 X111.039 Y100.687 F9000
G1 E-0.2000 F3600
G92 E0
G1 X112.790 Y100.687 E0.1603 F2400
G1 X113.231 Y100.869 E0.2040
G1 X113.803 Y101.441 E0.2780
G1 X113.986 Y101.882 E0.3217
G1 X113.986 Y111.045 E1.1603
G1 X131.506 Y111.045 E2.7639
G1 X131.506 Y101.882 E3.6025
G1 X131.688 Y101.441 E3.6462
G1 X132.260 Y100.869 E3.7202
G1 X132.701 Y100.687 E3.7639
G1 X134.452 Y100.687 E3.9242
G1 X134.685 Y100.733 E3.9459
G1 X135.052 Y100.886 E3.9823
G1 X135.249 Y101.018 E4.0040
G1 X136.017 Y101.791 E4.1037
G1 X136.147 Y101.987 E4.1253
G1 X136.297 Y102.351 E4.1613
G1 X136.343 Y102.582 E4.1828
G1 X136.343 Y113.989 E5.2269
G1 X136.297 Y114.221 E5.2485
G1 X136.145 Y114.586 E5.2847
G1 X136.014 Y114.783 E5.3063
G1 X135.242 Y115.556 E5.4063
G1 X135.045 Y115.687 E5.4280
G1 X134.680 Y115.839 E5.4642
G1 X134.448 Y115.885 E5.4859
G1 X111.043 Y115.885 E7.6280
G1 X110.811 Y115.839 E7.6496
G1 X110.446 Y115.687 E7.6859
G1 X110.249 Y115.556 E7.7075
G1 X109.477 Y114.783 E7.8075
G1 X109.346 Y114.586 E7.8292
G1 X109.195 Y114.221 E7.8653
G1 X109.149 Y113.989 E7.8869
G1 X109.149 Y102.582 E8.9310
G1 X109.194 Y102.351 E8.9525
