; G-Code generated by Simplify3D(R) Version 3.1.1
; Nov 29, 2018 at 1:36:07 PM
; Settings Summary
;   processName,Process1
;   applyToModels,Cables and USB
;   profileName,ABS (modified)
;   profileVersion,2018-11-19 00:15:08
;   baseProfile,Creality CR-10
;   printMaterial,PETG
;   printQuality,Fast
;   printExtruders,
;   extruderName,Primary Extruder
;   extruderToolheadNumber,0
;   extruderDiameter,0.4
;   extruderAutoWidth,1
;   extruderWidth,0.48
;   extrusionMultiplier,0.99
;   extruderUseRetract,1
;   extruderRetractionDistance,6.5
;   extruderExtraRestartDistance,-0.2
;   extruderRetractionZLift,0
;   extruderRetractionSpeed,3600
;   extruderUseCoasting,1
;   extruderCoastingDistance,0.2
;   extruderUseWipe,0
;   extruderWipeDistance,4
;   primaryExtruder,0
;   layerHeight,0.3
;   topSolidLayers,3
;   bottomSolidLayers,3
;   perimeterOutlines,3
;   printPerimetersInsideOut,1
;   startPointOption,3
;   startPointOriginX,0
;   startPointOriginY,500
;   startPointOriginZ,0
;   sequentialIslands,0
;   spiralVaseMode,0
;   firstLayerHeightPercentage,130
;   firstLayerWidthPercentage,120
;   firstLayerUnderspeed,0.6
;   useRaft,0
;   raftExtruder,0
;   raftLayers,3
;   raftOffset,3
;   raftSeparationDistance,0.14
;   raftInfill,85
;   disableRaftBaseLayers,0
;   useSkirt,1
;   skirtExtruder,0
;   skirtLayers,1
;   skirtOutlines,3
;   skirtOffset,0.2
;   usePrimePillar,0
;   primePillarExtruder,999
;   primePillarWidth,12
;   primePillarLocation,7
;   primePillarSpeedMultiplier,1
;   useOozeShield,0
;   oozeShieldExtruder,999
;   oozeShieldOffset,2
;   oozeShieldOutlines,1
;   oozeShieldSidewallShape,1
;   oozeShieldSidewallAngle,30
;   oozeShieldSpeedMultiplier,1
;   infillExtruder,0
;   internalInfillPattern,Triangular
;   externalInfillPattern,Rectilinear
;   infillPercentage,12
;   outlineOverlapPercentage,35
;   infillExtrusionWidthPercentage,120
;   minInfillLength,4
;   infillLayerInterval,1
;   infillAngles,45,-45
;   overlapInfillAngles,1
;   generateSupport,1
;   supportExtruder,0
;   supportInfillPercentage,28
;   supportExtraInflation,1
;   denseSupportLayers,0
;   denseSupportInfillPercentage,60
;   supportLayerInterval,1
;   supportHorizontalPartOffset,0.3
;   supportUpperSeparationLayers,2
;   supportLowerSeparationLayers,1
;   supportType,0
;   supportGridSpacing,3.5
;   maxOverhangAngle,45
;   supportAngles,0
;   temperatureName,Heated Bed,Primary Extruder
;   temperatureNumber,0,0
;   temperatureSetpointCount,1,1
;   temperatureSetpointLayers,1,1
;   temperatureSetpointTemperatures,85,245
;   temperatureStabilizeAtStartup,1,1
;   temperatureHeatedBed,1,0
;   temperatureRelayBetweenLayers,0,0
;   temperatureRelayBetweenLoops,0,0
;   fanLayers,1,2,3
;   fanSpeeds,0,30,50
;   blipFanToFullPower,0
;   adjustSpeedForCooling,1
;   minSpeedLayerTime,20
;   minCoolingSpeedSlowdown,30
;   increaseFanForCooling,0
;   minFanLayerTime,30
;   maxCoolingFanSpeed,50
;   increaseFanForBridging,0
;   bridgingFanSpeed,100
;   use5D,1
;   relativeEdistances,0
;   allowEaxisZeroing,1
;   independentExtruderAxes,0
;   includeM10123,0
;   stickySupport,1
;   applyToolheadOffsets,0
;   gcodeXoffset,0
;   gcodeYoffset,0
;   gcodeZoffset,0
;   overrideMachineDefinition,1
;   machineTypeOverride,0
;   strokeXoverride,230
;   strokeYoverride,230
;   strokeZoverride,255
;   originOffsetXoverride,0
;   originOffsetYoverride,0
;   originOffsetZoverride,0
;   homeXdirOverride,-1
;   homeYdirOverride,-1
;   homeZdirOverride,-1
;   flipXoverride,1
;   flipYoverride,-1
;   flipZoverride,1
;   toolheadOffsets,0,0|0,0|0,0|0,0|0,0|0,0
;   overrideFirmwareConfiguration,1
;   firmwareTypeOverride,RepRap (Marlin/Repetier/Sprinter)
;   GPXconfigOverride,r2
;   baudRateOverride,115200
;   overridePrinterModels,1
;   printerModelsOverride
;   startingGcode,G28 ; home all axes,M117 Purging Extruder...,M204 P500 T1000,M205 X10 Y10 ; set jerk x/y=10,G1 Z1.0 F3000 ; lift Z,G1 X0.2 Y25 Z0.2 F3000.0 ; move to start-line position,G92 E0 ; reset extruder,G1 X0.2 Y150.0 F1000.0 E15 ; draw 1st line,G1 X0.7 Y150.0 F3000.0 ; move to side 0.5mm,G1 X0.7 Y50 F1000.0 E30 ; draw 2nd line,G1 X0.7 Y25 F5000.0 ; quick wipe,M117 Printing!,,; Default S3D CR-10 Startup,; G28 ; home all axes,; G1 Z5 F3000 ; lift,; G1 X20 Y2 F1500 ; avoid binder clips,; G1 Z0.2 F3000 ; get ready to prime,; G92 E0 ; reset extrusion distance,; G1 X120 E10 F600 ; prime nozzle,; G1 X150 F5000 ; quick wipe,
;   layerChangeGcode,
;   retractionGcode,
;   toolChangeGcode,
;   endingGcode,M117 Print Complete!,M104 S0 ; turn off extruder,M140 S0 ; turn off bed,G1 X0 Y295 F1000 ; move finished print out front,M84 ; disable motors,M106 S0 ; turn off cooling fan,,; play song,M300 S294 P200 ;D4: 294,M300 S588 P200 ;D5: 588,M300 S440 P200 ;A4: 440,M300 S392 P200 ;G4: 392,M300 S784 P200 ;G5: 784,M300 S440 P200 ;A4: 440,M300 S740 P200 ;F#5: 740,M300 S440 P200 ;A4: 440,,; Default S3D CR-10 Ending Script,; G28 X0 ; home x axis,; M106 S0 ; turn off cooling fan,; M104 S0 ; turn off extruder,; M140 S0 ; turn off bed,; M84 ; disable motors,
;   exportFileFormat,gcode
;   celebration,0
;   celebrationSong,Star Wars
;   postProcessing,,
;   defaultSpeed,3000
;   outlineUnderspeed,0.8
;   solidInfillUnderspeed,0.9
;   supportUnderspeed,1
;   rapidXYspeed,9000
;   rapidZspeed,1002
;   minBridgingArea,50
;   bridgingExtraInflation,0
;   bridgingExtrusionMultiplier,0.9
;   bridgingSpeedMultiplier,1
;   filamentDiameter,1.75
;   filamentPricePerKg,46
;   filamentDensity,1.25
;   useMinPrintHeight,0
;   minPrintHeight,0
;   useMaxPrintHeight,0
;   maxPrintHeight,0
;   useDiaphragm,0
;   diaphragmLayerInterval,20
;   robustSlicing,1
;   mergeAllIntoSolid,0
;   onlyRetractWhenCrossingOutline,0
;   retractBetweenLayers,1
;   useRetractionMinTravel,1
;   retractionMinTravel,3
;   retractWhileWiping,1
;   onlyWipeOutlines,1
;   avoidCrossingOutline,1
;   maxMovementDetourFactor,3
;   toolChangeRetractionDistance,12
;   toolChangeExtraRestartDistance,-0.5
;   toolChangeRetractionSpeed,600
;   allowThinWallGapFill,1
;   thinWallAllowedOverlapPercentage,15
;   horizontalSizeCompensation,0
G90
M82
M106 S0
M140 S85
M190 S85
M104 S245 T0
M109 S245 T0
G28 ; home all axes
M117 Purging Extruder...
M204 P500 T1000
M205 X10 Y10 ; set jerk x/y=10
G1 Z1.0 F3000 ; lift Z
G1 X0.2 Y25 Z0.2 F3000.0 ; move to start-line position
G92 E0 ; reset extruder
G1 X0.2 Y150.0 F1000.0 E15 ; draw 1st line
G1 X0.7 Y150.0 F3000.0 ; move to side 0.5mm
G1 X0.7 Y50 F1000.0 E30 ; draw 2nd line
G1 X0.7 Y25 F5000.0 ; quick wipe
M117 Printing!
; Default S3D CR-10 Startup
; G28 ; home all axes
; G1 Z5 F3000 ; lift
; G1 X20 Y2 F1500 ; avoid binder clips
; G1 Z0.2 F3000 ; get ready to prime
; G92 E0 ; reset extrusion distance
; G1 X120 E10 F600 ; prime nozzle
; G1 X150 F5000 ; quick wipe
G92 E0
G1 E-6.5000 F3600
G1 Z0.390 F1002
; layer 1, Z = 0.39
T0
; tool H0.390 W0.576
; skirt
G1 X39.040 Y75.680 F9000
G1 E-0.2000 F1080
G92 E0
G1 X39.223 Y75.239 E0.0441 F1800
G1 X39.677 Y74.784 E0.1036
G1 X40.118 Y74.601 E0.1477
G1 X189.882 Y74.601 E13.9949
G1 X190.323 Y74.784 E14.0390
G1 X190.777 Y75.239 E14.0985
G1 X190.960 Y75.680 E14.1426
G1 X190.960 Y108.323 E17.1608
G1 X190.777 Y108.764 E17.2050
G1 X190.323 Y109.219 E17.2644
G1 X189.882 Y109.401 E17.3086
G1 X188.618 Y109.401 E17.4254
G1 X188.626 Y119.350 E18.3452
G1 X188.626 Y119.354 E18.3456
G1 X188.582 Y133.693 E19.6714
G1 X188.616 Y149.275 E21.1121
G1 X188.607 Y149.376 E21.1215
G1 X188.585 Y149.508 E21.1339
G1 X188.560 Y149.606 E21.1432
G1 X188.292 Y150.378 E21.2188
G1 X188.244 Y150.484 E21.2296
G1 X188.165 Y150.619 E21.2440
G1 X188.097 Y150.714 E21.2548
G1 X187.598 Y151.279 E21.3245
G1 X187.511 Y151.360 E21.3355
G1 X187.384 Y151.456 E21.3503
G1 X187.282 Y151.519 E21.3613
G1 X186.972 Y151.668 E21.3931
G1 X186.845 Y151.713 E21.4056
G1 X186.669 Y151.753 E21.4222
G1 X186.535 Y151.768 E21.4347
G1 X185.723 Y151.768 E21.5098
G1 X185.589 Y151.753 E21.5223
G1 X185.413 Y151.713 E21.5390
G1 X185.286 Y151.668 E21.5515
G1 X184.976 Y151.519 E21.5832
G1 X184.874 Y151.456 E21.5943
G1 X184.747 Y151.360 E21.6090
G1 X184.660 Y151.279 E21.6201
G1 X184.086 Y150.628 E21.7002
G1 X183.953 Y150.375 E21.7267
G1 X183.887 Y150.118 E21.7512
G1 X183.717 Y149.707 E21.7924
G1 X183.683 Y149.595 E21.8032
G1 X183.652 Y149.443 E21.8175
G1 X183.640 Y149.328 E21.8282
G1 X183.631 Y147.697 E21.9790
G1 X183.631 Y147.694 E21.9793
G1 X183.631 Y147.687 E21.9800
G1 X183.631 Y147.680 E21.9806
G1 X183.700 Y141.420 E22.5594
G1 X183.654 Y139.243 E22.7608
G1 X178.116 Y139.234 E23.2728
G1 X178.119 Y146.171 E23.9142
G1 X178.119 Y146.175 E23.9146
G1 X178.119 Y146.182 E23.9151
G1 X178.119 Y146.186 E23.9156
G1 X178.074 Y149.233 E24.1974
G1 X178.072 Y149.270 E24.2007
G1 X178.069 Y149.319 E24.2053
G1 X178.065 Y149.355 E24.2087
G1 X178.026 Y149.639 E24.2351
G1 X178.020 Y149.672 E24.2382
G1 X178.011 Y149.717 E24.2424
G1 X178.004 Y149.750 E24.2456
G1 X177.904 Y150.139 E24.2827
G1 X177.876 Y150.221 E24.2908
G1 X177.831 Y150.329 E24.3015
G1 X177.792 Y150.407 E24.3096
G1 X177.676 Y150.599 E24.3304
G1 X177.646 Y150.645 E24.3354
G1 X177.603 Y150.703 E24.3421
G1 X177.569 Y150.745 E24.3471
G1 X177.098 Y151.279 E24.4129
G1 X177.011 Y151.360 E24.4239
G1 X176.884 Y151.456 E24.4387
G1 X176.782 Y151.519 E24.4497
G1 X176.472 Y151.668 E24.4815
G1 X176.345 Y151.713 E24.4940
G1 X176.169 Y151.753 E24.5107
G1 X176.035 Y151.768 E24.5232
G1 X175.223 Y151.768 E24.5982
G1 X175.089 Y151.753 E24.6107
G1 X174.913 Y151.713 E24.6274
G1 X174.786 Y151.668 E24.6399
G1 X174.470 Y151.516 E24.6723
G1 X174.361 Y151.447 E24.6842
G1 X174.225 Y151.341 E24.7002
G1 X174.132 Y151.251 E24.7121
G1 X173.543 Y150.538 E24.7976
G1 X173.454 Y150.391 E24.8135
G1 X173.364 Y150.180 E24.8347
G1 X173.319 Y150.014 E24.8506
G1 X173.232 Y149.282 E24.9188
G1 X173.229 Y149.249 E24.9218
G1 X173.226 Y149.206 E24.9258
G1 X173.225 Y149.174 E24.9288
G1 X173.196 Y146.376 E25.1875
G1 X173.138 Y144.764 E25.3366
G1 X173.138 Y144.754 E25.3376
G1 X173.138 Y144.742 E25.3387
G1 X173.138 Y144.732 E25.3396
G1 X173.131 Y142.851 E25.5135
G1 X173.131 Y142.838 E25.5148
G1 X173.132 Y142.821 E25.5163
G1 X173.132 Y142.810 E25.5173
G1 X173.157 Y142.144 E25.5790
G1 X173.131 Y138.567 E25.9097
G1 X173.131 Y138.563 E25.9101
G1 X173.131 Y138.559 E25.9104
G1 X173.152 Y109.401 E28.6063
G1 X163.618 Y109.401 E29.4879
G1 X163.626 Y119.350 E30.4077
G1 X163.626 Y119.352 E30.4079
G1 X163.582 Y142.106 E32.5118
G1 X163.623 Y147.540 E33.0142
G1 X163.623 Y147.545 E33.0146
G1 X163.623 Y147.549 E33.0150
G1 X163.623 Y147.552 E33.0153
G1 X163.615 Y149.254 E33.1727
G1 X163.613 Y149.311 E33.1779
G1 X163.605 Y149.386 E33.1849
G1 X163.597 Y149.442 E33.1901
G1 X163.559 Y149.638 E33.2086
G1 X163.546 Y149.689 E33.2135
G1 X163.527 Y149.756 E33.2199
G1 X163.511 Y149.805 E33.2247
G1 X163.277 Y150.415 E33.2850
G1 X163.229 Y150.511 E33.2949
G1 X163.156 Y150.633 E33.3081
G1 X163.092 Y150.719 E33.3180
G1 X162.598 Y151.279 E33.3870
G1 X162.511 Y151.360 E33.3981
G1 X162.384 Y151.456 E33.4128
G1 X162.282 Y151.519 E33.4239
G1 X161.972 Y151.668 E33.4557
G1 X161.845 Y151.713 E33.4681
G1 X161.669 Y151.753 E33.4848
G1 X161.535 Y151.768 E33.4973
G1 X160.723 Y151.768 E33.5724
G1 X160.589 Y151.753 E33.5849
G1 X160.413 Y151.713 E33.6015
G1 X160.286 Y151.668 E33.6140
G1 X159.976 Y151.519 E33.6458
G1 X159.874 Y151.456 E33.6568
G1 X159.747 Y151.360 E33.6716
G1 X159.660 Y151.279 E33.6826
G1 X159.086 Y150.628 E33.7628
G1 X158.953 Y150.375 E33.7893
G1 X158.887 Y150.118 E33.8138
G1 X158.716 Y149.704 E33.8552
G1 X158.681 Y149.590 E33.8663
G1 X158.651 Y149.433 E33.8811
G1 X158.639 Y149.313 E33.8921
G1 X158.675 Y143.541 E34.4259
G1 X158.636 Y139.244 E34.8232
G1 X153.134 Y139.243 E35.3319
G1 X153.119 Y146.174 E35.9728
G1 X153.119 Y146.178 E35.9731
G1 X153.119 Y146.183 E35.9736
G1 X153.119 Y146.187 E35.9740
G1 X153.074 Y149.233 E36.2557
G1 X153.072 Y149.270 E36.2591
G1 X153.069 Y149.319 E36.2636
G1 X153.065 Y149.356 E36.2670
G1 X153.026 Y149.638 E36.2934
G1 X153.020 Y149.671 E36.2965
G1 X153.011 Y149.716 E36.3007
G1 X153.004 Y149.750 E36.3039
G1 X152.904 Y150.139 E36.3410
G1 X152.876 Y150.221 E36.3491
G1 X152.831 Y150.329 E36.3599
G1 X152.792 Y150.407 E36.3680
G1 X152.676 Y150.600 E36.3888
G1 X152.646 Y150.645 E36.3938
G1 X152.603 Y150.703 E36.4004
G1 X152.569 Y150.745 E36.4055
G1 X152.098 Y151.279 E36.4712
G1 X152.011 Y151.360 E36.4823
G1 X151.884 Y151.456 E36.4970
G1 X151.782 Y151.519 E36.5081
G1 X151.472 Y151.668 E36.5399
G1 X151.345 Y151.713 E36.5523
G1 X151.169 Y151.753 E36.5690
G1 X151.035 Y151.768 E36.5815
G1 X150.223 Y151.768 E36.6566
G1 X150.089 Y151.753 E36.6691
G1 X149.913 Y151.713 E36.6857
G1 X149.786 Y151.668 E36.6982
G1 X149.476 Y151.519 E36.7300
G1 X149.374 Y151.456 E36.7410
G1 X149.247 Y151.360 E36.7558
G1 X149.160 Y151.279 E36.7668
G1 X148.689 Y150.745 E36.8326
G1 X148.655 Y150.703 E36.8376
G1 X148.612 Y150.645 E36.8443
G1 X148.582 Y150.600 E36.8493
G1 X148.457 Y150.391 E36.8718
G1 X148.407 Y150.287 E36.8825
G1 X148.354 Y150.143 E36.8967
G1 X148.325 Y150.031 E36.9073
G1 X148.281 Y149.752 E36.9335
G1 X148.278 Y149.734 E36.9352
G1 X148.275 Y149.711 E36.9373
G1 X148.273 Y149.695 E36.9388
G1 X148.230 Y149.259 E36.9793
G1 X148.227 Y149.232 E36.9818
G1 X148.225 Y149.196 E36.9851
G1 X148.225 Y149.170 E36.9876
G1 X148.196 Y146.376 E37.2459
G1 X148.138 Y144.763 E37.3952
G1 X148.138 Y144.750 E37.3964
G1 X148.138 Y144.735 E37.3977
G1 X148.138 Y144.727 E37.3985
G1 X148.152 Y109.401 E40.6647
G1 X138.618 Y109.401 E41.5462
G1 X138.626 Y119.350 E42.4661
G1 X138.626 Y119.354 E42.4664
G1 X138.582 Y133.693 E43.7922
G1 X138.616 Y149.275 E45.2330
G1 X138.607 Y149.376 E45.2423
G1 X138.585 Y149.508 E45.2547
G1 X138.560 Y149.606 E45.2641
G1 X138.292 Y150.379 E45.3397
G1 X138.243 Y150.485 E45.3505
G1 X138.165 Y150.619 E45.3649
G1 X138.097 Y150.714 E45.3757
G1 X137.598 Y151.279 E45.4453
G1 X137.511 Y151.360 E45.4564
G1 X137.384 Y151.456 E45.4711
G1 X137.282 Y151.519 E45.4821
G1 X136.972 Y151.668 E45.5139
G1 X136.845 Y151.713 E45.5264
G1 X136.669 Y151.753 E45.5431
G1 X136.535 Y151.768 E45.5556
G1 X135.723 Y151.768 E45.6306
G1 X135.589 Y151.753 E45.6431
G1 X135.413 Y151.713 E45.6598
G1 X135.286 Y151.668 E45.6723
G1 X134.976 Y151.519 E45.7041
G1 X134.874 Y151.456 E45.7151
G1 X134.747 Y151.360 E45.7298
G1 X134.660 Y151.279 E45.7409
G1 X134.086 Y150.628 E45.8211
G1 X133.953 Y150.375 E45.8475
G1 X133.887 Y150.118 E45.8721
G1 X133.724 Y149.725 E45.9114
G1 X133.697 Y149.642 E45.9195
G1 X133.669 Y149.530 E45.9302
G1 X133.653 Y149.444 E45.9382
G1 X133.631 Y149.229 E45.9582
G1 X133.628 Y149.196 E45.9613
G1 X133.626 Y149.151 E45.9655
G1 X133.626 Y149.116 E45.9687
G1 X133.700 Y141.421 E46.6802
G1 X133.654 Y139.244 E46.8816
G1 X128.116 Y139.243 E47.3936
G1 X128.119 Y146.171 E48.0342
G1 X128.119 Y146.175 E48.0346
G1 X128.119 Y146.182 E48.0352
G1 X128.119 Y146.186 E48.0356
G1 X128.074 Y149.233 E48.3174
G1 X128.072 Y149.270 E48.3208
G1 X128.069 Y149.319 E48.3253
G1 X128.065 Y149.355 E48.3287
G1 X128.026 Y149.639 E48.3551
G1 X128.020 Y149.672 E48.3583
G1 X128.011 Y149.717 E48.3625
G1 X128.004 Y149.750 E48.3657
G1 X127.904 Y150.139 E48.4027
G1 X127.876 Y150.221 E48.4108
G1 X127.831 Y150.329 E48.4216
G1 X127.792 Y150.407 E48.4297
G1 X127.676 Y150.599 E48.4505
G1 X127.646 Y150.645 E48.4555
G1 X127.603 Y150.703 E48.4622
G1 X127.569 Y150.745 E48.4672
G1 X127.098 Y151.279 E48.5329
G1 X127.011 Y151.360 E48.5440
G1 X126.884 Y151.456 E48.5587
G1 X126.782 Y151.519 E48.5698
G1 X126.472 Y151.668 E48.6016
G1 X126.345 Y151.713 E48.6140
G1 X126.169 Y151.753 E48.6307
G1 X126.035 Y151.768 E48.6432
G1 X125.223 Y151.768 E48.7183
G1 X125.089 Y151.753 E48.7308
G1 X124.913 Y151.713 E48.7474
G1 X124.786 Y151.668 E48.7599
G1 X124.470 Y151.516 E48.7923
G1 X124.361 Y151.447 E48.8043
G1 X124.225 Y151.341 E48.8202
G1 X124.132 Y151.251 E48.8321
G1 X123.543 Y150.538 E48.9176
G1 X123.454 Y150.391 E48.9335
G1 X123.364 Y150.180 E48.9547
G1 X123.319 Y150.014 E48.9706
G1 X123.232 Y149.282 E49.0388
G1 X123.229 Y149.249 E49.0419
G1 X123.226 Y149.206 E49.0459
G1 X123.225 Y149.174 E49.0489
G1 X123.196 Y146.376 E49.3075
