; G-Code generated by Simplify3D(R) Version 4.0.0
; Nov 17, 2018 at 6:05:00 PM
; Settings Summary
;   processName,ABS
;   applyToModels,cdmount-all
;   profileName,ABS (modified)
;   profileVersion,2018-11-14 05:17:17
;   baseProfile,Creality CR-10
;   printMaterial,PETG
;   printQuality,Fast
;   printExtruders,
;   extruderName,Primary Extruder
;   extruderToolheadNumber,0
;   extruderDiameter,0.4
;   extruderAutoWidth,1
;   extruderWidth,0.48
;   extrusionMultiplier,0.99
;   extruderUseRetract,1
;   extruderRetractionDistance,6.5
;   extruderExtraRestartDistance,-0.2
;   extruderRetractionZLift,0
;   extruderRetractionSpeed,3600
;   extruderUseCoasting,1
;   extruderCoastingDistance,0.2
;   extruderUseWipe,0
;   extruderWipeDistance,4
;   primaryExtruder,0
;   layerHeight,0.3
;   topSolidLayers,3
;   bottomSolidLayers,3
;   perimeterOutlines,3
;   printPerimetersInsideOut,1
;   startPointOption,3
;   startPointOriginX,0
;   startPointOriginY,500
;   sequentialIslands,0
;   spiralVaseMode,0
;   firstLayerHeightPercentage,130
;   firstLayerWidthPercentage,120
;   firstLayerUnderspeed,0.6
;   useRaft,0
;   raftExtruder,0
;   raftTopLayers,3
;   raftBaseLayers,2
;   raftOffset,3
;   raftSeparationDistance,0.14
;   raftTopInfill,100
;   aboveRaftSpeedMultiplier,0.3
;   useSkirt,1
;   skirtExtruder,0
;   skirtLayers,1
;   skirtOutlines,3
;   skirtOffset,0.2
;   usePrimePillar,0
;   primePillarExtruder,999
;   primePillarWidth,12
;   primePillarLocation,7
;   primePillarSpeedMultiplier,1
;   useOozeShield,0
;   oozeShieldExtruder,999
;   oozeShieldOffset,2
;   oozeShieldOutlines,1
;   oozeShieldSidewallShape,1
;   oozeShieldSidewallAngle,30
;   oozeShieldSpeedMultiplier,1
;   infillExtruder,0
;   internalInfillPattern,Triangular
;   externalInfillPattern,Rectilinear
;   infillPercentage,20
;   outlineOverlapPercentage,35
;   infillExtrusionWidthPercentage,120
;   minInfillLength,4
;   infillLayerInterval,1
;   internalInfillAngles,0,60,-60
;   overlapInternalInfillAngles,1
;   externalInfillAngles,45,-45
;   generateSupport,1
;   supportExtruder,0
;   supportInfillPercentage,28
;   supportExtraInflation,1
;   supportBaseLayers,0
;   denseSupportExtruder,0
;   denseSupportLayers,0
;   denseSupportInfillPercentage,60
;   supportLayerInterval,1
;   supportHorizontalPartOffset,0.3
;   supportUpperSeparationLayers,2
;   supportLowerSeparationLayers,1
;   supportType,0
;   supportGridSpacing,3.5
;   maxOverhangAngle,45
;   supportAngles,0
;   temperatureName,Heated Bed,Primary Extruder
;   temperatureNumber,0,0
;   temperatureSetpointCount,1,1
;   temperatureSetpointLayers,1,1
;   temperatureSetpointTemperatures,85,230
;   temperatureStabilizeAtStartup,1,1
;   temperatureHeatedBed,1,0
;   temperatureRelayBetweenLayers,0,0
;   temperatureRelayBetweenLoops,0,0
;   fanLayers,1,2,3
;   fanSpeeds,0,0,0
;   blipFanToFullPower,0
;   adjustSpeedForCooling,1
;   minSpeedLayerTime,20
;   minCoolingSpeedSlowdown,30
;   increaseFanForCooling,0
;   minFanLayerTime,30
;   maxCoolingFanSpeed,50
;   increaseFanForBridging,0
;   bridgingFanSpeed,100
;   use5D,1
;   relativeEdistances,0
;   allowEaxisZeroing,1
;   independentExtruderAxes,0
;   includeM10123,0
;   stickySupport,1
;   applyToolheadOffsets,0
;   gcodeXoffset,0
;   gcodeYoffset,0
;   gcodeZoffset,0
;   overrideMachineDefinition,1
;   machineTypeOverride,0
;   strokeXoverride,230
;   strokeYoverride,230
;   strokeZoverride,255
;   originOffsetXoverride,0
;   originOffsetYoverride,0
;   originOffsetZoverride,0
;   homeXdirOverride,-1
;   homeYdirOverride,-1
;   homeZdirOverride,-1
;   flipXoverride,1
;   flipYoverride,-1
;   flipZoverride,1
;   toolheadOffsets,0,0|0,0|0,0|0,0|0,0|0,0
;   overrideFirmwareConfiguration,1
;   firmwareTypeOverride,RepRap (Marlin/Repetier/Sprinter)
;   GPXconfigOverride,r2
;   baudRateOverride,115200
;   overridePrinterModels,1
;   printerModelsOverride
;   startingGcode,G28 ; home all axes,M117 Purging Extruder...,M204 P500 T1000,M205 X10 Y10 ; set jerk x/y=10,G1 Z1.0 F3000 ; lift Z,G1 X0.2 Y25 Z0.2 F3000.0 ; move to start-line position,G92 E0 ; reset extruder,G1 X0.2 Y150.0 F1000.0 E15 ; draw 1st line,G1 X0.7 Y150.0 F3000.0 ; move to side 0.5mm,G1 X0.7 Y50 F1000.0 E30 ; draw 2nd line,G1 X0.7 Y25 F5000.0 ; quick wipe,M117 Printing!,,; Default S3D CR-10 Startup,; G28 ; home all axes,; G1 Z5 F3000 ; lift,; G1 X20 Y2 F1500 ; avoid binder clips,; G1 Z0.2 F3000 ; get ready to prime,; G92 E0 ; reset extrusion distance,; G1 X120 E10 F600 ; prime nozzle,; G1 X150 F5000 ; quick wipe,
;   layerChangeGcode,
;   retractionGcode,
;   toolChangeGcode,
;   endingGcode,M117 Print Complete!,M104 S0 ; turn off extruder,M140 S0 ; turn off bed,G1 X0 Y295 F1000 ; move finished print out front,M84 ; disable motors,M106 S0 ; turn off cooling fan,,; play song,M300 S294 P200 ;D4: 294,M300 S588 P200 ;D5: 588,M300 S440 P200 ;A4: 440,M300 S392 P200 ;G4: 392,M300 S784 P200 ;G5: 784,M300 S440 P200 ;A4: 440,M300 S740 P200 ;F#5: 740,M300 S440 P200 ;A4: 440,,; Default S3D CR-10 Ending Script,; G28 X0 ; home x axis,; M106 S0 ; turn off cooling fan,; M104 S0 ; turn off extruder,; M140 S0 ; turn off bed,; M84 ; disable motors,
;   exportFileFormat,gcode
;   celebration,0
;   celebrationSong,Star Wars
;   postProcessing,,
;   defaultSpeed,2800
;   outlineUnderspeed,0.8
;   solidInfillUnderspeed,0.9
;   supportUnderspeed,1
;   rapidXYspeed,9000
;   rapidZspeed,1002
;   minBridgingArea,50
;   bridgingExtraInflation,0
;   bridgingExtrusionMultiplier,0.9
;   bridgingSpeedMultiplier,1
;   useFixedBridgingAngle,0
;   fixedBridgingAngle,0
;   applyBridgingToPerimeters,0
;   filamentDiameters,1.75|1.75|1.75|1.75|1.75|1.75
;   filamentPricesPerKg,46|46|46|46|46|46
;   filamentDensities,1.25|1.25|1.25|1.25|1.25|1.25
;   useMinPrintHeight,0
;   minPrintHeight,0
;   useMaxPrintHeight,0
;   maxPrintHeight,0
;   useDiaphragm,0
;   diaphragmLayerInterval,20
;   robustSlicing,1
;   mergeAllIntoSolid,0
;   onlyRetractWhenCrossingOutline,0
;   retractBetweenLayers,1
;   useRetractionMinTravel,1
;   retractionMinTravel,3
;   retractWhileWiping,1
;   onlyWipeOutlines,1
;   avoidCrossingOutline,1
;   maxMovementDetourFactor,3
;   toolChangeRetractionDistance,12
;   toolChangeExtraRestartDistance,-0.5
;   toolChangeRetractionSpeed,600
;   externalThinWallType,0
;   internalThinWallType,2
;   thinWallAllowedOverlapPercentage,15
;   singleExtrusionMinLength,1
;   singleExtrusionMinPrintingWidthPercentage,50
;   singleExtrusionMaxPrintingWidthPercentage,200
;   singleExtrusionEndpointExtension,0.2
;   horizontalSizeCompensation,0
G90
M82
M106 S0
M140 S85
M190 S85
M104 S230 T0
M109 S230 T0
G28 ; home all axes
M117 Purging Extruder...
M204 P500 T1000
M205 X10 Y10 ; set jerk x/y=10
G1 Z1.0 F3000 ; lift Z
G1 X0.2 Y25 Z0.2 F3000.0 ; move to start-line position
G92 E0 ; reset extruder
G1 X0.2 Y150.0 F1000.0 E15 ; draw 1st line
G1 X0.7 Y150.0 F3000.0 ; move to side 0.5mm
G1 X0.7 Y50 F1000.0 E30 ; draw 2nd line
G1 X0.7 Y25 F5000.0 ; quick wipe
M117 Printing!
; Default S3D CR-10 Startup
; G28 ; home all axes
; G1 Z5 F3000 ; lift
; G1 X20 Y2 F1500 ; avoid binder clips
; G1 Z0.2 F3000 ; get ready to prime
; G92 E0 ; reset extrusion distance
; G1 X120 E10 F600 ; prime nozzle
; G1 X150 F5000 ; quick wipe
G92 E0
G1 E-6.5000 F3600
G1 Z0.390 F1002
; process ABS
; layer 1, Z = 0.390
T0
; tool H0.390 W0.576
; skirt
G1 X48.930 Y73.737 F9000
G1 E-0.2000 F1080
G92 E0
G1 X48.943 Y73.729 E0.0015 F1680
G1 X48.961 Y73.717 E0.0034
G1 X48.974 Y73.709 E0.0048
G1 X50.778 Y72.604 E0.2005
G1 X50.792 Y72.595 E0.2020
G1 X50.811 Y72.585 E0.2039
G1 X50.823 Y72.577 E0.2053
G1 X52.682 Y71.568 E0.4008
G1 X52.696 Y71.561 E0.4023
G1 X52.715 Y71.551 E0.4043
G1 X52.728 Y71.545 E0.4057
G1 X54.637 Y70.634 E0.6012
G1 X54.650 Y70.628 E0.6025
G1 X54.669 Y70.620 E0.6044
G1 X54.685 Y70.613 E0.6060
G1 X56.640 Y69.803 E0.8017
G1 X56.656 Y69.797 E0.8033
G1 X56.676 Y69.789 E0.8053
G1 X56.689 Y69.784 E0.8065
G1 X58.682 Y69.079 E1.0020
G1 X58.696 Y69.074 E1.0034
G1 X58.716 Y69.067 E1.0054
G1 X58.732 Y69.062 E1.0069
G1 X60.759 Y68.462 E1.2024
G1 X60.774 Y68.458 E1.2038
G1 X60.794 Y68.452 E1.2057
G1 X60.810 Y68.448 E1.2072
G1 X62.867 Y67.954 E1.4028
G1 X62.882 Y67.951 E1.4043
G1 X62.902 Y67.947 E1.4062
G1 X62.918 Y67.943 E1.4077
G1 X64.998 Y67.558 E1.6032
G1 X65.013 Y67.555 E1.6047
G1 X65.034 Y67.552 E1.6066
G1 X65.049 Y67.550 E1.6081
G1 X67.146 Y67.274 E1.8036
G1 X67.160 Y67.272 E1.8049
G1 X67.181 Y67.270 E1.8068
G1 X67.198 Y67.268 E1.8084
G1 X69.307 Y67.102 E2.0041
G1 X69.324 Y67.101 E2.0056
G1 X69.345 Y67.100 E2.0075
G1 X69.360 Y67.100 E2.0089
G1 X71.469 Y67.044 E2.2040
G1 X71.478 Y67.044 E2.2048
G1 X71.488 Y67.044 E2.2058
G1 X71.495 Y67.044 E2.2064
G1 X158.505 Y67.044 E10.2514
G1 X158.512 Y67.044 E10.2520
G1 X158.522 Y67.044 E10.2530
G1 X158.531 Y67.044 E10.2538
G1 X160.640 Y67.100 E10.4489
G1 X160.656 Y67.100 E10.4503
G1 X160.676 Y67.101 E10.4522
G1 X160.693 Y67.102 E10.4537
G1 X162.802 Y67.268 E10.6494
G1 X162.819 Y67.270 E10.6510
G1 X162.840 Y67.272 E10.6529
G1 X162.854 Y67.274 E10.6542
G1 X164.951 Y67.550 E10.8497
G1 X164.966 Y67.552 E10.8512
G1 X164.987 Y67.555 E10.8531
G1 X165.002 Y67.558 E10.8546
G1 X167.082 Y67.943 E11.0501
G1 X167.098 Y67.947 E11.0516
G1 X167.118 Y67.951 E11.0535
G1 X167.133 Y67.954 E11.0550
G1 X169.190 Y68.448 E11.2506
G1 X169.206 Y68.452 E11.2520
G1 X169.226 Y68.458 E11.2540
G1 X169.241 Y68.462 E11.2554
G1 X171.268 Y69.062 E11.4509
G1 X171.284 Y69.067 E11.4524
G1 X171.304 Y69.074 E11.4544
G1 X171.318 Y69.079 E11.4558
G1 X173.311 Y69.784 E11.6513
G1 X173.324 Y69.789 E11.6525
G1 X173.344 Y69.797 E11.6545
G1 X173.360 Y69.803 E11.6561
G1 X175.315 Y70.613 E11.8518
G1 X175.331 Y70.620 E11.8534
G1 X175.350 Y70.628 E11.8553
G1 X175.363 Y70.634 E11.8566
G1 X177.272 Y71.545 E12.0521
G1 X177.285 Y71.551 E12.0535
G1 X177.304 Y71.561 E12.0555
G1 X177.318 Y71.568 E12.0570
G1 X179.177 Y72.577 E12.2525
G1 X179.189 Y72.585 E12.2539
G1 X179.208 Y72.595 E12.2558
G1 X179.222 Y72.604 E12.2573
G1 X181.026 Y73.709 E12.4530
G1 X181.039 Y73.717 E12.4544
G1 X181.057 Y73.729 E12.4563
G1 X181.070 Y73.737 E12.4578
G1 X182.813 Y74.936 E12.6534
G1 X182.827 Y74.945 E12.6549
G1 X182.844 Y74.957 E12.6568
G1 X182.856 Y74.966 E12.6582
G1 X184.534 Y76.254 E12.8538
G1 X184.547 Y76.265 E12.8554
G1 X184.563 Y76.278 E12.8573
G1 X184.575 Y76.287 E12.8587
G1 X186.182 Y77.660 E13.0542
G1 X186.194 Y77.671 E13.0556
G1 X186.210 Y77.685 E13.0575
G1 X186.221 Y77.695 E13.0590
G1 X187.756 Y79.151 E13.2546
G1 X187.767 Y79.162 E13.2560
G1 X187.782 Y79.177 E13.2580
G1 X187.793 Y79.188 E13.2594
G1 X189.249 Y80.723 E13.4550
G1 X189.259 Y80.734 E13.4565
G1 X189.273 Y80.750 E13.4584
G1 X189.284 Y80.762 E13.4598
G1 X190.657 Y82.370 E13.6554
G1 X190.668 Y82.382 E13.6569
G1 X190.681 Y82.399 E13.6588
G1 X190.690 Y82.411 E13.6602
G1 X191.978 Y84.088 E13.8558
G1 X191.987 Y84.100 E13.8572
G1 X191.999 Y84.117 E13.8591
G1 X192.008 Y84.131 E13.8606
G1 X193.207 Y85.874 E14.0562
G1 X193.215 Y85.887 E14.0577
G1 X193.227 Y85.905 E14.0596
G1 X193.235 Y85.918 E14.0610
G1 X194.340 Y87.722 E14.2567
G1 X194.349 Y87.736 E14.2582
G1 X194.360 Y87.755 E14.2601
G1 X194.367 Y87.767 E14.2615
G1 X195.376 Y89.626 E14.4570
G1 X195.383 Y89.639 E14.4585
G1 X195.392 Y89.658 E14.4604
G1 X195.399 Y89.672 E14.4618
G1 X196.310 Y91.581 E14.6574
G1 X196.316 Y91.595 E14.6588
G1 X196.325 Y91.614 E14.6608
G1 X196.331 Y91.629 E14.6622
G1 X197.141 Y93.584 E14.8579
G1 X197.147 Y93.599 E14.8594
G1 X197.154 Y93.618 E14.8613
G1 X197.160 Y93.632 E14.8627
G1 X197.865 Y95.626 E15.0582
G1 X197.870 Y95.640 E15.0596
G1 X197.877 Y95.660 E15.0616
G1 X197.882 Y95.676 E15.0631
G1 X198.482 Y97.704 E15.2586
G1 X198.487 Y97.719 E15.2601
G1 X198.492 Y97.740 E15.2621
G1 X198.496 Y97.754 E15.2635
G1 X198.990 Y99.811 E15.4591
G1 X198.993 Y99.828 E15.4606
G1 X198.998 Y99.848 E15.4625
G1 X199.001 Y99.863 E15.4639
G1 X199.386 Y101.942 E15.6594
G1 X199.389 Y101.957 E15.6609
G1 X199.392 Y101.978 E15.6628
G1 X199.394 Y101.993 E15.6643
G1 X199.670 Y104.090 E15.8598
G1 X199.672 Y104.106 E15.8613
G1 X199.674 Y104.127 E15.8632
G1 X199.676 Y104.142 E15.8647
G1 X199.842 Y106.251 E16.0603
G1 X199.843 Y106.268 E16.0618
G1 X199.844 Y106.288 E16.0637
G1 X199.844 Y106.304 E16.0651
G1 X199.900 Y108.413 E16.2602
G1 X199.900 Y108.422 E16.2610
G1 X199.900 Y108.432 E16.2620
G1 X199.900 Y108.439 E16.2626
G1 X199.900 Y144.470 E19.5941
G1 X199.899 Y144.510 E19.5977
G1 X199.895 Y144.562 E19.6026
G1 X199.891 Y144.601 E19.6062
G1 X199.745 Y145.714 E19.7100
G1 X199.730 Y145.791 E19.7173
G1 X199.702 Y145.892 E19.7269
G1 X199.677 Y145.967 E19.7342
G1 X199.237 Y147.028 E19.8404
G1 X199.203 Y147.099 E19.8477
G1 X199.150 Y147.189 E19.8574
G1 X199.107 Y147.255 E19.8647
G1 X198.407 Y148.166 E19.9709
G1 X198.355 Y148.225 E19.9782
G1 X198.281 Y148.299 E19.9878
G1 X198.222 Y148.351 E19.9951
G1 X197.311 Y149.051 E20.1013
G1 X197.245 Y149.094 E20.1086
G1 X197.155 Y149.147 E20.1183
G1 X197.084 Y149.181 E20.1256
G1 X196.023 Y149.621 E20.2318
G1 X195.948 Y149.646 E20.2390
G1 X195.847 Y149.674 E20.2487
G1 X195.770 Y149.689 E20.2560
G1 X194.657 Y149.835 E20.3598
G1 X194.618 Y149.839 E20.3634
G1 X194.566 Y149.843 E20.3683
G1 X194.526 Y149.844 E20.3719
G1 X183.178 Y149.844 E21.4212
G1 X182.737 Y149.661 E21.4653
G1 X182.283 Y149.206 E21.5248
G1 X182.100 Y148.765 E21.5689
G1 X182.100 Y128.469 E23.4455
G1 X182.052 Y127.117 E23.5706
G1 X181.910 Y125.797 E23.6933
G1 X181.674 Y124.491 E23.8161
G1 X181.346 Y123.204 E23.9389
G1 X180.926 Y121.944 E24.0616
G1 X180.418 Y120.718 E24.1844
G1 X179.824 Y119.530 E24.3072
G1 X179.147 Y118.389 E24.4299
G1 X178.389 Y117.298 E24.5527
G1 X177.556 Y116.264 E24.6754
G1 X176.652 Y115.293 E24.7982
G1 X175.680 Y114.388 E24.9209
G1 X174.646 Y113.555 E25.0437
G1 X173.555 Y112.797 E25.1665
G1 X172.414 Y112.120 E25.2892
G1 X171.226 Y111.526 E25.4120
G1 X170.000 Y111.018 E25.5347
G1 X168.740 Y110.598 E25.6575
G1 X167.453 Y110.270 E25.7803
G1 X166.147 Y110.034 E25.9030
G1 X164.827 Y109.892 E26.0258
G1 X163.475 Y109.844 E26.1508
G1 X66.525 Y109.844 E35.1149
G1 X65.173 Y109.892 E35.2400
G1 X63.853 Y110.034 E35.3627
G1 X62.547 Y110.270 E35.4855
G1 X61.260 Y110.598 E35.6083
G1 X60.000 Y111.018 E35.7310
G1 X58.774 Y111.526 E35.8538
G1 X57.586 Y112.120 E35.9765
G1 X56.445 Y112.797 E36.0993
G1 X55.354 Y113.555 E36.2220
G1 X54.320 Y114.388 E36.3448
G1 X53.348 Y115.292 E36.4675
G1 X52.444 Y116.264 E36.5903
G1 X51.611 Y117.298 E36.7131
G1 X50.853 Y118.389 E36.8358
G1 X50.176 Y119.530 E36.9586
G1 X49.582 Y120.717 E37.0813
G1 X49.073 Y121.944 E37.2041
G1 X48.654 Y123.204 E37.3269
G1 X48.326 Y124.491 E37.4496
G1 X48.090 Y125.797 E37.5724
G1 X47.948 Y127.117 E37.6951
G1 X47.900 Y128.469 E37.8202
G1 X47.900 Y148.765 E39.6968
G1 X47.717 Y149.206 E39.7410
G1 X47.263 Y149.661 E39.8004
G1 X46.822 Y149.844 E39.8446
G1 X35.474 Y149.844 E40.8938
G1 X35.434 Y149.843 E40.8975
G1 X35.382 Y149.839 E40.9023
G1 X35.343 Y149.835 E40.9059
G1 X34.230 Y149.689 E41.0097
G1 X34.153 Y149.674 E41.0170
G1 X34.052 Y149.646 E41.0267
G1 X33.977 Y149.621 E41.0339
G1 X32.916 Y149.181 E41.1402
G1 X32.845 Y149.147 E41.1474
G1 X32.755 Y149.094 E41.1571
G1 X32.689 Y149.051 E41.1644
G1 X31.778 Y148.351 E41.2706
G1 X31.718 Y148.299 E41.2779
G1 X31.644 Y148.225 E41.2876
G1 X31.593 Y148.166 E41.2948
G1 X30.893 Y147.255 E41.4011
G1 X30.850 Y147.189 E41.4083
G1 X30.797 Y147.099 E41.4180
G1 X30.762 Y147.028 E41.4253
G1 X30.323 Y145.967 E41.5315
G1 X30.298 Y145.892 E41.5388
G1 X30.270 Y145.791 E41.5485
G1 X30.255 Y145.714 E41.5557
G1 X30.109 Y144.601 E41.6596
G1 X30.105 Y144.562 E41.6632
G1 X30.101 Y144.510 E41.6680
G1 X30.100 Y144.470 E41.6717
G1 X30.100 Y108.439 E45.0031
G1 X30.100 Y108.432 E45.0037
G1 X30.100 Y108.422 E45.0047
G1 X30.100 Y108.413 E45.0055
G1 X30.156 Y106.304 E45.2006
G1 X30.156 Y106.288 E45.2020
G1 X30.157 Y106.268 E45.2040
G1 X30.158 Y106.251 E45.2055
G1 X30.324 Y104.142 E45.4011
G1 X30.326 Y104.127 E45.4025
G1 X30.328 Y104.106 E45.4045
G1 X30.330 Y104.090 E45.4059
G1 X30.606 Y101.993 E45.6015
G1 X30.608 Y101.978 E45.6029
G1 X30.611 Y101.957 E45.6049
G1 X30.614 Y101.942 E45.6063
