;FLAVOR:Marlin
;TIME:1427
;Filament used: 0.535697m
;Layer height: 0.2
;Generated with Cura_SteamEngine 3.5.0
M82 ;absolute extrusion mode
; Ender 3 Custom Start G-code
M104 S210 ; Set Extruder temperature
M140 S60 ; Set Heat Bed temperature
M190 S60 ; Wait for Heat Bed temperature
M109 S210 ; Wait for Extruder temperature
G28 ; Home all axes
G92 E0 ; Reset Extruder
G1 Z5.0 F3000 ; Move Z Axis up little to prevent scratching of Heat Bed
G1 X0.1 Y20 Z0.3 F5000.0 ; Move to start position
G1 X0.1 Y200.0 Z0.3 F1500.0 E15 ; Draw the first line
G1 X0.4 Y200.0 Z0.3 F5000.0 ; Move to side a little
G1 X0.4 Y20 Z0.3 F1500.0 E30 ; Draw the second line
G92 E0 ; Reset Extruder
G1 Z5.0 F3000 ; Move Z Axis up little to prevent scratching of Heat Bed
G92 E0
G1 F2400 E-5
;LAYER_COUNT:101
;LAYER:0
M107
M204 S5000
M205 X30 Y30
G0 F3600 X94.623 Y94.349 Z0.2
M204 S500
M205 X20 Y20
;TYPE:SKIRT
G1 F2400 E0
G1 F1800 X95.222 Y93.834 E0.0104
G1 X95.87 Y93.383 E0.0208
G1 X96.561 Y92.999 E0.03121
G1 X97.286 Y92.687 E0.0416
G1 X98.039 Y92.45 E0.05199
G1 X98.813 Y92.291 E0.0624
G1 X99.598 Y92.21 E0.07279
G1 X100 Y92.2 E0.07808
G1 X120 Y92.2 E0.34143
G1 X120.789 Y92.24 E0.35183
G1 X121.569 Y92.359 E0.36222
G1 X122.334 Y92.557 E0.37263
G1 X123.074 Y92.831 E0.38302
G1 X123.783 Y93.179 E0.39342
G1 X124.454 Y93.597 E0.40383
G1 X125.078 Y94.08 E0.41422
G1 X125.651 Y94.623 E0.42461
G1 X126.166 Y95.222 E0.43501
G1 X126.617 Y95.87 E0.44541
G1 X127.001 Y96.561 E0.45582
G1 X127.313 Y97.286 E0.46621
G1 X127.55 Y98.039 E0.47661
G1 X127.709 Y98.813 E0.48701
G1 X127.79 Y99.598 E0.4974
G1 X127.8 Y100 E0.5027
G1 X127.8 Y120 E0.76605
G1 X127.76 Y120.789 E0.77645
G1 X127.641 Y121.569 E0.78684
G1 X127.443 Y122.334 E0.79724
G1 X127.169 Y123.074 E0.80763
G1 X126.821 Y123.783 E0.81803
G1 X126.403 Y124.454 E0.82844
G1 X125.92 Y125.078 E0.83883
G1 X125.377 Y125.651 E0.84923
G1 X124.778 Y126.166 E0.85963
G1 X124.13 Y126.617 E0.87002
G1 X123.439 Y127.001 E0.88043
G1 X122.714 Y127.313 E0.89083
G1 X121.961 Y127.55 E0.90122
G1 X121.187 Y127.709 E0.91162
G1 X120.402 Y127.79 E0.92202
G1 X120 Y127.8 E0.92731
G1 X100 Y127.8 E1.19066
G1 X99.211 Y127.76 E1.20106
G1 X98.431 Y127.641 E1.21145
G1 X97.666 Y127.443 E1.22186
G1 X96.926 Y127.169 E1.23225
G1 X96.217 Y126.821 E1.24265
G1 X95.546 Y126.403 E1.25305
G1 X94.922 Y125.92 E1.26345
G1 X94.349 Y125.377 E1.27384
G1 X93.834 Y124.778 E1.28424
G1 X93.383 Y124.13 E1.29464
G1 X92.999 Y123.439 E1.30505
G1 X92.687 Y122.714 E1.31544
G1 X92.45 Y121.961 E1.32583
G1 X92.291 Y121.187 E1.33624
G1 X92.21 Y120.402 E1.34663
G1 X92.2 Y120 E1.35192
G1 X92.2 Y100 E1.61527
G1 X92.24 Y99.211 E1.62567
G1 X92.359 Y98.431 E1.63606
G1 X92.557 Y97.666 E1.64647
G1 X92.831 Y96.926 E1.65686
G1 X93.179 Y96.217 E1.66726
G1 X93.597 Y95.546 E1.67767
G1 X94.08 Y94.922 E1.68806
G1 X94.623 Y94.349 E1.69845
M204 S5000
M205 X30 Y30
G0 F3600 X95.016 Y94.53
M204 S500
M205 X20 Y20
G1 F1800 X95.611 Y94.042 E1.70859
G1 X96.253 Y93.619 E1.71871
G1 X96.936 Y93.264 E1.72884
G1 X97.651 Y92.983 E1.73896
G1 X98.393 Y92.777 E1.7491
G1 X99.151 Y92.649 E1.75922
G1 X100 Y92.6 E1.77042
G1 X120 Y92.6 E2.03377
G1 X120.768 Y92.64 E2.04389
G1 X121.528 Y92.759 E2.05402
G1 X122.271 Y92.957 E2.06415
G1 X122.99 Y93.231 E2.07428
G1 X123.676 Y93.578 E2.0844
G1 X124.323 Y93.994 E2.09453
G1 X124.923 Y94.475 E2.10466
G1 X125.47 Y95.016 E2.11479
G1 X125.958 Y95.611 E2.12492
G1 X126.381 Y96.253 E2.13504
G1 X126.736 Y96.936 E2.14518
G1 X127.017 Y97.651 E2.15529
G1 X127.223 Y98.393 E2.16543
G1 X127.351 Y99.151 E2.17556
G1 X127.4 Y100 E2.18675
G1 X127.4 Y120 E2.4501
G1 X127.36 Y120.768 E2.46023
G1 X127.241 Y121.528 E2.47036
G1 X127.043 Y122.271 E2.48048
G1 X126.769 Y122.99 E2.49061
G1 X126.422 Y123.676 E2.50074
G1 X126.006 Y124.323 E2.51086
G1 X125.525 Y124.923 E2.52099
G1 X124.984 Y125.47 E2.53112
G1 X124.389 Y125.958 E2.54125
G1 X123.747 Y126.381 E2.55138
G1 X123.064 Y126.736 E2.56151
G1 X122.349 Y127.017 E2.57163
G1 X121.607 Y127.223 E2.58177
G1 X120.849 Y127.351 E2.59189
G1 X120 Y127.4 E2.60309
G1 X100 Y127.4 E2.86643
G1 X99.232 Y127.36 E2.87656
G1 X98.472 Y127.241 E2.88669
G1 X97.729 Y127.043 E2.89681
G1 X97.01 Y126.769 E2.90695
G1 X96.324 Y126.422 E2.91707
G1 X95.677 Y126.006 E2.9272
G1 X95.077 Y125.525 E2.93732
G1 X94.53 Y124.984 E2.94745
G1 X94.042 Y124.389 E2.95759
G1 X93.619 Y123.747 E2.96771
G1 X93.264 Y123.064 E2.97784
G1 X92.983 Y122.349 E2.98796
G1 X92.777 Y121.607 E2.9981
G1 X92.649 Y120.849 E3.00822
G1 X92.6 Y120 E3.01942
G1 X92.6 Y100 E3.28277
G1 X92.64 Y99.232 E3.29289
G1 X92.759 Y98.472 E3.30302
G1 X92.957 Y97.729 E3.31315
G1 X93.231 Y97.01 E3.32328
G1 X93.578 Y96.324 E3.3334
G1 X93.994 Y95.677 E3.34353
G1 X94.475 Y95.077 E3.35366
G1 X95.016 Y94.53 E3.36379
M204 S5000
M205 X30 Y30
G0 F3600 X95.408 Y94.716
M204 S500
M205 X20 Y20
G1 F1800 X95.998 Y94.257 E3.37363
G1 X96.634 Y93.862 E3.38349
G1 X97.308 Y93.538 E3.39333
G1 X98.013 Y93.288 E3.40318
G1 X98.741 Y93.114 E3.41304
G1 X99.483 Y93.019 E3.42289
G1 X100 Y93 E3.4297
G1 X120 Y93 E3.69305
G1 X120.747 Y93.04 E3.7029
G1 X121.485 Y93.159 E3.71274
G1 X122.207 Y93.357 E3.7226
G1 X122.903 Y93.63 E3.73245
G1 X123.566 Y93.977 E3.7423
G1 X124.189 Y94.392 E3.75216
G1 X124.763 Y94.871 E3.762
G1 X125.284 Y95.408 E3.77185
G1 X125.743 Y95.998 E3.78169
G1 X126.138 Y96.634 E3.79155
G1 X126.462 Y97.308 E3.8014
G1 X126.712 Y98.013 E3.81125
G1 X126.886 Y98.741 E3.8211
G1 X126.981 Y99.483 E3.83095
G1 X127 Y100 E3.83777
G1 X127 Y120 E4.10111
G1 X126.96 Y120.747 E4.11096
G1 X126.841 Y121.485 E4.12081
G1 X126.643 Y122.207 E4.13067
G1 X126.37 Y122.903 E4.14051
G1 X126.023 Y123.566 E4.15036
G1 X125.608 Y124.189 E4.16022
G1 X125.129 Y124.763 E4.17006
G1 X124.592 Y125.284 E4.17992
G1 X124.002 Y125.743 E4.18976
G1 X123.366 Y126.138 E4.19962
G1 X122.692 Y126.462 E4.20946
G1 X121.987 Y126.712 E4.21931
G1 X121.259 Y126.886 E4.22917
G1 X120.517 Y126.981 E4.23902
G1 X120 Y127 E4.24583
G1 X100 Y127 E4.50918
G1 X99.253 Y126.96 E4.51903
G1 X98.515 Y126.841 E4.52887
G1 X97.793 Y126.643 E4.53873
G1 X97.097 Y126.37 E4.54857
G1 X96.434 Y126.023 E4.55843
G1 X95.811 Y125.608 E4.56828
G1 X95.237 Y125.129 E4.57813
G1 X94.716 Y124.592 E4.58798
G1 X94.257 Y124.002 E4.59782
G1 X93.862 Y123.366 E4.60768
G1 X93.538 Y122.692 E4.61753
G1 X93.288 Y121.987 E4.62738
G1 X93.114 Y121.259 E4.63723
G1 X93.019 Y120.517 E4.64708
G1 X93 Y120 E4.6539
G1 X93 Y100 E4.91724
G1 X93.04 Y99.253 E4.92709
G1 X93.159 Y98.515 E4.93694
G1 X93.357 Y97.793 E4.94679
G1 X93.63 Y97.097 E4.95664
G1 X93.977 Y96.434 E4.96649
G1 X94.392 Y95.811 E4.97635
G1 X94.871 Y95.237 E4.98619
G1 X95.408 Y94.716 E4.99604
M204 S5000
M205 X30 Y30
G0 F3600 X95.265 Y95.402
M204 S500
M205 X20 Y20
G1 F1800 X95.799 Y94.909 E5.00561
G1 X96.384 Y94.479 E5.01517
G1 X97.013 Y94.115 E5.02474
G1 X97.678 Y93.822 E5.03431
G1 X98.371 Y93.604 E5.04388
G1 X99.083 Y93.464 E5.05343
G1 X100 Y93.4 E5.06554
G1 X120 Y93.4 E5.32888
G1 X120.725 Y93.44 E5.33844
G1 X121.442 Y93.559 E5.34802
G1 X122.141 Y93.757 E5.35758
G1 X122.814 Y94.03 E5.36714
G1 X123.453 Y94.375 E5.37671
G1 X124.05 Y94.789 E5.38627
G1 X124.598 Y95.265 E5.39583
G1 X125.091 Y95.799 E5.4054
G1 X125.521 Y96.384 E5.41496
G1 X125.885 Y97.013 E5.42453
G1 X126.178 Y97.678 E5.4341
G1 X126.396 Y98.371 E5.44366
G1 X126.536 Y99.083 E5.45322
G1 X126.6 Y100 E5.46532
G1 X126.6 Y120 E5.72867
G1 X126.56 Y120.725 E5.73823
G1 X126.441 Y121.442 E5.7478
G1 X126.243 Y122.141 E5.75737
G1 X125.97 Y122.814 E5.76693
G1 X125.625 Y123.453 E5.77649
G1 X125.211 Y124.05 E5.78606
G1 X124.735 Y124.598 E5.79562
G1 X124.201 Y125.091 E5.80519
G1 X123.616 Y125.521 E5.81475
G1 X122.987 Y125.885 E5.82431
G1 X122.322 Y126.178 E5.83388
G1 X121.629 Y126.396 E5.84345
G1 X120.917 Y126.536 E5.853
G1 X120 Y126.6 E5.86511
G1 X100 Y126.6 E6.12846
G1 X99.275 Y126.56 E6.13802
G1 X98.558 Y126.441 E6.14759
G1 X97.859 Y126.243 E6.15715
G1 X97.186 Y125.97 E6.16672
G1 X96.547 Y125.625 E6.17628
G1 X95.95 Y125.211 E6.18584
G1 X95.402 Y124.735 E6.1954
G1 X94.909 Y124.201 E6.20497
G1 X94.479 Y123.616 E6.21453
G1 X94.115 Y122.987 E6.2241
G1 X93.822 Y122.322 E6.23367
G1 X93.604 Y121.629 E6.24323
G1 X93.464 Y120.917 E6.25279
G1 X93.4 Y120 E6.26489
G1 X93.4 Y100 E6.52824
G1 X93.44 Y99.275 E6.5378
G1 X93.559 Y98.558 E6.54737
G1 X93.757 Y97.859 E6.55694
G1 X94.03 Y97.186 E6.5665
G1 X94.375 Y96.547 E6.57606
G1 X94.789 Y95.95 E6.58563
G1 X95.265 Y95.402 E6.59519
M204 S5000
M205 X30 Y30
G0 F3600 X95.659 Y95.573
M204 S500
M205 X20 Y20
G1 F1800 X96.189 Y95.109 E6.60446
G1 X96.768 Y94.709 E6.61373
G1 X97.389 Y94.377 E6.623
G1 X98.043 Y94.117 E6.63227
G1 X98.723 Y93.933 E6.64154
G1 X99.419 Y93.827 E6.65081
G1 X100 Y93.8 E6.65847
G1 X120 Y93.8 E6.92182
G1 X120.703 Y93.84 E6.93109
G1 X121.397 Y93.959 E6.94036
G1 X122.072 Y94.157 E6.94963
G1 X122.721 Y94.429 E6.95889
G1 X123.335 Y94.774 E6.96817
G1 X123.906 Y95.185 E6.97743
G1 X124.427 Y95.659 E6.9867
G1 X124.891 Y96.189 E6.99598
G1 X125.291 Y96.768 E7.00525
G1 X125.623 Y97.389 E7.01452
G1 X125.883 Y98.043 E7.02378
G1 X126.067 Y98.723 E7.03306
G1 X126.173 Y99.419 E7.04233
G1 X126.2 Y100 E7.04999
G1 X126.2 Y120 E7.31334
G1 X126.16 Y120.703 E7.32261
G1 X126.041 Y121.397 E7.33188
G1 X125.843 Y122.072 E7.34114
G1 X125.571 Y122.721 E7.35041
G1 X125.226 Y123.335 E7.35968
G1 X124.815 Y123.906 E7.36895
G1 X124.341 Y124.427 E7.37822
G1 X123.811 Y124.891 E7.3875
G1 X123.232 Y125.291 E7.39676
G1 X122.611 Y125.623 E7.40603
G1 X121.957 Y125.883 E7.4153
G1 X121.277 Y126.067 E7.42458
G1 X120.581 Y126.173 E7.43385
G1 X120 Y126.2 E7.44151
G1 X100 Y126.2 E7.70485
G1 X99.297 Y126.16 E7.71412
G1 X98.603 Y126.041 E7.7234
G1 X97.928 Y125.843 E7.73266
G1 X97.279 Y125.571 E7.74192
G1 X96.665 Y125.226 E7.7512
G1 X96.094 Y124.815 E7.76046
G1 X95.573 Y124.341 E7.76974
G1 X95.109 Y123.811 E7.77901
G1 X94.709 Y123.232 E7.78828
G1 X94.377 Y122.611 E7.79755
G1 X94.117 Y121.957 E7.80682
G1 X93.933 Y121.277 E7.81609
G1 X93.827 Y120.581 E7.82536
G1 X93.8 Y120 E7.83302
G1 X93.8 Y100 E8.09637
G1 X93.84 Y99.297 E8.10564
G1 X93.959 Y98.603 E8.11491
G1 X94.157 Y97.928 E8.12418
G1 X94.429 Y97.279 E8.13344
G1 X94.774 Y96.665 E8.14271
G1 X95.185 Y96.094 E8.15198
G1 X95.659 Y95.573 E8.16125
M204 S5000
M205 X30 Y30
G0 F3600 X96.053 Y95.751
M204 S500
M205 X20 Y20
G1 F1800 X96.578 Y95.317 E8.17022
G1 X97.15 Y94.948 E8.17919
G1 X97.762 Y94.649 E8.18815
G1 X98.404 Y94.424 E8.19711
G1 X99.069 Y94.275 E8.20608
G1 X100 Y94.2 E8.21838
G1 X120 Y94.2 E8.48173
G1 X120.68 Y94.24 E8.4907
G1 X121.35 Y94.359 E8.49966
G1 X122.002 Y94.556 E8.50863
G1 X122.626 Y94.828 E8.51759
G1 X123.214 Y95.172 E8.52656
G1 X123.758 Y95.582 E8.53553
G1 X124.249 Y96.053 E8.54449
G1 X124.683 Y96.578 E8.55346
G1 X125.052 Y97.15 E8.56242
G1 X125.351 Y97.762 E8.57139
G1 X125.576 Y98.404 E8.58035
G1 X125.725 Y99.069 E8.58932
G1 X125.8 Y100 E8.60162
G1 X125.8 Y120 E8.86497
G1 X125.76 Y120.68 E8.87394
G1 X125.641 Y121.35 E8.8829
G1 X125.444 Y122.002 E8.89187
G1 X125.172 Y122.626 E8.90083
G1 X124.828 Y123.214 E8.9098
G1 X124.418 Y123.758 E8.91877
G1 X123.947 Y124.249 E8.92773
G1 X123.422 Y124.683 E8.9367
G1 X122.85 Y125.052 E8.94566
G1 X122.238 Y125.351 E8.95463
G1 X121.596 Y125.576 E8.96359
G1 X120.931 Y125.725 E8.97256
G1 X120 Y125.8 E8.98486
G1 X100 Y125.8 E9.24821
G1 X99.32 Y125.76 E9.25718
G1 X98.65 Y125.641 E9.26614
G1 X97.998 Y125.444 E9.2751
G1 X97.374 Y125.172 E9.28407
G1 X96.786 Y124.828 E9.29304
G1 X96.242 Y124.418 E9.30201
G1 X95.751 Y123.947 E9.31097
G1 X95.317 Y123.422 E9.31994
G1 X94.948 Y122.85 E9.3289
G1 X94.649 Y122.238 E9.33787
G1 X94.424 Y121.596 E9.34683
G1 X94.275 Y120.931 E9.3558
G1 X94.2 Y120 E9.3681
G1 X94.2 Y100 E9.63144
G1 X94.24 Y99.32 E9.64041
G1 X94.359 Y98.65 E9.64937
G1 X94.556 Y97.998 E9.65834
G1 X94.828 Y97.374 E9.66731
G1 X95.172 Y96.786 E9.67628
G1 X95.582 Y96.242 E9.68525
G1 X96.053 Y95.751 E9.6942
M204 S5000
M205 X30 Y30
G0 F3600 X96.445 Y95.935
M204 S500
M205 X20 Y20
G1 F1800 X96.965 Y95.534 E9.70285
G1 X97.529 Y95.198 E9.7115
G1 X98.131 Y94.934 E9.72015
G1 X98.76 Y94.744 E9.7288
G1 X99.407 Y94.633 E9.73745
G1 X100 Y94.6 E9.74527
G1 X120 Y94.6 E10.00861
G1 X120.656 Y94.64 E10.01727
G1 X121.302 Y94.759 E10.02592
G1 X121.929 Y94.956 E10.03457
G1 X122.527 Y95.228 E10.04322
G1 X123.088 Y95.57 E10.05187
G1 X123.603 Y95.978 E10.06052
G1 X124.065 Y96.445 E10.06917
G1 X124.466 Y96.965 E10.07782
G1 X124.802 Y97.529 E10.08647
G1 X125.066 Y98.131 E10.09512
G1 X125.256 Y98.76 E10.10377
G1 X125.367 Y99.407 E10.11242
G1 X125.4 Y100 E10.12024
G1 X125.4 Y120 E10.38358
G1 X125.36 Y120.656 E10.39224
G1 X125.241 Y121.302 E10.40089
G1 X125.044 Y121.929 E10.40954
G1 X124.772 Y122.527 E10.41819
G1 X124.43 Y123.088 E10.42684
G1 X124.022 Y123.603 E10.43549
G1 X123.555 Y124.065 E10.44414
G1 X123.035 Y124.466 E10.45279
G1 X122.471 Y124.802 E10.46144
G1 X121.869 Y125.066 E10.47009
G1 X121.24 Y125.256 E10.47874
G1 X120.593 Y125.367 E10.48739
G1 X120 Y125.4 E10.49521
G1 X100 Y125.4 E10.75855
G1 X99.344 Y125.36 E10.76721
G1 X98.698 Y125.241 E10.77586
G1 X98.071 Y125.044 E10.78451
G1 X97.473 Y124.772 E10.79316
G1 X96.912 Y124.43 E10.80181
G1 X96.397 Y124.022 E10.81046
G1 X95.935 Y123.555 E10.81911
G1 X95.534 Y123.035 E10.82776
G1 X95.198 Y122.471 E10.83641
G1 X94.934 Y121.869 E10.84506
G1 X94.744 Y121.24 E10.85371
G1 X94.633 Y120.593 E10.86236
G1 X94.6 Y120 E10.87018
G1 X94.6 Y100 E11.13352
G1 X94.64 Y99.344 E11.14218
G1 X94.759 Y98.698 E11.15083
G1 X94.956 Y98.071 E11.15948
G1 X95.228 Y97.473 E11.16813
G1 X95.57 Y96.912 E11.17678
G1 X95.978 Y96.397 E11.18543
G1 X96.445 Y95.935 E11.19408
M204 S5000
M205 X30 Y30
G0 F3600 X96.373 Y96.559
M204 S500
M205 X20 Y20
G1 F1800 X96.836 Y96.129 E11.2024
G1 X97.35 Y95.76 E11.21074
G1 X97.906 Y95.46 E11.21906
G1 X98.495 Y95.232 E11.22737
G1 X99.109 Y95.08 E11.2357
G1 X100 Y95 E11.24748
G1 X120 Y95 E11.51083
G1 X120.631 Y95.04 E11.51915
G1 X121.252 Y95.159 E11.52748
G1 X121.852 Y95.356 E11.53579
G1 X122.424 Y95.627 E11.54413
G1 X122.956 Y95.967 E11.55244
G1 X123.441 Y96.373 E11.56077
G1 X123.871 Y96.836 E11.56909
G1 X124.24 Y97.35 E11.57742
G1 X124.54 Y97.906 E11.58574
G1 X124.768 Y98.495 E11.59406
G1 X124.92 Y99.109 E11.60239
G1 X125 Y100 E11.61417
G1 X125 Y120 E11.87751
G1 X124.96 Y120.631 E11.88584
G1 X124.841 Y121.252 E11.89416
G1 X124.644 Y121.852 E11.90248
G1 X124.373 Y122.424 E11.91081
G1 X124.033 Y122.956 E11.91913
G1 X123.627 Y123.441 E11.92746
G1 X123.164 Y123.871 E11.93578
G1 X122.65 Y124.24 E11.94411
G1 X122.094 Y124.54 E11.95243
G1 X121.505 Y124.768 E11.96074
G1 X120.891 Y124.92 E11.96907
G1 X120 Y125 E11.98085
G1 X100 Y125 E12.2442
G1 X99.369 Y124.96 E12.25252
G1 X98.748 Y124.841 E12.26085
G1 X98.148 Y124.644 E12.26916
G1 X97.576 Y124.373 E12.2775
G1 X97.044 Y124.033 E12.28581
G1 X96.559 Y123.627 E12.29414
G1 X96.129 Y123.164 E12.30246
G1 X95.76 Y122.65 E12.31079
G1 X95.46 Y122.094 E12.31911
G1 X95.232 Y121.505 E12.32743
G1 X95.08 Y120.891 E12.33576
G1 X95 Y120 E12.34754
G1 X95 Y100 E12.61088
G1 X95.04 Y99.369 E12.61921
G1 X95.159 Y98.748 E12.62753
G1 X95.356 Y98.148 E12.63585
G1 X95.627 Y97.576 E12.64418
G1 X95.967 Y97.044 E12.6525
G1 X96.373 Y96.559 E12.66083
M204 S5000
M205 X30 Y30
G0 F3600 X96.767 Y96.728
M204 S500
M205 X20 Y20
G1 F1800 X97.225 Y96.331 E12.66881
G1 X97.732 Y95.998 E12.67679
G1 X98.278 Y95.734 E12.68478
G1 X98.854 Y95.545 E12.69276
G1 X99.45 Y95.433 E12.70075
G1 X100 Y95.4 E12.708
G1 X120 Y95.4 E12.97135
G1 X120.605 Y95.44 E12.97933
G1 X121.199 Y95.559 E12.98731
G1 X121.773 Y95.755 E12.9953
G1 X122.316 Y96.026 E13.00329
G1 X122.819 Y96.365 E13.01128
G1 X123.272 Y96.767 E13.01925
G1 X123.669 Y97.225 E13.02723
G1 X124.002 Y97.732 E13.03522
G1 X124.266 Y98.278 E13.0432
G1 X124.455 Y98.854 E13.05119
G1 X124.567 Y99.45 E13.05917
G1 X124.6 Y100 E13.06643
G1 X124.6 Y120 E13.32977
G1 X124.56 Y120.605 E13.33776
G1 X124.441 Y121.199 E13.34573
G1 X124.245 Y121.773 E13.35372
G1 X123.974 Y122.316 E13.36171
G1 X123.635 Y122.819 E13.3697
G1 X123.233 Y123.272 E13.37767
G1 X122.775 Y123.669 E13.38565
G1 X122.268 Y124.002 E13.39364
G1 X121.722 Y124.266 E13.40163
G1 X121.146 Y124.455 E13.40961
G1 X120.55 Y124.567 E13.41759
G1 X120 Y124.6 E13.42485
G1 X100 Y124.6 E13.6882
G1 X99.395 Y124.56 E13.69618
