;FLAVOR:Marlin
;TIME:6111
;Filament used: 2.3132m
;Layer height: 0.2
;Generated with Cura_SteamEngine 3.5.0
M82 ;absolute extrusion mode
; Ender 3 Custom Start G-code
M104 S210 ; Set Extruder temperature
M140 S60 ; Set Heat Bed temperature
M190 S60 ; Wait for Heat Bed temperature
M109 S210 ; Wait for Extruder temperature
G28 ; Home all axes
G92 E0 ; Reset Extruder
G1 Z5.0 F3000 ; Move Z Axis up little to prevent scratching of Heat Bed
G1 X0.1 Y20 Z0.3 F5000.0 ; Move to start position
G1 X0.1 Y200.0 Z0.3 F1500.0 E15 ; Draw the first line
G1 X0.4 Y200.0 Z0.3 F5000.0 ; Move to side a little
G1 X0.4 Y20 Z0.3 F1500.0 E30 ; Draw the second line
G92 E0 ; Reset Extruder
G1 Z5.0 F3000 ; Move Z Axis up little to prevent scratching of Heat Bed
G92 E0
G1 F2400 E-5
;LAYER_COUNT:95
;LAYER:0
M107
M204 S5000
M205 X30 Y30
G0 F3600 X69.097 Y64.45 Z0.2
M204 S500
M205 X20 Y20
;TYPE:SKIRT
G1 F2400 E0
G1 F1800 X69.593 Y63.935 E0.00959
G1 X70.143 Y63.478 E0.01919
G1 X70.741 Y63.085 E0.02879
G1 X71.379 Y62.762 E0.03839
G1 X72.049 Y62.512 E0.04798
G1 X72.505 Y62.389 E0.05432
G1 X78.124 Y61.088 E0.13171
G1 X80.632 Y60.391 E0.16664
G1 X84.768 Y59.125 E0.22468
G1 X85.463 Y58.955 E0.23428
G1 X86.172 Y58.862 E0.24387
G1 X86.679 Y58.845 E0.25068
G1 X89.089 Y58.859 E0.28302
G1 X89.803 Y58.903 E0.29262
G1 X90.671 Y59.067 E0.30447
G1 X93.627 Y59.84 E0.34547
G1 X98.9 Y60.973 E0.41784
G1 X101.377 Y61.394 E0.45155
G1 X106.774 Y62.081 E0.52455
G1 X108.666 Y62.251 E0.55004
G1 X109.373 Y62.354 E0.55963
G1 X110.065 Y62.536 E0.56923
G1 X110.732 Y62.794 E0.57883
G1 X111.366 Y63.125 E0.58842
G1 X111.96 Y63.524 E0.59803
G1 X112.502 Y63.985 E0.60757
G1 X114.035 Y65.441 E0.63594
G1 X118.073 Y68.989 E0.70807
G1 X122.238 Y72.252 E0.77906
G1 X126.575 Y75.271 E0.84997
G1 X131.087 Y78.046 E0.92105
G1 X135.75 Y80.562 E0.99214
G1 X140.54 Y82.808 E1.06313
G1 X145.532 Y84.812 E1.13531
G1 X147.9 Y85.646 E1.169
G1 X153.007 Y87.208 E1.24066
G1 X158.186 Y88.477 E1.31221
G1 X160.794 Y89.001 E1.3479
G1 X163.519 Y89.465 E1.38499
G1 X164.217 Y89.624 E1.3946
G1 X164.683 Y89.778 E1.40118
G1 X168.147 Y91.071 E1.4508
G1 X168.802 Y91.358 E1.46039
G1 X169.421 Y91.717 E1.46999
G1 X169.996 Y92.142 E1.47959
G1 X170.52 Y92.629 E1.48919
G1 X170.987 Y93.171 E1.49879
G1 X171.39 Y93.762 E1.50839
G1 X171.724 Y94.394 E1.51798
G1 X171.986 Y95.06 E1.52758
G1 X172.172 Y95.75 E1.53717
G1 X172.28 Y96.458 E1.54678
G1 X172.308 Y97.172 E1.55637
G1 X172.256 Y97.886 E1.56597
G1 X172.125 Y98.589 E1.57557
G1 X171.917 Y99.273 E1.58516
G1 X171.628 Y99.939 E1.5949
G1 X159.998 Y123.095 E1.9426
G1 X157.801 Y127.974 E2.0144
G1 X155.906 Y132.913 E2.08538
G1 X154.293 Y137.951 E2.15637
G1 X152.946 Y143.153 E2.22847
G1 X152.418 Y145.627 E2.26241
G1 X151.652 Y149.99 E2.32185
G1 X150.897 Y154.902 E2.38854
G1 X150.749 Y155.601 E2.39812
G1 X150.523 Y156.28 E2.40773
G1 X150.224 Y156.93 E2.41733
G1 X149.854 Y157.542 E2.42692
G1 X149.418 Y158.109 E2.43652
G1 X148.921 Y158.623 E2.44611
G1 X148.37 Y159.08 E2.45572
G1 X147.772 Y159.471 E2.46531
G1 X147.133 Y159.794 E2.47491
G1 X146.463 Y160.043 E2.4845
G1 X145.769 Y160.216 E2.4941
G1 X145.06 Y160.31 E2.5037
G1 X144.345 Y160.325 E2.51329
G1 X143.695 Y160.269 E2.52205
G1 X139.997 Y159.758 E2.57214
G1 X139.295 Y159.62 E2.58174
G1 X138.837 Y159.486 E2.58814
G1 X133.454 Y157.68 E2.66433
G1 X128.37 Y156.287 E2.73506
G1 X123.121 Y155.162 E2.80709
G1 X120.628 Y154.741 E2.84102
G1 X115.337 Y154.07 E2.91258
G1 X110.029 Y153.701 E2.98398
G1 X104.761 Y153.633 E3.05467
G1 X99.466 Y153.865 E3.12579
G1 X94.198 Y154.396 E3.19684
G1 X88.911 Y155.231 E3.26866
G1 X86.442 Y155.729 E3.30245
G1 X81.221 Y157.016 E3.37461
G1 X76.175 Y158.568 E3.44545
G1 X71.195 Y160.414 E3.51671
G1 X68.787 Y161.422 E3.55174
G1 X64.203 Y163.564 E3.61963
G1 X63.539 Y163.83 E3.62923
G1 X62.92 Y164.005 E3.63786
G1 X59.237 Y164.847 E3.68856
G1 X58.532 Y164.967 E3.69815
G1 X57.818 Y165.008 E3.70775
G1 X57.104 Y164.969 E3.71734
G1 X56.399 Y164.85 E3.72694
G1 X55.711 Y164.654 E3.73654
G1 X55.049 Y164.382 E3.74614
G1 X54.422 Y164.037 E3.75574
G1 X53.838 Y163.625 E3.76533
G1 X53.303 Y163.151 E3.77492
G1 X52.824 Y162.619 E3.78453
G1 X52.408 Y162.038 E3.79412
G1 X52.059 Y161.413 E3.80372
G1 X51.781 Y160.754 E3.81332
G1 X51.554 Y159.953 E3.82449
G1 X48.556 Y146.003 E4.01595
G1 X47.33 Y140.699 E4.08899
G1 X45.852 Y135.627 E4.15988
G1 X44.084 Y130.635 E4.23094
G1 X42.039 Y125.755 E4.30194
G1 X39.705 Y120.963 E4.37346
G1 X37.496 Y116.975 E4.43463
G1 X30.919 Y105.734 E4.60939
G1 X30.593 Y105.097 E4.61899
G1 X30.34 Y104.428 E4.62859
G1 X30.163 Y103.735 E4.63819
G1 X30.065 Y103.027 E4.64778
G1 X30.046 Y102.312 E4.65737
G1 X30.107 Y101.599 E4.66698
G1 X30.247 Y100.898 E4.67657
G1 X30.465 Y100.217 E4.68616
G1 X30.757 Y99.564 E4.69576
G1 X31.121 Y98.948 E4.70536
G1 X31.551 Y98.376 E4.71496
G1 X32.041 Y97.856 E4.72455
G1 X32.587 Y97.394 E4.73415
G1 X33.334 Y96.908 E4.74611
G1 X37.704 Y94.479 E4.81319
G1 X42.233 Y91.646 E4.88487
G1 X46.532 Y88.605 E4.95553
G1 X50.678 Y85.306 E5.02663
G1 X54.671 Y81.741 E5.09845
G1 X56.494 Y79.97 E5.13256
G1 X60.168 Y76.084 E5.20431
G1 X63.573 Y72.046 E5.27519
G1 X66.778 Y67.777 E5.34682
G1 X68.661 Y65.017 E5.39165
G1 X69.097 Y64.45 E5.40125
M204 S5000
M205 X30 Y30
G0 F3600 X69.414 Y64.694
M204 S500
M205 X20 Y20
G1 F1800 X69.897 Y64.198 E5.41054
G1 X70.434 Y63.761 E5.41983
G1 X71.018 Y63.388 E5.42913
G1 X71.641 Y63.085 E5.43842
G1 X72.595 Y62.779 E5.45186
G1 X78.208 Y61.48 E5.52917
G1 X80.777 Y60.766 E5.56495
G1 X84.885 Y59.508 E5.6226
G1 X85.558 Y59.344 E5.63189
G1 X86.245 Y59.258 E5.64118
G1 X86.677 Y59.245 E5.64698
G1 X89.087 Y59.259 E5.67932
G1 X89.778 Y59.303 E5.68861
G1 X90.57 Y59.454 E5.69943
G1 X93.533 Y60.229 E5.74053
G1 X98.822 Y61.365 E5.81311
G1 X101.328 Y61.791 E5.84722
G1 X106.714 Y62.477 E5.92008
G1 X108.63 Y62.649 E5.94589
G1 X109.315 Y62.751 E5.95518
G1 X109.984 Y62.93 E5.96447
G1 X110.627 Y63.186 E5.97376
G1 X111.237 Y63.514 E5.98305
G1 X111.805 Y63.91 E5.99234
G1 X112.226 Y64.275 E5.99982
G1 X113.765 Y65.737 E6.0283
G1 X117.816 Y69.297 E6.10067
G1 X121.996 Y72.571 E6.17191
G1 X126.354 Y75.605 E6.24317
G1 X130.888 Y78.393 E6.31459
G1 X135.562 Y80.916 E6.38586
G1 X140.385 Y83.176 E6.45732
G1 X145.383 Y85.183 E6.52959
G1 X147.771 Y86.024 E6.56357
G1 X152.905 Y87.594 E6.6356
G1 X158.131 Y88.875 E6.7078
G1 X160.681 Y89.387 E6.7427
G1 X163.452 Y89.859 E6.78042
G1 X164.127 Y90.015 E6.78972
G1 X164.543 Y90.153 E6.7956
G1 X168.007 Y91.446 E6.84521
G1 X168.641 Y91.725 E6.8545
G1 X169.238 Y92.075 E6.86379
G1 X169.791 Y92.492 E6.87308
G1 X170.293 Y92.97 E6.88238
G1 X170.735 Y93.503 E6.89168
G1 X171.114 Y94.082 E6.90096
G1 X171.423 Y94.702 E6.91026
G1 X171.659 Y95.353 E6.91955
G1 X171.818 Y96.027 E6.92884
G1 X171.899 Y96.715 E6.93814
G1 X171.899 Y97.408 E6.94743
G1 X171.82 Y98.096 E6.95673
G1 X171.662 Y98.77 E6.96602
G1 X171.428 Y99.422 E6.97531
G1 X171.271 Y99.76 E6.98031
G1 X159.629 Y122.94 E7.32837
G1 X157.434 Y127.815 E7.40011
G1 X155.528 Y132.784 E7.47152
G1 X153.905 Y137.85 E7.5429
G1 X152.56 Y143.044 E7.61489
G1 X152.024 Y145.558 E7.64939
G1 X151.253 Y149.948 E7.70919
G1 X150.501 Y154.841 E7.77562
G1 X150.357 Y155.518 E7.78491
G1 X150.135 Y156.174 E7.7942
G1 X149.839 Y156.8 E7.80349
G1 X149.473 Y157.388 E7.81278
G1 X149.042 Y157.93 E7.82208
G1 X148.551 Y158.419 E7.83137
G1 X148.007 Y158.847 E7.84066
G1 X147.418 Y159.211 E7.84995
G1 X146.79 Y159.504 E7.85925
G1 X146.133 Y159.722 E7.86854
G1 X145.455 Y159.864 E7.87783
G1 X144.765 Y159.926 E7.88713
G1 X143.75 Y159.873 E7.90077
G1 X140.052 Y159.362 E7.95086
G1 X139.372 Y159.227 E7.96016
G1 X138.964 Y159.106 E7.96587
G1 X133.598 Y157.305 E8.04182
G1 X128.45 Y155.895 E8.11344
G1 X123.202 Y154.771 E8.18546
G1 X120.672 Y154.343 E8.21989
G1 X115.381 Y153.672 E8.29145
G1 X110.062 Y153.303 E8.363
G1 X104.732 Y153.234 E8.43452
G1 X99.442 Y153.465 E8.50557
G1 X94.134 Y154 E8.57716
G1 X88.862 Y154.833 E8.64878
G1 X86.337 Y155.342 E8.68334
G1 X81.129 Y156.627 E8.75532
G1 X76.045 Y158.19 E8.82668
G1 X71.05 Y160.041 E8.89816
G1 X68.633 Y161.053 E8.93332
G1 X64.034 Y163.202 E9.00144
G1 X63.39 Y163.458 E9.01074
G1 X62.831 Y163.615 E9.01853
G1 X59.148 Y164.457 E9.06922
G1 X58.465 Y164.572 E9.07852
G1 X57.774 Y164.608 E9.0878
G1 X57.083 Y164.564 E9.09709
G1 X56.401 Y164.44 E9.10639
G1 X55.739 Y164.239 E9.11567
G1 X55.104 Y163.962 E9.12497
G1 X54.505 Y163.615 E9.13426
G1 X53.95 Y163.2 E9.14356
G1 X53.446 Y162.725 E9.15285
G1 X53.001 Y162.194 E9.16215
G1 X52.62 Y161.616 E9.17144
G1 X52.308 Y160.998 E9.18073
G1 X52.069 Y160.348 E9.19002
G1 X51.945 Y159.869 E9.19666
G1 X48.941 Y145.895 E9.38845
G1 X47.719 Y140.602 E9.46134
G1 X46.234 Y135.508 E9.53254
G1 X44.457 Y130.489 E9.60398
G1 X42.401 Y125.582 E9.67537
G1 X40.069 Y120.795 E9.74682
G1 X37.833 Y116.759 E9.80873
G1 X31.264 Y105.532 E9.98327
G1 X30.95 Y104.915 E9.99256
G1 X30.708 Y104.266 E10.00185
G1 X30.543 Y103.593 E10.01115
G1 X30.457 Y102.906 E10.02044
G1 X30.45 Y102.214 E10.02972
G1 X30.523 Y101.525 E10.03902
G1 X30.675 Y100.85 E10.0483
G1 X30.904 Y100.196 E10.0576
G1 X31.206 Y99.573 E10.06689
G1 X31.579 Y98.989 E10.07619
G1 X32.016 Y98.452 E10.08548
G1 X32.512 Y97.969 E10.09477
G1 X33.061 Y97.546 E10.10407
G1 X33.528 Y97.258 E10.11143
G1 X37.925 Y94.814 E10.17893
G1 X42.422 Y92.001 E10.25011
G1 X46.786 Y88.914 E10.32183
G1 X50.938 Y85.611 E10.39303
G1 X54.946 Y82.031 E10.46514
G1 X56.769 Y80.261 E10.49923
G1 X60.464 Y76.352 E10.57141
G1 X63.891 Y72.288 E10.64274
G1 X67.103 Y68.01 E10.71452
G1 X68.991 Y65.243 E10.75947
G1 X69.414 Y64.694 E10.76877
M204 S5000
M205 X30 Y30
G0 F3600 X69.731 Y64.939
M204 S500
M205 X20 Y20
G1 F1800 X70.201 Y64.462 E10.77775
G1 X70.724 Y64.045 E10.78673
G1 X71.293 Y63.693 E10.79571
G1 X71.9 Y63.412 E10.80468
G1 X72.685 Y63.168 E10.81571
G1 X78.314 Y61.865 E10.89324
G1 X80.886 Y61.15 E10.92906
G1 X85.002 Y59.89 E10.98682
G1 X85.653 Y59.733 E10.99581
G1 X86.317 Y59.654 E11.00478
G1 X86.675 Y59.645 E11.00958
G1 X89.085 Y59.659 E11.04192
G1 X89.752 Y59.703 E11.05089
G1 X90.468 Y59.841 E11.06068
G1 X93.434 Y60.616 E11.10181
G1 X98.74 Y61.756 E11.17463
G1 X101.281 Y62.188 E11.20922
G1 X106.657 Y62.873 E11.28194
G1 X108.594 Y63.047 E11.30803
G1 X109.256 Y63.147 E11.31701
G1 X109.901 Y63.324 E11.32599
G1 X110.52 Y63.578 E11.33497
G1 X111.105 Y63.903 E11.34395
G1 X111.646 Y64.296 E11.35292
G1 X111.951 Y64.565 E11.35838
G1 X113.495 Y66.031 E11.38695
G1 X117.57 Y69.612 E11.45974
G1 X121.747 Y72.884 E11.53093
G1 X126.15 Y75.95 E11.60293
G1 X130.681 Y78.736 E11.6743
G1 X135.381 Y81.272 E11.74596
G1 X140.224 Y83.542 E11.81773
G1 X145.242 Y85.557 E11.89029
G1 X147.662 Y86.41 E11.92472
G1 X152.798 Y87.98 E11.99678
G1 X158.027 Y89.261 E12.06902
G1 X160.607 Y89.78 E12.10433
G1 X163.385 Y90.253 E12.14214
G1 X164.037 Y90.405 E12.15113
G1 X164.403 Y90.528 E12.15631
G1 X167.867 Y91.821 E12.20592
G1 X168.479 Y92.092 E12.2149
G1 X169.054 Y92.434 E12.22388
G1 X169.584 Y92.842 E12.23285
G1 X170.062 Y93.31 E12.24183
G1 X170.48 Y93.832 E12.2508
G1 X170.833 Y94.4 E12.25978
G1 X171.116 Y95.007 E12.26876
G1 X171.325 Y95.642 E12.27773
G1 X171.456 Y96.298 E12.28671
G1 X171.508 Y96.965 E12.29569
G1 X171.48 Y97.634 E12.30467
G1 X171.373 Y98.294 E12.31364
G1 X171.188 Y98.937 E12.32262
G1 X170.913 Y99.58 E12.332
G1 X159.273 Y122.756 E12.68
G1 X157.063 Y127.665 E12.75224
G1 X155.152 Y132.645 E12.82381
G1 X153.523 Y137.733 E12.8955
G1 X152.171 Y142.952 E12.96784
G1 X151.63 Y145.489 E13.00265
G1 X150.861 Y149.869 E13.06232
G1 X150.106 Y154.78 E13.12899
G1 X149.965 Y155.434 E13.13797
G1 X149.747 Y156.067 E13.14695
G1 X149.455 Y156.669 E13.15593
G1 X149.094 Y157.231 E13.16489
G1 X148.667 Y157.747 E13.17388
G1 X148.183 Y158.209 E13.18286
G1 X147.647 Y158.609 E13.19183
G1 X147.067 Y158.942 E13.2008
G1 X146.451 Y159.204 E13.20979
G1 X145.809 Y159.391 E13.21876
G1 X145.148 Y159.499 E13.22775
G1 X144.48 Y159.528 E13.23672
G1 X143.804 Y159.476 E13.24581
G1 X140.106 Y158.965 E13.29591
G1 X139.45 Y158.834 E13.30488
G1 X139.091 Y158.727 E13.30991
G1 X133.704 Y156.919 E13.38616
G1 X128.555 Y155.508 E13.45779
G1 X123.279 Y154.378 E13.53019
G1 X120.742 Y153.949 E13.56472
G1 X115.405 Y153.273 E13.6369
G1 X110.078 Y152.903 E13.70855
G1 X104.737 Y152.834 E13.78023
G1 X99.402 Y153.067 E13.85188
G1 X94.083 Y153.603 E13.92361
G1 X88.794 Y154.439 E13.99546
G1 X86.254 Y154.951 E14.03023
G1 X81.026 Y156.24 E14.10248
G1 X75.909 Y157.813 E14.17431
G1 X70.896 Y159.671 E14.24605
G1 X68.478 Y160.684 E14.28123
G1 X63.864 Y162.84 E14.34957
G1 X63.242 Y163.086 E14.35854
G1 X62.742 Y163.225 E14.36551
G1 X59.059 Y164.067 E14.4162
G1 X58.399 Y164.177 E14.42518
G1 X57.731 Y164.207 E14.43415
G1 X57.064 Y164.158 E14.44312
G1 X56.407 Y164.029 E14.45211
G1 X55.771 Y163.823 E14.46108
G1 X55.163 Y163.542 E14.47007
G1 X54.594 Y163.192 E14.47903
G1 X54.07 Y162.775 E14.48802
G1 X53.6 Y162.299 E14.49699
G1 X53.19 Y161.771 E14.50596
G1 X52.845 Y161.197 E14.51495
G1 X52.572 Y160.586 E14.52393
G1 X52.336 Y159.785 E14.53513
G1 X49.325 Y145.776 E14.7274
G1 X48.107 Y140.505 E14.79999
G1 X46.614 Y135.384 E14.87157
G1 X44.829 Y130.343 E14.94332
G1 X42.762 Y125.409 E15.0151
G1 X40.433 Y120.628 E15.08646
G1 X38.16 Y116.526 E15.14939
G1 X31.61 Y105.33 E15.32344
G1 X31.307 Y104.733 E15.33242
G1 X31.077 Y104.105 E15.3414
G1 X30.924 Y103.454 E15.35037
G1 X30.85 Y102.789 E15.35935
G1 X30.856 Y102.12 E15.36833
G1 X30.942 Y101.456 E15.37731
G1 X31.105 Y100.808 E15.38628
G1 X31.346 Y100.183 E15.39526
G1 X31.659 Y99.592 E15.40424
G1 X32.04 Y99.042 E15.41322
G1 X32.484 Y98.542 E15.42219
G1 X32.984 Y98.098 E15.43116
G1 X33.723 Y97.607 E15.44307
G1 X38.13 Y95.158 E15.51072
G1 X42.651 Y92.329 E15.58228
G1 X47.021 Y89.238 E15.6541
G1 X51.199 Y85.914 E15.72574
G1 X55.208 Y82.334 E15.79786
G1 X57.056 Y80.54 E15.83242
G1 X60.769 Y76.611 E15.90496
G1 X64.209 Y72.533 E15.97655
G1 X67.424 Y68.25 E16.04841
G1 X69.322 Y65.468 E16.0936
G1 X69.731 Y64.939 E16.10257
M204 S5000
M205 X30 Y30
G0 F3600 X70.048 Y65.185
M204 S500
M205 X20 Y20
G1 F1800 X70.504 Y64.728 E16.11123
G1 X71.012 Y64.332 E16.11987
G1 X71.566 Y64.002 E16.12853
G1 X72.156 Y63.743 E16.13717
G1 X72.775 Y63.558 E16.14584
G1 X78.425 Y62.25 E16.22366
G1 X80.996 Y61.536 E16.25946
G1 X85.12 Y60.273 E16.31734
G1 X85.746 Y60.123 E16.32597
G1 X86.672 Y60.045 E16.33844
G1 X89.082 Y60.059 E16.37078
G1 X89.725 Y60.103 E16.37943
G1 X90.367 Y60.228 E16.38821
G1 X93.341 Y61.005 E16.42945
G1 X98.681 Y62.153 E16.50274
G1 X101.213 Y62.583 E16.5372
G1 X106.623 Y63.273 E16.61038
G1 X108.558 Y63.446 E16.63645
G1 X109.196 Y63.543 E16.64511
G1 X109.816 Y63.718 E16.65375
G1 X110.41 Y63.969 E16.66241
G1 X110.968 Y64.292 E16.67106
G1 X111.675 Y64.855 E16.68319
G1 X113.225 Y66.328 E16.71188
G1 X117.294 Y69.903 E16.78456
G1 X121.526 Y73.218 E16.85669
G1 X125.917 Y76.275 E16.92848
G1 X130.495 Y79.09 E17.00059
G1 X135.214 Y81.637 E17.07255
G1 X140.047 Y83.902 E17.14417
G1 X145.1 Y85.931 E17.21723
G1 X147.531 Y86.787 E17.25181
G1 X152.695 Y88.367 E17.32428
G1 X157.944 Y89.653 E17.39679
G1 X160.559 Y90.178 E17.43258
G1 X163.318 Y90.648 E17.47013
G1 X163.946 Y90.795 E17.47879
G1 X164.263 Y90.902 E17.48328
G1 X167.727 Y92.195 E17.53289
G1 X168.316 Y92.458 E17.54155
G1 X168.868 Y92.791 E17.5502
G1 X169.374 Y93.19 E17.55884
G1 X169.828 Y93.649 E17.56751
G1 X170.22 Y94.16 E17.57615
G1 X170.547 Y94.716 E17.5848
G1 X170.802 Y95.308 E17.59345
G1 X170.982 Y95.927 E17.6021
G1 X171.085 Y96.563 E17.61075
G1 X171.107 Y97.207 E17.61939
G1 X171.05 Y97.85 E17.62805
G1 X170.913 Y98.48 E17.63671
G1 X170.7 Y99.088 E17.64535
G1 X170.556 Y99.401 E17.64997
G1 X158.913 Y122.582 E17.99805
G1 X156.692 Y127.515 E18.07064
G1 X154.771 Y132.522 E18.1426
G1 X153.139 Y137.621 E18.21444
G1 X151.776 Y142.882 E18.28736
G1 X151.242 Y145.388 E18.32174
G1 X150.469 Y149.789 E18.3817
G1 X149.711 Y154.719 E18.44863
G1 X149.573 Y155.349 E18.45729
G1 X149.359 Y155.957 E18.46593
G1 X149.071 Y156.534 E18.47459
G1 X148.714 Y157.071 E18.48324
G1 X148.294 Y157.559 E18.49188
G1 X147.816 Y157.992 E18.50053
G1 X147.288 Y158.363 E18.50919
G1 X146.719 Y158.665 E18.51784
G1 X146.116 Y158.894 E18.52649
G1 X145.49 Y159.047 E18.53514
G1 X144.85 Y159.122 E18.54378
G1 X144.205 Y159.116 E18.55244
