; G-Code generated by Simplify3D(R) Version 3.1.1
; Oct 14, 2018 at 9:15:47 PM
; Settings Summary
;   processName,Process1
;   applyToModels,chain3
;   profileName,Travis_Fletchers_Ultimate_PETG_Profile_v2 (modified)
;   profileVersion,2017-10-07 13:44:38
;   baseProfile,Creality CR-10
;   printMaterial,PETG
;   printQuality,Medium
;   printExtruders,
;   extruderName,Primary Extruder
;   extruderToolheadNumber,0
;   extruderDiameter,0.4
;   extruderAutoWidth,0
;   extruderWidth,0.4
;   extrusionMultiplier,0.99
;   extruderUseRetract,1
;   extruderRetractionDistance,6.5
;   extruderExtraRestartDistance,-0.2
;   extruderRetractionZLift,0
;   extruderRetractionSpeed,3600
;   extruderUseCoasting,1
;   extruderCoastingDistance,0.2
;   extruderUseWipe,0
;   extruderWipeDistance,4
;   primaryExtruder,0
;   layerHeight,0.2
;   topSolidLayers,5
;   bottomSolidLayers,5
;   perimeterOutlines,3
;   printPerimetersInsideOut,1
;   startPointOption,3
;   startPointOriginX,0
;   startPointOriginY,500
;   startPointOriginZ,0
;   sequentialIslands,0
;   spiralVaseMode,0
;   firstLayerHeightPercentage,130
;   firstLayerWidthPercentage,120
;   firstLayerUnderspeed,0.6
;   useRaft,0
;   raftExtruder,0
;   raftLayers,3
;   raftOffset,3
;   raftSeparationDistance,0.14
;   raftInfill,85
;   disableRaftBaseLayers,0
;   useSkirt,1
;   skirtExtruder,0
;   skirtLayers,1
;   skirtOutlines,10
;   skirtOffset,0.2
;   usePrimePillar,0
;   primePillarExtruder,999
;   primePillarWidth,12
;   primePillarLocation,7
;   primePillarSpeedMultiplier,1
;   useOozeShield,0
;   oozeShieldExtruder,999
;   oozeShieldOffset,2
;   oozeShieldOutlines,1
;   oozeShieldSidewallShape,1
;   oozeShieldSidewallAngle,30
;   oozeShieldSpeedMultiplier,1
;   infillExtruder,0
;   internalInfillPattern,Grid
;   externalInfillPattern,Rectilinear
;   infillPercentage,100
;   outlineOverlapPercentage,35
;   infillExtrusionWidthPercentage,120
;   minInfillLength,4
;   infillLayerInterval,1
;   infillAngles,45,-45
;   overlapInfillAngles,1
;   generateSupport,1
;   supportExtruder,0
;   supportInfillPercentage,30
;   supportExtraInflation,2
;   denseSupportLayers,0
;   denseSupportInfillPercentage,60
;   supportLayerInterval,1
;   supportHorizontalPartOffset,0.3
;   supportUpperSeparationLayers,2
;   supportLowerSeparationLayers,1
;   supportType,0
;   supportGridSpacing,3.5
;   maxOverhangAngle,45
;   supportAngles,0
;   temperatureName,Heated Bed,Primary Extruder
;   temperatureNumber,0,0
;   temperatureSetpointCount,1,1
;   temperatureSetpointLayers,1,1
;   temperatureSetpointTemperatures,85,240
;   temperatureStabilizeAtStartup,1,1
;   temperatureHeatedBed,1,0
;   temperatureRelayBetweenLayers,0,0
;   temperatureRelayBetweenLoops,0,0
;   fanLayers,1,2,3
;   fanSpeeds,0,25,35
;   blipFanToFullPower,0
;   adjustSpeedForCooling,1
;   minSpeedLayerTime,20
;   minCoolingSpeedSlowdown,30
;   increaseFanForCooling,1
;   minFanLayerTime,30
;   maxCoolingFanSpeed,50
;   increaseFanForBridging,1
;   bridgingFanSpeed,100
;   use5D,1
;   relativeEdistances,0
;   allowEaxisZeroing,1
;   independentExtruderAxes,0
;   includeM10123,0
;   stickySupport,1
;   applyToolheadOffsets,0
;   gcodeXoffset,0
;   gcodeYoffset,0
;   gcodeZoffset,0
;   overrideMachineDefinition,1
;   machineTypeOverride,0
;   strokeXoverride,200
;   strokeYoverride,200
;   strokeZoverride,300
;   originOffsetXoverride,0
;   originOffsetYoverride,0
;   originOffsetZoverride,0
;   homeXdirOverride,-1
;   homeYdirOverride,-1
;   homeZdirOverride,-1
;   flipXoverride,1
;   flipYoverride,-1
;   flipZoverride,1
;   toolheadOffsets,0,0|0,0|0,0|0,0|0,0|0,0
;   overrideFirmwareConfiguration,1
;   firmwareTypeOverride,RepRap (Marlin/Repetier/Sprinter)
;   GPXconfigOverride,r2
;   baudRateOverride,115200
;   overridePrinterModels,1
;   printerModelsOverride
;   startingGcode,G28 ; home all axes,M117 Purging Extruder...,G1 Z1.0 F3000 ; lift Z,G1 X0.2 Y25 Z0.2 F3000.0 ; move to start-line position,G92 E0 ; reset extruder,G1 X0.2 Y150.0 F1000.0 E15 ; draw 1st line,G1 X0.7 Y150.0 F3000.0 ; move to side 0.5mm,G1 X0.7 Y50 F1000.0 E30 ; draw 2nd line,G1 X0.7 Y25 F5000.0 ; quick wipe,M117 Printing!,,; Default S3D CR-10 Startup,; G28 ; home all axes,; G1 Z5 F3000 ; lift,; G1 X20 Y2 F1500 ; avoid binder clips,; G1 Z0.2 F3000 ; get ready to prime,; G92 E0 ; reset extrusion distance,; G1 X120 E10 F600 ; prime nozzle,; G1 X150 F5000 ; quick wipe,
;   layerChangeGcode,
;   retractionGcode,
;   toolChangeGcode,
;   endingGcode,M117 Print Complete!,M104 S0 ; turn off extruder,M140 S0 ; turn off bed,G1 X0 Y295 F1000 ; move finished print out front,M84 ; disable motors,M106 S0 ; turn off cooling fan,,; play song,M300 S294 P200 ;D4: 294,M300 S588 P200 ;D5: 588,M300 S440 P200 ;A4: 440,M300 S392 P200 ;G4: 392,M300 S784 P200 ;G5: 784,M300 S440 P200 ;A4: 440,M300 S740 P200 ;F#5: 740,M300 S440 P200 ;A4: 440,,; Default S3D CR-10 Ending Script,; G28 X0 ; home x axis,; M106 S0 ; turn off cooling fan,; M104 S0 ; turn off extruder,; M140 S0 ; turn off bed,; M84 ; disable motors,
;   exportFileFormat,gcode
;   celebration,0
;   celebrationSong,Star Wars
;   postProcessing,
;   defaultSpeed,1500
;   outlineUnderspeed,0.8
;   solidInfillUnderspeed,0.9
;   supportUnderspeed,1
;   rapidXYspeed,9000
;   rapidZspeed,1002
;   minBridgingArea,50
;   bridgingExtraInflation,0
;   bridgingExtrusionMultiplier,0.9
;   bridgingSpeedMultiplier,1
;   filamentDiameter,1.75
;   filamentPricePerKg,46
;   filamentDensity,1.25
;   useMinPrintHeight,0
;   minPrintHeight,0
;   useMaxPrintHeight,0
;   maxPrintHeight,0
;   useDiaphragm,0
;   diaphragmLayerInterval,20
;   robustSlicing,1
;   mergeAllIntoSolid,0
;   onlyRetractWhenCrossingOutline,0
;   retractBetweenLayers,1
;   useRetractionMinTravel,1
;   retractionMinTravel,3
;   retractWhileWiping,1
;   onlyWipeOutlines,1
;   avoidCrossingOutline,1
;   maxMovementDetourFactor,3
;   toolChangeRetractionDistance,12
;   toolChangeExtraRestartDistance,-0.5
;   toolChangeRetractionSpeed,600
;   allowThinWallGapFill,1
;   thinWallAllowedOverlapPercentage,15
;   horizontalSizeCompensation,0
G90
M82
M106 S0
M140 S85
M190 S85
M104 S240 T0
M109 S240 T0
G28 ; home all axes
M117 Purging Extruder...
G1 Z1.0 F3000 ; lift Z
G1 X0.2 Y25 Z0.2 F3000.0 ; move to start-line position
G92 E0 ; reset extruder
G1 X0.2 Y150.0 F1000.0 E15 ; draw 1st line
G1 X0.7 Y150.0 F3000.0 ; move to side 0.5mm
G1 X0.7 Y50 F1000.0 E30 ; draw 2nd line
G1 X0.7 Y25 F5000.0 ; quick wipe
M117 Printing!
; Default S3D CR-10 Startup
; G28 ; home all axes
; G1 Z5 F3000 ; lift
; G1 X20 Y2 F1500 ; avoid binder clips
; G1 Z0.2 F3000 ; get ready to prime
; G92 E0 ; reset extrusion distance
; G1 X120 E10 F600 ; prime nozzle
; G1 X150 F5000 ; quick wipe
G92 E0
G1 E-6.5000 F3600
G1 Z0.260 F1002
; layer 1, Z = 0.26
T0
; tool H0.260 W0.480
; skirt
G1 X7.704 Y96.000 F9000
G1 E-0.2000 F1080
G92 E0
G1 X14.796 Y96.000 E0.3643 F900
G1 X15.800 Y96.416 E0.4201
G1 X16.804 Y96.000 E0.4759
G1 X23.896 Y96.000 E0.8402
G1 X24.900 Y96.416 E0.8960
G1 X25.904 Y96.000 E0.9519
G1 X32.996 Y96.000 E1.3161
G1 X34.000 Y96.416 E1.3720
G1 X35.004 Y96.000 E1.4278
G1 X42.096 Y96.000 E1.7921
G1 X43.100 Y96.416 E1.8479
G1 X44.104 Y96.000 E1.9038
G1 X51.196 Y96.000 E2.2680
G1 X52.200 Y96.416 E2.3239
G1 X53.204 Y96.000 E2.3797
G1 X60.296 Y96.000 E2.7440
G1 X61.300 Y96.416 E2.7998
G1 X62.304 Y96.000 E2.8556
G1 X69.396 Y96.000 E3.2199
G1 X70.400 Y96.416 E3.2757
G1 X71.404 Y96.000 E3.3316
G1 X78.496 Y96.000 E3.6958
G1 X79.500 Y96.416 E3.7517
G1 X80.504 Y96.000 E3.8075
G1 X87.596 Y96.000 E4.1718
G1 X88.600 Y96.416 E4.2276
G1 X89.604 Y96.000 E4.2835
G1 X96.696 Y96.000 E4.6477
G1 X97.700 Y96.416 E4.7036
G1 X98.704 Y96.000 E4.7594
G1 X105.796 Y96.000 E5.1237
G1 X106.800 Y96.416 E5.1795
G1 X107.804 Y96.000 E5.2353
G1 X114.896 Y96.000 E5.5996
G1 X115.900 Y96.416 E5.6554
G1 X116.904 Y96.000 E5.7113
G1 X123.996 Y96.000 E6.0755
G1 X125.000 Y96.416 E6.1314
G1 X126.004 Y96.000 E6.1872
G1 X133.096 Y96.000 E6.5515
G1 X134.150 Y96.437 E6.6101
G1 X135.204 Y96.000 E6.6687
G1 X142.296 Y96.000 E7.0330
G1 X143.300 Y96.416 E7.0888
G1 X144.304 Y96.000 E7.1447
G1 X151.396 Y96.000 E7.5089
G1 X152.400 Y96.416 E7.5648
G1 X153.404 Y96.000 E7.6206
G1 X160.496 Y96.000 E7.9849
G1 X161.500 Y96.416 E8.0407
G1 X162.504 Y96.000 E8.0965
G1 X169.596 Y96.000 E8.4608
G1 X170.600 Y96.416 E8.5166
G1 X171.604 Y96.000 E8.5725
G1 X178.696 Y96.000 E8.9367
G1 X179.700 Y96.416 E8.9926
G1 X180.704 Y96.000 E9.0484
G1 X187.796 Y96.000 E9.4127
G1 X189.192 Y96.578 E9.4903
G1 X190.378 Y97.764 E9.5765
G1 X190.957 Y99.160 E9.6541
G1 X190.957 Y99.169 E9.6545
G1 X191.082 Y99.176 E9.6609
G1 X191.195 Y99.187 E9.6668
G1 X191.708 Y99.249 E9.6934
G1 X191.939 Y99.291 E9.7054
G1 X192.192 Y99.354 E9.7188
G1 X192.416 Y99.425 E9.7308
G1 X192.918 Y99.619 E9.7585
G1 X193.223 Y99.769 E9.7760
G1 X193.545 Y99.965 E9.7953
G1 X193.818 Y100.167 E9.8128
G1 X194.290 Y100.586 E9.8452
G1 X194.623 Y100.974 E9.8715
G1 X194.932 Y101.449 E9.9006
G1 X195.150 Y101.912 E9.9268
G1 X195.320 Y102.449 E9.9558
G1 X195.387 Y102.736 E9.9709
G1 X195.436 Y103.059 E9.9877
G1 X195.458 Y103.354 E10.0029
G1 X195.447 Y105.880 E10.1327
G1 X195.364 Y106.429 E10.1612
G1 X195.185 Y107.016 E10.1927
G1 X194.947 Y107.518 E10.2212
G1 X194.567 Y108.088 E10.2564
G1 X194.278 Y108.428 E10.2793
G1 X193.917 Y108.764 E10.3047
G1 X193.557 Y109.027 E10.3276
G1 X193.030 Y109.324 E10.3587
G1 X192.779 Y109.443 E10.3729
G1 X192.492 Y109.554 E10.3887
G1 X192.226 Y109.634 E10.4030
G1 X191.703 Y109.752 E10.4305
G1 X191.498 Y109.787 E10.4412
G1 X191.269 Y109.813 E10.4530
G1 X191.062 Y109.824 E10.4637
G1 X190.957 Y109.825 E10.4691
G1 X190.957 Y109.840 E10.4699
G1 X190.378 Y111.236 E10.5475
G1 X189.192 Y112.422 E10.6337
G1 X187.796 Y113.000 E10.7113
G1 X180.704 Y113.000 E11.0756
G1 X179.700 Y112.584 E11.1314
G1 X178.696 Y113.000 E11.1872
G1 X171.604 Y113.000 E11.5515
G1 X170.600 Y112.584 E11.6073
G1 X169.596 Y113.000 E11.6632
G1 X162.504 Y113.000 E12.0274
G1 X161.500 Y112.584 E12.0833
G1 X160.496 Y113.000 E12.1391
G1 X153.404 Y113.000 E12.5034
G1 X152.400 Y112.584 E12.5592
G1 X151.396 Y113.000 E12.6150
G1 X144.304 Y113.000 E12.9793
G1 X143.300 Y112.584 E13.0352
G1 X142.296 Y113.000 E13.0910
G1 X135.204 Y113.000 E13.4553
G1 X134.150 Y112.563 E13.5139
G1 X133.096 Y113.000 E13.5725
G1 X126.004 Y113.000 E13.9368
G1 X125.000 Y112.584 E13.9926
G1 X123.996 Y113.000 E14.0484
G1 X116.904 Y113.000 E14.4127
G1 X115.900 Y112.584 E14.4685
G1 X114.896 Y113.000 E14.5244
G1 X107.804 Y113.000 E14.8886
G1 X106.800 Y112.584 E14.9445
G1 X105.796 Y113.000 E15.0003
G1 X98.704 Y113.000 E15.3646
G1 X97.700 Y112.584 E15.4204
G1 X96.696 Y113.000 E15.4762
G1 X89.604 Y113.000 E15.8405
G1 X88.600 Y112.584 E15.8963
G1 X87.596 Y113.000 E15.9522
G1 X80.504 Y113.000 E16.3165
G1 X79.500 Y112.584 E16.3723
G1 X78.496 Y113.000 E16.4281
G1 X71.404 Y113.000 E16.7924
G1 X70.400 Y112.584 E16.8482
G1 X69.396 Y113.000 E16.9041
G1 X62.304 Y113.000 E17.2683
G1 X61.300 Y112.584 E17.3242
G1 X60.296 Y113.000 E17.3800
G1 X53.204 Y113.000 E17.7443
G1 X52.200 Y112.584 E17.8001
G1 X51.196 Y113.000 E17.8559
G1 X44.104 Y113.000 E18.2202
G1 X43.100 Y112.584 E18.2760
G1 X42.096 Y113.000 E18.3319
G1 X35.004 Y113.000 E18.6962
G1 X34.000 Y112.584 E18.7520
G1 X32.996 Y113.000 E18.8078
G1 X25.904 Y113.000 E19.1721
G1 X24.900 Y112.584 E19.2279
G1 X23.896 Y113.000 E19.2838
G1 X16.804 Y113.000 E19.6480
G1 X15.800 Y112.584 E19.7039
G1 X14.796 Y113.000 E19.7597
G1 X7.704 Y113.000 E20.1240
G1 X6.308 Y112.421 E20.2016
G1 X5.121 Y111.235 E20.2878
G1 X4.543 Y109.839 E20.3654
G1 X4.543 Y106.161 E20.5543
G1 X5.121 Y104.765 E20.6320
G1 X5.386 Y104.500 E20.6512
G1 X5.121 Y104.235 E20.6704
G1 X4.543 Y102.839 E20.7481
G1 X4.543 Y99.161 E20.9370
G1 X5.122 Y97.764 E21.0147
G1 X6.308 Y96.578 E21.1008
G1 X7.520 Y96.076 E21.1682
G1 X7.704 Y96.000 F900
G1 X7.784 Y96.400 F9000
G92 E0
G1 X14.716 Y96.400 E0.3561 F900
G1 X15.800 Y96.849 E0.4163
G1 X16.884 Y96.400 E0.4766
G1 X23.816 Y96.400 E0.8327
G1 X24.900 Y96.849 E0.8930
G1 X25.984 Y96.400 E0.9532
G1 X32.916 Y96.400 E1.3093
G1 X34.000 Y96.849 E1.3696
G1 X35.084 Y96.400 E1.4298
G1 X42.016 Y96.400 E1.7859
G1 X43.100 Y96.849 E1.8462
G1 X44.184 Y96.400 E1.9065
G1 X51.116 Y96.400 E2.2625
G1 X52.200 Y96.849 E2.3228
G1 X53.284 Y96.400 E2.3831
G1 X60.216 Y96.400 E2.7392
G1 X61.300 Y96.849 E2.7994
G1 X62.384 Y96.400 E2.8597
G1 X69.316 Y96.400 E3.2158
G1 X70.400 Y96.849 E3.2760
G1 X71.484 Y96.400 E3.3363
G1 X78.416 Y96.400 E3.6924
G1 X79.500 Y96.849 E3.7526
G1 X80.584 Y96.400 E3.8129
G1 X87.516 Y96.400 E4.1690
G1 X88.600 Y96.849 E4.2293
G1 X89.684 Y96.400 E4.2895
G1 X96.616 Y96.400 E4.6456
G1 X97.700 Y96.849 E4.7059
G1 X98.784 Y96.400 E4.7661
G1 X105.716 Y96.400 E5.1222
G1 X106.800 Y96.849 E5.1825
G1 X107.884 Y96.400 E5.2427
G1 X114.816 Y96.400 E5.5988
G1 X115.900 Y96.849 E5.6591
G1 X116.984 Y96.400 E5.7194
G1 X123.916 Y96.400 E6.0754
G1 X125.000 Y96.849 E6.1357
G1 X126.084 Y96.400 E6.1960
G1 X133.016 Y96.400 E6.5521
G1 X134.150 Y96.870 E6.6151
G1 X135.284 Y96.400 E6.6781
G1 X142.216 Y96.400 E7.0342
G1 X143.300 Y96.849 E7.0945
G1 X144.384 Y96.400 E7.1548
G1 X151.316 Y96.400 E7.5108
G1 X152.400 Y96.849 E7.5711
G1 X153.484 Y96.400 E7.6314
G1 X160.416 Y96.400 E7.9875
G1 X161.500 Y96.849 E8.0477
G1 X162.584 Y96.400 E8.1080
G1 X169.516 Y96.400 E8.4641
G1 X170.600 Y96.849 E8.5243
G1 X171.684 Y96.400 E8.5846
G1 X178.616 Y96.400 E8.9407
G1 X179.700 Y96.849 E9.0009
G1 X180.784 Y96.400 E9.0612
G1 X187.716 Y96.400 E9.4173
G1 X188.966 Y96.917 E9.4868
G1 X190.039 Y97.991 E9.5647
G1 X190.557 Y99.240 E9.6342
G1 X190.557 Y99.565 E9.6509
G1 X190.834 Y99.565 E9.6651
G1 X190.937 Y99.568 E9.6704
G1 X191.051 Y99.575 E9.6763
G1 X191.153 Y99.584 E9.6816
G1 X191.648 Y99.644 E9.7072
G1 X191.855 Y99.683 E9.7180
G1 X192.083 Y99.739 E9.7300
G1 X192.283 Y99.803 E9.7408
G1 X192.757 Y99.985 E9.7669
G1 X193.030 Y100.120 E9.7826
G1 X193.321 Y100.297 E9.8001
G1 X193.566 Y100.478 E9.8157
G1 X194.004 Y100.867 E9.8458
G1 X194.303 Y101.215 E9.8693
G1 X194.581 Y101.644 E9.8956
G1 X194.777 Y102.058 E9.9191
G1 X194.934 Y102.555 E9.9459
G1 X194.994 Y102.812 E9.9595
G1 X195.038 Y103.104 E9.9746
G1 X195.058 Y103.368 E9.9882
G1 X195.047 Y105.849 E10.1157
G1 X194.973 Y106.341 E10.1412
G1 X194.810 Y106.872 E10.1697
G1 X194.598 Y107.321 E10.1953
G1 X194.248 Y107.847 E10.2277
G1 X193.989 Y108.151 E10.2482
G1 X193.662 Y108.455 E10.2712
G1 X193.340 Y108.690 E10.2916
G1 X192.846 Y108.969 E10.3208
G1 X192.621 Y109.075 E10.3336
G1 X192.362 Y109.175 E10.3478
G1 X192.124 Y109.247 E10.3606
G1 X191.626 Y109.360 E10.3868
G1 X191.442 Y109.391 E10.3964
G1 X191.235 Y109.414 E10.4071
G1 X191.050 Y109.424 E10.4166
G1 X190.557 Y109.426 E10.4420
G1 X190.557 Y109.760 E10.4591
G1 X190.039 Y111.010 E10.5286
G1 X188.965 Y112.083 E10.6066
G1 X187.716 Y112.600 E10.6760
G1 X180.784 Y112.600 E11.0321
G1 X179.700 Y112.151 E11.0924
G1 X178.616 Y112.600 E11.1526
G1 X171.684 Y112.600 E11.5087
G1 X170.600 Y112.151 E11.5690
G1 X169.516 Y112.600 E11.6292
G1 X162.584 Y112.600 E11.9853
G1 X161.500 Y112.151 E12.0456
G1 X160.416 Y112.600 E12.1059
G1 X153.484 Y112.600 E12.4620
G1 X152.400 Y112.151 E12.5222
G1 X151.316 Y112.600 E12.5825
G1 X144.384 Y112.600 E12.9386
G1 X143.300 Y112.151 E12.9988
G1 X142.216 Y112.600 E13.0591
G1 X135.284 Y112.600 E13.4152
G1 X134.150 Y112.130 E13.4782
G1 X133.016 Y112.600 E13.5413
G1 X126.084 Y112.600 E13.8974
G1 X125.000 Y112.151 E13.9576
G1 X123.916 Y112.600 E14.0179
G1 X116.984 Y112.600 E14.3740
G1 X115.900 Y112.151 E14.4342
G1 X114.816 Y112.600 E14.4945
G1 X107.884 Y112.600 E14.8506
G1 X106.800 Y112.151 E14.9108
G1 X105.716 Y112.600 E14.9711
G1 X98.784 Y112.600 E15.3272
G1 X97.700 Y112.151 E15.3874
G1 X96.616 Y112.600 E15.4477
G1 X89.684 Y112.600 E15.8038
G1 X88.600 Y112.151 E15.8641
G1 X87.516 Y112.600 E15.9243
G1 X80.584 Y112.600 E16.2804
G1 X79.500 Y112.151 E16.3407
G1 X78.416 Y112.600 E16.4009
G1 X71.484 Y112.600 E16.7570
G1 X70.400 Y112.151 E16.8173
G1 X69.316 Y112.600 E16.8775
G1 X62.384 Y112.600 E17.2336
G1 X61.300 Y112.151 E17.2939
G1 X60.216 Y112.600 E17.3542
G1 X53.284 Y112.600 E17.7103
