; G-Code generated by Simplify3D(R) Version 4.0.0
; Nov 4, 2018 at 6:23:41 PM
; Settings Summary
;   processName,Process1
;   applyToModels,E-22 Pipe Spacer(3),E-22 Pipe Spacer(4)
;   profileName,Travis_Fletchers_Ultimate_PETG_Profile_v2 (modified)
;   profileVersion,2018-10-27 09:00:55
;   baseProfile,Creality CR-10
;   printMaterial,PETG
;   printQuality,Fast
;   printExtruders,
;   extruderName,Primary Extruder
;   extruderToolheadNumber,0
;   extruderDiameter,0.4
;   extruderAutoWidth,1
;   extruderWidth,0.48
;   extrusionMultiplier,0.99
;   extruderUseRetract,1
;   extruderRetractionDistance,6.5
;   extruderExtraRestartDistance,-0.2
;   extruderRetractionZLift,0
;   extruderRetractionSpeed,3600
;   extruderUseCoasting,1
;   extruderCoastingDistance,0.2
;   extruderUseWipe,0
;   extruderWipeDistance,4
;   primaryExtruder,0
;   layerHeight,0.3
;   topSolidLayers,3
;   bottomSolidLayers,3
;   perimeterOutlines,3
;   printPerimetersInsideOut,1
;   startPointOption,3
;   startPointOriginX,0
;   startPointOriginY,500
;   sequentialIslands,0
;   spiralVaseMode,0
;   firstLayerHeightPercentage,130
;   firstLayerWidthPercentage,120
;   firstLayerUnderspeed,0.6
;   useRaft,0
;   raftExtruder,0
;   raftTopLayers,3
;   raftBaseLayers,2
;   raftOffset,3
;   raftSeparationDistance,0.14
;   raftTopInfill,100
;   aboveRaftSpeedMultiplier,0.3
;   useSkirt,1
;   skirtExtruder,0
;   skirtLayers,1
;   skirtOutlines,2
;   skirtOffset,0.2
;   usePrimePillar,0
;   primePillarExtruder,999
;   primePillarWidth,12
;   primePillarLocation,7
;   primePillarSpeedMultiplier,1
;   useOozeShield,0
;   oozeShieldExtruder,999
;   oozeShieldOffset,2
;   oozeShieldOutlines,1
;   oozeShieldSidewallShape,1
;   oozeShieldSidewallAngle,30
;   oozeShieldSpeedMultiplier,1
;   infillExtruder,0
;   internalInfillPattern,Grid
;   externalInfillPattern,Rectilinear
;   infillPercentage,15
;   outlineOverlapPercentage,35
;   infillExtrusionWidthPercentage,120
;   minInfillLength,4
;   infillLayerInterval,1
;   internalInfillAngles,45,-45
;   overlapInternalInfillAngles,1
;   externalInfillAngles,45,-45
;   generateSupport,1
;   supportExtruder,0
;   supportInfillPercentage,40
;   supportExtraInflation,1
;   supportBaseLayers,0
;   denseSupportExtruder,0
;   denseSupportLayers,0
;   denseSupportInfillPercentage,60
;   supportLayerInterval,1
;   supportHorizontalPartOffset,0.3
;   supportUpperSeparationLayers,2
;   supportLowerSeparationLayers,1
;   supportType,0
;   supportGridSpacing,3.5
;   maxOverhangAngle,45
;   supportAngles,0
;   temperatureName,Heated Bed,Primary Extruder
;   temperatureNumber,0,0
;   temperatureSetpointCount,1,1
;   temperatureSetpointLayers,1,1
;   temperatureSetpointTemperatures,85,240
;   temperatureStabilizeAtStartup,1,1
;   temperatureHeatedBed,1,0
;   temperatureRelayBetweenLayers,0,0
;   temperatureRelayBetweenLoops,0,0
;   fanLayers,1,2,3
;   fanSpeeds,0,25,35
;   blipFanToFullPower,0
;   adjustSpeedForCooling,1
;   minSpeedLayerTime,20
;   minCoolingSpeedSlowdown,30
;   increaseFanForCooling,1
;   minFanLayerTime,30
;   maxCoolingFanSpeed,50
;   increaseFanForBridging,1
;   bridgingFanSpeed,100
;   use5D,1
;   relativeEdistances,0
;   allowEaxisZeroing,1
;   independentExtruderAxes,0
;   includeM10123,0
;   stickySupport,1
;   applyToolheadOffsets,0
;   gcodeXoffset,0
;   gcodeYoffset,0
;   gcodeZoffset,0
;   overrideMachineDefinition,1
;   machineTypeOverride,0
;   strokeXoverride,230
;   strokeYoverride,230
;   strokeZoverride,250
;   originOffsetXoverride,0
;   originOffsetYoverride,0
;   originOffsetZoverride,0
;   homeXdirOverride,-1
;   homeYdirOverride,-1
;   homeZdirOverride,-1
;   flipXoverride,1
;   flipYoverride,-1
;   flipZoverride,1
;   toolheadOffsets,0,0|0,0|0,0|0,0|0,0|0,0
;   overrideFirmwareConfiguration,1
;   firmwareTypeOverride,RepRap (Marlin/Repetier/Sprinter)
;   GPXconfigOverride,r2
;   baudRateOverride,115200
;   overridePrinterModels,1
;   printerModelsOverride
;   startingGcode,G28 ; home all axes,M117 Purging Extruder...,M204 P500 T1000,M205 X10 Y10 ; set jerk x/y=10,G1 Z1.0 F3000 ; lift Z,G1 X0.2 Y25 Z0.2 F3000.0 ; move to start-line position,G92 E0 ; reset extruder,G1 X0.2 Y150.0 F1000.0 E15 ; draw 1st line,G1 X0.7 Y150.0 F3000.0 ; move to side 0.5mm,G1 X0.7 Y50 F1000.0 E30 ; draw 2nd line,G1 X0.7 Y25 F5000.0 ; quick wipe,M117 Printing!,,; Default S3D CR-10 Startup,; G28 ; home all axes,; G1 Z5 F3000 ; lift,; G1 X20 Y2 F1500 ; avoid binder clips,; G1 Z0.2 F3000 ; get ready to prime,; G92 E0 ; reset extrusion distance,; G1 X120 E10 F600 ; prime nozzle,; G1 X150 F5000 ; quick wipe,
;   layerChangeGcode,
;   retractionGcode,
;   toolChangeGcode,
;   endingGcode,M117 Print Complete!,M104 S0 ; turn off extruder,M140 S0 ; turn off bed,G1 X0 Y295 F1000 ; move finished print out front,M84 ; disable motors,M106 S0 ; turn off cooling fan,,; play song,M300 S294 P200 ;D4: 294,M300 S588 P200 ;D5: 588,M300 S440 P200 ;A4: 440,M300 S392 P200 ;G4: 392,M300 S784 P200 ;G5: 784,M300 S440 P200 ;A4: 440,M300 S740 P200 ;F#5: 740,M300 S440 P200 ;A4: 440,,; Default S3D CR-10 Ending Script,; G28 X0 ; home x axis,; M106 S0 ; turn off cooling fan,; M104 S0 ; turn off extruder,; M140 S0 ; turn off bed,; M84 ; disable motors,
;   exportFileFormat,gcode
;   celebration,0
;   celebrationSong,Star Wars
;   postProcessing,,
;   defaultSpeed,2000
;   outlineUnderspeed,0.8
;   solidInfillUnderspeed,0.9
;   supportUnderspeed,1
;   rapidXYspeed,9000
;   rapidZspeed,1002
;   minBridgingArea,50
;   bridgingExtraInflation,0
;   bridgingExtrusionMultiplier,0.9
;   bridgingSpeedMultiplier,1
;   useFixedBridgingAngle,0
;   fixedBridgingAngle,0
;   applyBridgingToPerimeters,0
;   filamentDiameters,1.75|1.75|1.75|1.75|1.75|1.75
;   filamentPricesPerKg,46|46|46|46|46|46
;   filamentDensities,1.25|1.25|1.25|1.25|1.25|1.25
;   useMinPrintHeight,0
;   minPrintHeight,0
;   useMaxPrintHeight,0
;   maxPrintHeight,0
;   useDiaphragm,0
;   diaphragmLayerInterval,20
;   robustSlicing,1
;   mergeAllIntoSolid,0
;   onlyRetractWhenCrossingOutline,0
;   retractBetweenLayers,1
;   useRetractionMinTravel,1
;   retractionMinTravel,3
;   retractWhileWiping,1
;   onlyWipeOutlines,1
;   avoidCrossingOutline,1
;   maxMovementDetourFactor,3
;   toolChangeRetractionDistance,12
;   toolChangeExtraRestartDistance,-0.5
;   toolChangeRetractionSpeed,600
;   externalThinWallType,0
;   internalThinWallType,2
;   thinWallAllowedOverlapPercentage,15
;   singleExtrusionMinLength,1
;   singleExtrusionMinPrintingWidthPercentage,50
;   singleExtrusionMaxPrintingWidthPercentage,200
;   singleExtrusionEndpointExtension,0.2
;   horizontalSizeCompensation,0
G90
M82
M106 S0
M140 S85
M190 S85
M104 S240 T0
M109 S240 T0
G28 ; home all axes
M117 Purging Extruder...
M204 P500 T1000
M205 X10 Y10 ; set jerk x/y=10
G1 Z1.0 F3000 ; lift Z
G1 X0.2 Y25 Z0.2 F3000.0 ; move to start-line position
G92 E0 ; reset extruder
G1 X0.2 Y150.0 F1000.0 E15 ; draw 1st line
G1 X0.7 Y150.0 F3000.0 ; move to side 0.5mm
G1 X0.7 Y50 F1000.0 E30 ; draw 2nd line
G1 X0.7 Y25 F5000.0 ; quick wipe
M117 Printing!
; Default S3D CR-10 Startup
; G28 ; home all axes
; G1 Z5 F3000 ; lift
; G1 X20 Y2 F1500 ; avoid binder clips
; G1 Z0.2 F3000 ; get ready to prime
; G92 E0 ; reset extrusion distance
; G1 X120 E10 F600 ; prime nozzle
; G1 X150 F5000 ; quick wipe
G92 E0
G1 E-6.5000 F3600
G1 Z0.390 F1002
; process Process1
; layer 1, Z = 0.390
T0
; tool H0.390 W0.576
; skirt
G1 X102.580 Y87.573 F9000
G1 E-0.2000 F1080
G92 E0
G1 X103.896 Y86.123 E0.1810 F1200
G1 X103.912 Y86.107 E0.1831
G1 X103.938 Y86.082 E0.1865
G1 X103.955 Y86.066 E0.1886
G1 X105.445 Y84.797 E0.3696
G1 X105.463 Y84.782 E0.3718
G1 X105.492 Y84.761 E0.3751
G1 X105.511 Y84.748 E0.3772
G1 X107.152 Y83.680 E0.5583
G1 X107.172 Y83.668 E0.5604
G1 X107.203 Y83.651 E0.5637
G1 X107.224 Y83.640 E0.5658
G1 X108.988 Y82.790 E0.7469
G1 X109.009 Y82.781 E0.7490
G1 X109.043 Y82.767 E0.7524
G1 X109.064 Y82.760 E0.7545
G1 X110.922 Y82.142 E0.9355
G1 X110.944 Y82.136 E0.9377
G1 X110.979 Y82.126 E0.9410
G1 X111.002 Y82.121 E0.9431
G1 X112.924 Y81.748 E1.1242
G1 X112.946 Y81.744 E1.1263
G1 X112.982 Y81.739 E1.1296
G1 X113.005 Y81.737 E1.1317
G1 X114.959 Y81.611 E1.3128
G1 X114.982 Y81.610 E1.3149
G1 X115.018 Y81.610 E1.3182
G1 X115.041 Y81.611 E1.3204
G1 X116.995 Y81.737 E1.5014
G1 X117.018 Y81.739 E1.5036
G1 X117.054 Y81.744 E1.5069
G1 X117.076 Y81.748 E1.5090
G1 X118.998 Y82.121 E1.6900
G1 X119.021 Y82.126 E1.6922
G1 X119.056 Y82.136 E1.6955
G1 X119.078 Y82.142 E1.6976
G1 X120.936 Y82.760 E1.8787
G1 X120.957 Y82.767 E1.8808
G1 X120.991 Y82.781 E1.8841
G1 X121.012 Y82.790 E1.8862
G1 X122.776 Y83.640 E2.0673
G1 X122.797 Y83.651 E2.0695
G1 X122.828 Y83.668 E2.0728
G1 X122.848 Y83.680 E2.0749
G1 X124.489 Y84.748 E2.2559
G1 X124.508 Y84.761 E2.2580
G1 X124.537 Y84.782 E2.2614
G1 X124.555 Y84.797 E2.2635
G1 X126.045 Y86.066 E2.4445
G1 X126.062 Y86.082 E2.4467
G1 X126.088 Y86.107 E2.4500
G1 X126.104 Y86.123 E2.4521
G1 X127.420 Y87.573 E2.6331
G1 X127.435 Y87.590 E2.6353
G1 X127.457 Y87.618 E2.6386
G1 X127.471 Y87.637 E2.6407
G1 X128.592 Y89.243 E2.8218
G1 X128.604 Y89.263 E2.8239
G1 X128.623 Y89.293 E2.8273
G1 X128.634 Y89.313 E2.8294
G1 X129.540 Y91.049 E3.0104
G1 X129.550 Y91.070 E3.0125
G1 X129.564 Y91.103 E3.0159
G1 X129.573 Y91.124 E3.0180
G1 X130.249 Y92.961 E3.1990
G1 X130.257 Y92.982 E3.2011
G1 X130.267 Y93.017 E3.2044
G1 X130.273 Y93.039 E3.2066
G1 X130.709 Y94.949 E3.3876
G1 X130.713 Y94.971 E3.3897
G1 X130.719 Y95.007 E3.3931
G1 X130.722 Y95.030 E3.3952
G1 X130.909 Y96.980 E3.5763
G1 X130.911 Y97.002 E3.5784
G1 X130.912 Y97.038 E3.5817
G1 X130.912 Y97.061 E3.5839
G1 X130.850 Y99.018 E3.7649
G1 X130.848 Y99.041 E3.7670
G1 X130.845 Y99.077 E3.7704
G1 X130.842 Y99.100 E3.7725
G1 X130.529 Y101.033 E3.9535
G1 X130.525 Y101.055 E3.9557
G1 X130.517 Y101.090 E3.9590
G1 X130.511 Y101.113 E3.9611
G1 X129.954 Y102.990 E4.1422
G1 X129.947 Y103.012 E4.1444
G1 X129.934 Y103.046 E4.1477
G1 X129.925 Y103.067 E4.1498
G1 X129.133 Y104.857 E4.3308
G1 X129.123 Y104.877 E4.3329
G1 X129.107 Y104.909 E4.3362
G1 X129.095 Y104.929 E4.3383
G1 X128.081 Y106.604 E4.5194
G1 X128.068 Y106.624 E4.5215
G1 X128.047 Y106.653 E4.5249
G1 X128.033 Y106.672 E4.5270
G1 X126.812 Y108.203 E4.7081
G1 X126.797 Y108.221 E4.7103
G1 X126.773 Y108.247 E4.7136
G1 X126.757 Y108.264 E4.7157
G1 X125.350 Y109.625 E4.8967
G1 X125.333 Y109.641 E4.8988
G1 X125.306 Y109.664 E4.9021
G1 X125.288 Y109.678 E4.9043
G1 X123.719 Y110.850 E5.0853
G1 X123.700 Y110.863 E5.0875
G1 X123.670 Y110.883 E5.0908
G1 X123.650 Y110.895 E5.0929
G1 X121.944 Y111.855 E5.2740
G1 X121.923 Y111.866 E5.2761
G1 X121.891 Y111.882 E5.2794
G1 X121.870 Y111.891 E5.2816
G1 X120.056 Y112.625 E5.4625
G1 X120.034 Y112.633 E5.4647
G1 X120.000 Y112.645 E5.4680
G1 X119.978 Y112.651 E5.4701
G1 X118.083 Y113.148 E5.6512
G1 X118.060 Y113.154 E5.6534
G1 X118.025 Y113.160 E5.6567
G1 X118.003 Y113.164 E5.6588
G1 X116.061 Y113.415 E5.8398
G1 X116.038 Y113.417 E5.8420
G1 X116.002 Y113.419 E5.8453
G1 X115.979 Y113.420 E5.8474
G1 X114.021 Y113.420 E6.0285
G1 X113.998 Y113.419 E6.0306
G1 X113.962 Y113.417 E6.0339
G1 X113.939 Y113.415 E6.0361
G1 X111.997 Y113.164 E6.2171
G1 X111.975 Y113.160 E6.2192
G1 X111.940 Y113.154 E6.2225
G1 X111.917 Y113.148 E6.2247
G1 X110.022 Y112.651 E6.4058
G1 X110.000 Y112.645 E6.4079
G1 X109.966 Y112.633 E6.4112
G1 X109.944 Y112.625 E6.4134
G1 X108.130 Y111.891 E6.5943
G1 X108.109 Y111.882 E6.5965
G1 X108.077 Y111.866 E6.5998
G1 X108.056 Y111.855 E6.6019
G1 X106.350 Y110.895 E6.7830
G1 X106.330 Y110.883 E6.7851
G1 X106.300 Y110.863 E6.7884
G1 X106.281 Y110.850 E6.7906
G1 X104.712 Y109.678 E6.9716
G1 X104.694 Y109.664 E6.9738
G1 X104.667 Y109.641 E6.9771
G1 X104.650 Y109.625 E6.9792
G1 X103.243 Y108.264 E7.1602
G1 X103.227 Y108.247 E7.1623
G1 X103.203 Y108.221 E7.1656
G1 X103.188 Y108.203 E7.1678
G1 X101.967 Y106.672 E7.3489
G1 X101.953 Y106.653 E7.3510
G1 X101.932 Y106.624 E7.3544
G1 X101.919 Y106.604 E7.3565
G1 X100.905 Y104.929 E7.5376
G1 X100.893 Y104.909 E7.5397
G1 X100.877 Y104.877 E7.5430
G1 X100.867 Y104.857 E7.5451
G1 X100.075 Y103.067 E7.7261
G1 X100.066 Y103.046 E7.7282
G1 X100.053 Y103.012 E7.7315
G1 X100.046 Y102.990 E7.7337
G1 X99.489 Y101.113 E7.9148
G1 X99.483 Y101.090 E7.9169
G1 X99.475 Y101.055 E7.9202
G1 X99.471 Y101.033 E7.9224
G1 X99.158 Y99.100 E8.1034
G1 X99.155 Y99.077 E8.1055
G1 X99.151 Y99.041 E8.1089
G1 X99.150 Y99.018 E8.1110
G1 X99.088 Y97.061 E8.2920
G1 X99.088 Y97.038 E8.2941
G1 X99.089 Y97.003 E8.2974
G1 X99.091 Y96.980 E8.2995
G1 X99.278 Y95.030 E8.4807
G1 X99.281 Y95.007 E8.4828
G1 X99.287 Y94.971 E8.4862
G1 X99.291 Y94.949 E8.4883
G1 X99.727 Y93.040 E8.6693
G1 X99.733 Y93.017 E8.6715
G1 X99.743 Y92.983 E8.6748
G1 X99.750 Y92.961 E8.6769
G1 X100.427 Y91.124 E8.8579
G1 X100.435 Y91.103 E8.8600
G1 X100.450 Y91.070 E8.8633
G1 X100.460 Y91.049 E8.8655
G1 X101.366 Y89.313 E9.0465
G1 X101.377 Y89.293 E9.0486
G1 X101.396 Y89.263 E9.0520
G1 X101.408 Y89.243 E9.0541
G1 X102.461 Y87.734 E9.2243
G1 X102.529 Y87.637 F1200
G1 X102.543 Y87.618 F1200
G1 X102.565 Y87.590 F1200
G1 X102.580 Y87.573 F1200
G92 E0
G1 E-6.5000 F3600
G1 X103.494 Y88.354 F9000
G1 X103.001 Y89.061 F9000
G1 X104.395 Y93.981 F9000
G1 X104.364 Y94.050 F9000
G1 X103.916 Y95.680 F9000
G1 X103.722 Y97.358 F9000
G1 X103.787 Y99.047 F9000
G1 X104.109 Y100.705 F9000
G1 X104.680 Y102.295 F9000
G1 X105.487 Y103.779 F9000
G1 X106.512 Y105.123 F9000
G1 X107.729 Y106.294 F9000
G1 X107.921 Y106.429 F9000
G1 X110.944 Y117.106 F9000
G1 E-0.2000 F3600
G92 E0
G1 X110.979 Y117.096 E0.0033 F1200
G1 X111.002 Y117.091 E0.0055
G1 X112.924 Y116.718 E0.1865
G1 X112.947 Y116.714 E0.1886
G1 X112.982 Y116.709 E0.1919
G1 X113.005 Y116.707 E0.1941
G1 X114.959 Y116.581 E0.3751
G1 X114.982 Y116.580 E0.3772
G1 X115.018 Y116.580 E0.3806
G1 X115.041 Y116.581 E0.3827
G1 X116.995 Y116.707 E0.5638
G1 X117.018 Y116.709 E0.5659
G1 X117.053 Y116.714 E0.5692
G1 X117.076 Y116.718 E0.5713
G1 X118.998 Y117.091 E0.7524
G1 X119.021 Y117.096 E0.7545
G1 X119.056 Y117.106 E0.7578
G1 X119.078 Y117.112 E0.7600
G1 X120.936 Y117.730 E0.9410
G1 X120.958 Y117.738 E0.9432
G1 X120.991 Y117.751 E0.9465
G1 X121.012 Y117.760 E0.9486
G1 X122.776 Y118.610 E1.1297
G1 X122.797 Y118.621 E1.1318
G1 X122.828 Y118.638 E1.1351
G1 X122.848 Y118.650 E1.1372
G1 X124.489 Y119.718 E1.3183
G1 X124.508 Y119.731 E1.3204
G1 X124.537 Y119.752 E1.3237
G1 X124.555 Y119.767 E1.3259
G1 X126.045 Y121.036 E1.5069
G1 X126.062 Y121.052 E1.5090
G1 X126.088 Y121.077 E1.5123
G1 X126.104 Y121.093 E1.5145
G1 X127.420 Y122.543 E1.6955
G1 X127.435 Y122.560 E1.6976
G1 X127.457 Y122.588 E1.7009
G1 X127.471 Y122.607 E1.7031
G1 X128.592 Y124.213 E1.8842
G1 X128.604 Y124.233 E1.8863
G1 X128.623 Y124.263 E1.8896
G1 X128.634 Y124.283 E1.8917
G1 X129.540 Y126.019 E2.0728
G1 X129.550 Y126.040 E2.0749
G1 X129.564 Y126.073 E2.0782
G1 X129.573 Y126.094 E2.0803
G1 X130.249 Y127.931 E2.2613
G1 X130.257 Y127.952 E2.2634
G1 X130.267 Y127.986 E2.2667
G1 X130.273 Y128.009 E2.2689
G1 X130.709 Y129.919 E2.4500
G1 X130.713 Y129.941 E2.4521
G1 X130.719 Y129.977 E2.4554
G1 X130.722 Y130.000 E2.4576
G1 X130.909 Y131.950 E2.6387
G1 X130.911 Y131.972 E2.6408
G1 X130.912 Y132.008 E2.6441
G1 X130.912 Y132.031 E2.6462
G1 X130.850 Y133.988 E2.8273
G1 X130.848 Y134.011 E2.8294
G1 X130.845 Y134.047 E2.8327
G1 X130.842 Y134.070 E2.8349
G1 X130.529 Y136.003 E3.0159
G1 X130.525 Y136.025 E3.0180
G1 X130.517 Y136.060 E3.0213
G1 X130.511 Y136.083 E3.0235
G1 X129.954 Y137.960 E3.2045
G1 X129.947 Y137.982 E3.2067
G1 X129.934 Y138.016 E3.2100
G1 X129.925 Y138.037 E3.2121
G1 X129.133 Y139.827 E3.3931
G1 X129.123 Y139.847 E3.3952
G1 X129.107 Y139.879 E3.3985
G1 X129.095 Y139.899 E3.4007
G1 X128.081 Y141.574 E3.5817
G1 X128.068 Y141.593 E3.5838
G1 X128.048 Y141.623 E3.5872
G1 X128.034 Y141.642 E3.5893
G1 X126.812 Y143.173 E3.7705
G1 X126.797 Y143.191 E3.7726
G1 X126.773 Y143.217 E3.7759
G1 X126.757 Y143.234 E3.7780
G1 X125.350 Y144.595 E3.9591
G1 X125.333 Y144.611 E3.9612
G1 X125.306 Y144.634 E3.9645
G1 X125.288 Y144.648 E3.9666
G1 X123.719 Y145.820 E4.1476
