; G-Code generated by Simplify3D(R) Version 4.0.0
; Nov 3, 2018 at 3:39:04 PM
; Settings Summary
;   processName,Process1
;   applyToModels,Ender_3_Beeper_Silencer
;   profileName,Travis_Fletchers_Ultimate_PETG_Profile_v2 (modified)
;   profileVersion,2018-10-27 09:00:55
;   baseProfile,Creality CR-10
;   printMaterial,PETG
;   printQuality,Fast
;   printExtruders,
;   extruderName,Primary Extruder
;   extruderToolheadNumber,0
;   extruderDiameter,0.4
;   extruderAutoWidth,1
;   extruderWidth,0.48
;   extrusionMultiplier,0.99
;   extruderUseRetract,1
;   extruderRetractionDistance,6.5
;   extruderExtraRestartDistance,-0.2
;   extruderRetractionZLift,0
;   extruderRetractionSpeed,3600
;   extruderUseCoasting,1
;   extruderCoastingDistance,0.2
;   extruderUseWipe,0
;   extruderWipeDistance,4
;   primaryExtruder,0
;   layerHeight,0.3
;   topSolidLayers,3
;   bottomSolidLayers,3
;   perimeterOutlines,3
;   printPerimetersInsideOut,1
;   startPointOption,3
;   startPointOriginX,0
;   startPointOriginY,500
;   sequentialIslands,0
;   spiralVaseMode,0
;   firstLayerHeightPercentage,130
;   firstLayerWidthPercentage,120
;   firstLayerUnderspeed,0.6
;   useRaft,0
;   raftExtruder,0
;   raftTopLayers,3
;   raftBaseLayers,2
;   raftOffset,3
;   raftSeparationDistance,0.14
;   raftTopInfill,100
;   aboveRaftSpeedMultiplier,0.3
;   useSkirt,1
;   skirtExtruder,0
;   skirtLayers,1
;   skirtOutlines,2
;   skirtOffset,0.2
;   usePrimePillar,0
;   primePillarExtruder,999
;   primePillarWidth,12
;   primePillarLocation,7
;   primePillarSpeedMultiplier,1
;   useOozeShield,0
;   oozeShieldExtruder,999
;   oozeShieldOffset,2
;   oozeShieldOutlines,1
;   oozeShieldSidewallShape,1
;   oozeShieldSidewallAngle,30
;   oozeShieldSpeedMultiplier,1
;   infillExtruder,0
;   internalInfillPattern,Grid
;   externalInfillPattern,Rectilinear
;   infillPercentage,15
;   outlineOverlapPercentage,35
;   infillExtrusionWidthPercentage,120
;   minInfillLength,4
;   infillLayerInterval,1
;   internalInfillAngles,45,-45
;   overlapInternalInfillAngles,1
;   externalInfillAngles,45,-45
;   generateSupport,1
;   supportExtruder,0
;   supportInfillPercentage,25
;   supportExtraInflation,2
;   supportBaseLayers,0
;   denseSupportExtruder,0
;   denseSupportLayers,0
;   denseSupportInfillPercentage,60
;   supportLayerInterval,1
;   supportHorizontalPartOffset,0.3
;   supportUpperSeparationLayers,2
;   supportLowerSeparationLayers,1
;   supportType,0
;   supportGridSpacing,3.5
;   maxOverhangAngle,45
;   supportAngles,0
;   temperatureName,Heated Bed,Primary Extruder
;   temperatureNumber,0,0
;   temperatureSetpointCount,1,1
;   temperatureSetpointLayers,1,1
;   temperatureSetpointTemperatures,85,240
;   temperatureStabilizeAtStartup,1,1
;   temperatureHeatedBed,1,0
;   temperatureRelayBetweenLayers,0,0
;   temperatureRelayBetweenLoops,0,0
;   fanLayers,1,2,3
;   fanSpeeds,0,25,35
;   blipFanToFullPower,0
;   adjustSpeedForCooling,1
;   minSpeedLayerTime,20
;   minCoolingSpeedSlowdown,30
;   increaseFanForCooling,1
;   minFanLayerTime,30
;   maxCoolingFanSpeed,50
;   increaseFanForBridging,1
;   bridgingFanSpeed,100
;   use5D,1
;   relativeEdistances,0
;   allowEaxisZeroing,1
;   independentExtruderAxes,0
;   includeM10123,0
;   stickySupport,1
;   applyToolheadOffsets,0
;   gcodeXoffset,0
;   gcodeYoffset,0
;   gcodeZoffset,0
;   overrideMachineDefinition,1
;   machineTypeOverride,0
;   strokeXoverride,230
;   strokeYoverride,230
;   strokeZoverride,250
;   originOffsetXoverride,0
;   originOffsetYoverride,0
;   originOffsetZoverride,0
;   homeXdirOverride,-1
;   homeYdirOverride,-1
;   homeZdirOverride,-1
;   flipXoverride,1
;   flipYoverride,-1
;   flipZoverride,1
;   toolheadOffsets,0,0|0,0|0,0|0,0|0,0|0,0
;   overrideFirmwareConfiguration,1
;   firmwareTypeOverride,RepRap (Marlin/Repetier/Sprinter)
;   GPXconfigOverride,r2
;   baudRateOverride,115200
;   overridePrinterModels,1
;   printerModelsOverride
;   startingGcode,G28 ; home all axes,M117 Purging Extruder...,M204 P500 T1000,M205 X10 Y10 ; set jerk x/y=10,G1 Z1.0 F3000 ; lift Z,G1 X0.2 Y25 Z0.2 F3000.0 ; move to start-line position,G92 E0 ; reset extruder,G1 X0.2 Y150.0 F1000.0 E15 ; draw 1st line,G1 X0.7 Y150.0 F3000.0 ; move to side 0.5mm,G1 X0.7 Y50 F1000.0 E30 ; draw 2nd line,G1 X0.7 Y25 F5000.0 ; quick wipe,M117 Printing!,,; Default S3D CR-10 Startup,; G28 ; home all axes,; G1 Z5 F3000 ; lift,; G1 X20 Y2 F1500 ; avoid binder clips,; G1 Z0.2 F3000 ; get ready to prime,; G92 E0 ; reset extrusion distance,; G1 X120 E10 F600 ; prime nozzle,; G1 X150 F5000 ; quick wipe,
;   layerChangeGcode,
;   retractionGcode,
;   toolChangeGcode,
;   endingGcode,M117 Print Complete!,M104 S0 ; turn off extruder,M140 S0 ; turn off bed,G1 X0 Y295 F1000 ; move finished print out front,M84 ; disable motors,M106 S0 ; turn off cooling fan,,; play song,M300 S294 P200 ;D4: 294,M300 S588 P200 ;D5: 588,M300 S440 P200 ;A4: 440,M300 S392 P200 ;G4: 392,M300 S784 P200 ;G5: 784,M300 S440 P200 ;A4: 440,M300 S740 P200 ;F#5: 740,M300 S440 P200 ;A4: 440,,; Default S3D CR-10 Ending Script,; G28 X0 ; home x axis,; M106 S0 ; turn off cooling fan,; M104 S0 ; turn off extruder,; M140 S0 ; turn off bed,; M84 ; disable motors,
;   exportFileFormat,gcode
;   celebration,0
;   celebrationSong,Star Wars
;   postProcessing,,
;   defaultSpeed,2000
;   outlineUnderspeed,0.8
;   solidInfillUnderspeed,0.9
;   supportUnderspeed,1
;   rapidXYspeed,9000
;   rapidZspeed,1002
;   minBridgingArea,50
;   bridgingExtraInflation,0
;   bridgingExtrusionMultiplier,0.9
;   bridgingSpeedMultiplier,1
;   useFixedBridgingAngle,0
;   fixedBridgingAngle,0
;   applyBridgingToPerimeters,0
;   filamentDiameters,1.75|1.75|1.75|1.75|1.75|1.75
;   filamentPricesPerKg,46|46|46|46|46|46
;   filamentDensities,1.25|1.25|1.25|1.25|1.25|1.25
;   useMinPrintHeight,0
;   minPrintHeight,0
;   useMaxPrintHeight,0
;   maxPrintHeight,0
;   useDiaphragm,0
;   diaphragmLayerInterval,20
;   robustSlicing,1
;   mergeAllIntoSolid,0
;   onlyRetractWhenCrossingOutline,0
;   retractBetweenLayers,1
;   useRetractionMinTravel,1
;   retractionMinTravel,3
;   retractWhileWiping,1
;   onlyWipeOutlines,1
;   avoidCrossingOutline,1
;   maxMovementDetourFactor,3
;   toolChangeRetractionDistance,12
;   toolChangeExtraRestartDistance,-0.5
;   toolChangeRetractionSpeed,600
;   externalThinWallType,0
;   internalThinWallType,2
;   thinWallAllowedOverlapPercentage,15
;   singleExtrusionMinLength,1
;   singleExtrusionMinPrintingWidthPercentage,50
;   singleExtrusionMaxPrintingWidthPercentage,200
;   singleExtrusionEndpointExtension,0.2
;   horizontalSizeCompensation,0
G90
M82
M106 S0
M140 S85
M190 S85
M104 S240 T0
M109 S240 T0
G28 ; home all axes
M117 Purging Extruder...
M204 P500 T1000
M205 X10 Y10 ; set jerk x/y=10
G1 Z1.0 F3000 ; lift Z
G1 X0.2 Y25 Z0.2 F3000.0 ; move to start-line position
G92 E0 ; reset extruder
G1 X0.2 Y150.0 F1000.0 E15 ; draw 1st line
G1 X0.7 Y150.0 F3000.0 ; move to side 0.5mm
G1 X0.7 Y50 F1000.0 E30 ; draw 2nd line
G1 X0.7 Y25 F5000.0 ; quick wipe
M117 Printing!
; Default S3D CR-10 Startup
; G28 ; home all axes
; G1 Z5 F3000 ; lift
; G1 X20 Y2 F1500 ; avoid binder clips
; G1 Z0.2 F3000 ; get ready to prime
; G92 E0 ; reset extrusion distance
; G1 X120 E10 F600 ; prime nozzle
; G1 X150 F5000 ; quick wipe
G92 E0
G1 E-6.5000 F3600
G1 Z0.390 F1002
; process Process1
; layer 1, Z = 0.390
T0
; tool H0.390 W0.576
; skirt
G1 X109.563 Y109.520 F9000
G1 E-0.2000 F1080
G92 E0
G1 X109.581 Y109.502 E0.0023 F880
G1 X109.593 Y109.491 E0.0038
G1 X110.161 Y108.986 E0.0741
G1 X110.176 Y108.974 E0.0759
G1 X110.199 Y108.955 E0.0787
G1 X110.215 Y108.943 E0.0804
G1 X110.833 Y108.502 E0.1507
G1 X110.847 Y108.493 E0.1523
G1 X110.869 Y108.479 E0.1546
G1 X110.882 Y108.470 E0.1561
G1 X111.335 Y108.206 E0.2046
G1 X111.352 Y108.196 E0.2064
G1 X111.379 Y108.183 E0.2092
G1 X111.396 Y108.174 E0.2109
G1 X112.308 Y107.766 E0.3033
G1 X112.329 Y107.757 E0.3054
G1 X112.362 Y107.745 E0.3087
G1 X112.383 Y107.738 E0.3108
G1 X113.114 Y107.514 E0.3814
G1 X113.133 Y107.509 E0.3832
G1 X113.162 Y107.502 E0.3860
G1 X113.181 Y107.498 E0.3878
G1 X113.928 Y107.355 E0.4581
G1 X113.944 Y107.353 E0.4596
G1 X113.969 Y107.349 E0.4619
G1 X113.985 Y107.347 E0.4634
G1 X114.495 Y107.297 E0.5109
G1 X114.512 Y107.295 E0.5124
G1 X114.537 Y107.294 E0.5147
G1 X114.553 Y107.294 E0.5162
G1 X115.310 Y107.287 E0.5862
G1 X115.326 Y107.287 E0.5877
G1 X115.351 Y107.288 E0.5900
G1 X115.367 Y107.289 E0.5915
G1 X115.879 Y107.330 E0.6390
G1 X115.895 Y107.332 E0.6405
G1 X115.920 Y107.335 E0.6428
G1 X115.936 Y107.337 E0.6443
G1 X116.685 Y107.466 E0.7145
G1 X116.703 Y107.470 E0.7163
G1 X116.733 Y107.477 E0.7191
G1 X116.752 Y107.482 E0.7209
G1 X117.485 Y107.691 E0.7914
G1 X117.504 Y107.697 E0.7932
G1 X117.532 Y107.707 E0.7960
G1 X117.550 Y107.714 E0.7977
G1 X118.254 Y108.000 E0.8680
G1 X118.269 Y108.006 E0.8695
G1 X118.291 Y108.016 E0.8718
G1 X118.306 Y108.024 E0.8733
G1 X118.762 Y108.259 E0.9208
G1 X118.777 Y108.267 E0.9223
G1 X118.799 Y108.279 E0.9246
G1 X118.812 Y108.287 E0.9261
G1 X119.454 Y108.694 E0.9963
G1 X119.470 Y108.705 E0.9981
G1 X119.494 Y108.723 E1.0009
G1 X119.510 Y108.734 E1.0027
G1 X120.104 Y109.208 E1.0729
G1 X120.116 Y109.218 E1.0744
G1 X120.135 Y109.235 E1.0768
G1 X120.147 Y109.246 E1.0782
G1 X120.518 Y109.601 E1.1257
G1 X120.530 Y109.612 E1.1272
G1 X120.547 Y109.630 E1.1295
G1 X120.558 Y109.642 E1.1310
G1 X121.056 Y110.212 E1.2010
G1 X121.067 Y110.225 E1.2026
G1 X121.082 Y110.245 E1.2049
G1 X121.092 Y110.257 E1.2063
G1 X121.393 Y110.672 E1.2538
G1 X121.403 Y110.686 E1.2553
G1 X121.417 Y110.707 E1.2576
G1 X121.425 Y110.720 E1.2591
G1 X121.815 Y111.373 E1.3294
G1 X121.824 Y111.390 E1.3311
G1 X121.838 Y111.416 E1.3339
G1 X121.847 Y111.434 E1.3357
G1 X122.164 Y112.124 E1.4060
G1 X122.171 Y112.139 E1.4075
G1 X122.180 Y112.162 E1.4098
G1 X122.186 Y112.177 E1.4113
G1 X122.358 Y112.661 E1.4587
G1 X122.363 Y112.676 E1.4602
G1 X122.370 Y112.700 E1.4626
G1 X122.374 Y112.716 E1.4641
G1 X122.563 Y113.452 E1.5343
G1 X122.568 Y113.471 E1.5361
G1 X122.573 Y113.500 E1.5389
G1 X122.577 Y113.519 E1.5407
G1 X122.686 Y114.274 E1.6112
G1 X122.688 Y114.293 E1.6129
G1 X122.691 Y114.323 E1.6157
G1 X122.692 Y114.342 E1.6175
G1 X122.719 Y115.104 E1.6880
G1 X122.720 Y115.123 E1.6898
G1 X122.719 Y115.153 E1.6926
G1 X122.718 Y115.173 E1.6944
G1 X122.663 Y115.933 E1.7649
G1 X122.662 Y115.953 E1.7667
G1 X122.658 Y115.983 E1.7694
G1 X122.655 Y116.002 E1.7712
G1 X122.519 Y116.749 E1.8415
G1 X122.516 Y116.765 E1.8429
G1 X122.510 Y116.789 E1.8453
G1 X122.506 Y116.805 E1.8468
G1 X122.370 Y117.298 E1.8940
G1 X122.367 Y117.310 E1.8952
G1 X122.361 Y117.329 E1.8971
G1 X122.357 Y117.342 E1.8983
G1 X122.186 Y117.823 E1.9455
G1 X122.180 Y117.838 E1.9470
G1 X122.171 Y117.861 E1.9493
G1 X122.164 Y117.876 E1.9508
G1 X121.847 Y118.566 E2.0211
G1 X121.838 Y118.584 E2.0229
G1 X121.824 Y118.610 E2.0256
G1 X121.815 Y118.627 E2.0274
G1 X121.424 Y119.282 E2.0979
G1 X121.413 Y119.298 E2.0997
G1 X121.397 Y119.323 E2.1025
G1 X121.385 Y119.339 E2.1043
G1 X120.926 Y119.947 E2.1748
G1 X120.914 Y119.963 E2.1766
G1 X120.895 Y119.986 E2.1793
G1 X120.882 Y120.000 E2.1811
G1 X120.360 Y120.556 E2.2516
G1 X120.346 Y120.570 E2.2534
G1 X120.324 Y120.591 E2.2562
G1 X120.310 Y120.603 E2.2580
G1 X119.734 Y121.098 E2.3282
G1 X119.721 Y121.108 E2.3297
G1 X119.702 Y121.124 E2.3320
G1 X119.689 Y121.133 E2.3335
G1 X119.271 Y121.431 E2.3810
G1 X119.257 Y121.440 E2.3825
G1 X119.236 Y121.454 E2.3848
G1 X119.222 Y121.463 E2.3863
G1 X118.567 Y121.847 E2.4566
G1 X118.549 Y121.856 E2.4584
G1 X118.523 Y121.870 E2.4612
G1 X118.505 Y121.878 E2.4630
G1 X117.810 Y122.190 E2.5334
G1 X117.792 Y122.198 E2.5352
G1 X117.764 Y122.208 E2.5380
G1 X117.746 Y122.215 E2.5398
G1 X117.023 Y122.450 E2.6100
G1 X117.008 Y122.454 E2.6115
G1 X116.983 Y122.461 E2.6138
G1 X116.968 Y122.465 E2.6154
G1 X116.467 Y122.579 E2.6628
G1 X116.452 Y122.582 E2.6643
G1 X116.427 Y122.587 E2.6666
G1 X116.411 Y122.590 E2.6681
G1 X115.658 Y122.692 E2.7384
G1 X115.639 Y122.694 E2.7402
G1 X115.609 Y122.696 E2.7430
G1 X115.589 Y122.697 E2.7447
G1 X114.830 Y122.718 E2.8150
G1 X114.814 Y122.718 E2.8165
G1 X114.788 Y122.717 E2.8188
G1 X114.772 Y122.717 E2.8203
G1 X114.260 Y122.684 E2.8678
G1 X114.244 Y122.683 E2.8692
G1 X114.219 Y122.680 E2.8716
G1 X114.203 Y122.678 E2.8731
G1 X113.452 Y122.563 E2.9433
G1 X113.433 Y122.559 E2.9451
G1 X113.403 Y122.553 E2.9479
G1 X113.384 Y122.548 E2.9497
G1 X112.648 Y122.352 E3.0202
G1 X112.629 Y122.347 E3.0220
G1 X112.601 Y122.338 E3.0248
G1 X112.582 Y122.331 E3.0266
G1 X111.871 Y122.057 E3.0970
G1 X111.853 Y122.049 E3.0988
G1 X111.826 Y122.037 E3.1016
G1 X111.808 Y122.029 E3.1034
G1 X111.131 Y121.679 E3.1739
G1 X111.113 Y121.670 E3.1757
G1 X111.087 Y121.655 E3.1785
G1 X111.071 Y121.645 E3.1803
G1 X110.437 Y121.226 E3.2505
G1 X110.424 Y121.217 E3.2520
G1 X110.404 Y121.202 E3.2543
G1 X110.391 Y121.192 E3.2558
G1 X109.989 Y120.872 E3.3033
G1 X109.977 Y120.862 E3.3048
G1 X109.958 Y120.845 E3.3071
G1 X109.946 Y120.834 E3.3086
G1 X109.397 Y120.309 E3.3788
G1 X109.383 Y120.295 E3.3807
G1 X109.362 Y120.273 E3.3835
G1 X109.350 Y120.259 E3.3852
G1 X108.860 Y119.678 E3.4554
G1 X108.850 Y119.666 E3.4569
G1 X108.835 Y119.646 E3.4592
G1 X108.825 Y119.633 E3.4608
G1 X108.531 Y119.212 E3.5082
G1 X108.522 Y119.199 E3.5097
G1 X108.509 Y119.177 E3.5120
G1 X108.500 Y119.164 E3.5135
G1 X108.122 Y118.504 E3.5838
G1 X108.113 Y118.487 E3.5856
G1 X108.100 Y118.461 E3.5884
G1 X108.091 Y118.443 E3.5902
G1 X107.785 Y117.745 E3.6606
G1 X107.778 Y117.727 E3.6624
G1 X107.768 Y117.699 E3.6652
G1 X107.761 Y117.680 E3.6670
G1 X107.533 Y116.956 E3.7373
G1 X107.528 Y116.940 E3.7387
G1 X107.522 Y116.916 E3.7411
G1 X107.518 Y116.900 E3.7426
G1 X107.408 Y116.398 E3.7900
G1 X107.405 Y116.382 E3.7915
G1 X107.401 Y116.358 E3.7939
G1 X107.399 Y116.342 E3.7954
G1 X107.304 Y115.591 E3.8654
G1 X107.302 Y115.574 E3.8669
G1 X107.300 Y115.549 E3.8692
G1 X107.299 Y115.533 E3.8707
G1 X107.281 Y115.020 E3.9181
G1 X107.280 Y115.004 E3.9196
G1 X107.281 Y114.979 E3.9219
G1 X107.281 Y114.963 E3.9234
G1 X107.322 Y114.204 E3.9937
G1 X107.324 Y114.185 E3.9955
G1 X107.327 Y114.155 E3.9983
G1 X107.330 Y114.136 E4.0001
G1 X107.452 Y113.384 E4.0705
G1 X107.456 Y113.365 E4.0723
G1 X107.462 Y113.335 E4.0751
G1 X107.467 Y113.316 E4.0769
G1 X107.669 Y112.584 E4.1472
G1 X107.674 Y112.568 E4.1486
G1 X107.681 Y112.545 E4.1510
G1 X107.687 Y112.529 E4.1525
G1 X107.867 Y112.049 E4.1999
G1 X107.873 Y112.034 E4.2014
G1 X107.883 Y112.011 E4.2038
G1 X107.890 Y111.996 E4.2052
G1 X108.219 Y111.311 E4.2755
G1 X108.228 Y111.294 E4.2773
G1 X108.243 Y111.268 E4.2801
G1 X108.253 Y111.251 E4.2819
G1 X108.655 Y110.604 E4.3523
G1 X108.666 Y110.587 E4.3542
G1 X108.683 Y110.563 E4.3569
G1 X108.695 Y110.547 E4.3587
G1 X109.163 Y109.949 E4.4290
G1 X109.173 Y109.937 E4.4304
G1 X109.190 Y109.918 E4.4328
G1 X109.200 Y109.905 E4.4343
G1 X109.426 Y109.665 E4.4647
G1 X109.552 Y109.531 F880
G1 X109.563 Y109.520 F880
G1 X109.902 Y109.860 F9000
G92 E0
G1 X109.912 Y109.850 E0.0013 F880
G1 X109.916 Y109.846 E0.0018
G1 X110.475 Y109.349 E0.0710
G1 X110.480 Y109.345 E0.0716
G1 X110.493 Y109.334 E0.0732
G1 X110.498 Y109.330 E0.0738
G1 X111.107 Y108.896 E0.1429
G1 X111.112 Y108.893 E0.1434
G1 X111.124 Y108.885 E0.1448
G1 X111.129 Y108.882 E0.1453
G1 X111.572 Y108.624 E0.1927
G1 X111.577 Y108.621 E0.1933
G1 X111.593 Y108.613 E0.1949
G1 X111.598 Y108.610 E0.1955
G1 X112.498 Y108.207 E0.2866
G1 X112.505 Y108.204 E0.2873
G1 X112.523 Y108.197 E0.2891
G1 X112.530 Y108.194 E0.2898
G1 X113.248 Y107.975 E0.3592
G1 X113.255 Y107.974 E0.3598
G1 X113.271 Y107.970 E0.3614
G1 X113.278 Y107.968 E0.3620
G1 X114.012 Y107.828 E0.4312
G1 X114.018 Y107.827 E0.4317
G1 X114.032 Y107.825 E0.4330
G1 X114.037 Y107.824 E0.4335
G1 X114.537 Y107.775 E0.4800
G1 X114.543 Y107.774 E0.4805
G1 X114.557 Y107.774 E0.4818
G1 X114.562 Y107.773 E0.4823
G1 X115.309 Y107.767 E0.5513
G1 X115.314 Y107.767 E0.5518
G1 X115.329 Y107.767 E0.5531
G1 X115.334 Y107.768 E0.5536
G1 X115.835 Y107.808 E0.6001
G1 X115.840 Y107.809 E0.6006
