; G-Code generated by Simplify3D(R) Version 3.1.1
; Oct 28, 2018 at 9:32:36 PM
; Settings Summary
;   processName,Process1
;   applyToModels,FitBit725c
;   profileName,Travis_Fletchers_Ultimate_PETG_Profile_v2
;   profileVersion,2018-10-27 09:00:55
;   baseProfile,Creality CR-10
;   printMaterial,PETG
;   printQuality,Fast
;   printExtruders,
;   extruderName,Primary Extruder
;   extruderToolheadNumber,0
;   extruderDiameter,0.4
;   extruderAutoWidth,0
;   extruderWidth,0.4
;   extrusionMultiplier,0.99
;   extruderUseRetract,1
;   extruderRetractionDistance,6.5
;   extruderExtraRestartDistance,-0.2
;   extruderRetractionZLift,0
;   extruderRetractionSpeed,3600
;   extruderUseCoasting,1
;   extruderCoastingDistance,0.2
;   extruderUseWipe,0
;   extruderWipeDistance,4
;   primaryExtruder,0
;   layerHeight,0.3
;   topSolidLayers,3
;   bottomSolidLayers,3
;   perimeterOutlines,3
;   printPerimetersInsideOut,1
;   startPointOption,3
;   startPointOriginX,0
;   startPointOriginY,500
;   startPointOriginZ,0
;   sequentialIslands,0
;   spiralVaseMode,0
;   firstLayerHeightPercentage,130
;   firstLayerWidthPercentage,120
;   firstLayerUnderspeed,0.6
;   useRaft,0
;   raftExtruder,0
;   raftLayers,3
;   raftOffset,3
;   raftSeparationDistance,0.14
;   raftInfill,85
;   disableRaftBaseLayers,0
;   useSkirt,0
;   skirtExtruder,0
;   skirtLayers,1
;   skirtOutlines,10
;   skirtOffset,0.2
;   usePrimePillar,0
;   primePillarExtruder,999
;   primePillarWidth,12
;   primePillarLocation,7
;   primePillarSpeedMultiplier,1
;   useOozeShield,0
;   oozeShieldExtruder,999
;   oozeShieldOffset,2
;   oozeShieldOutlines,1
;   oozeShieldSidewallShape,1
;   oozeShieldSidewallAngle,30
;   oozeShieldSpeedMultiplier,1
;   infillExtruder,0
;   internalInfillPattern,Grid
;   externalInfillPattern,Rectilinear
;   infillPercentage,15
;   outlineOverlapPercentage,35
;   infillExtrusionWidthPercentage,120
;   minInfillLength,4
;   infillLayerInterval,1
;   infillAngles,45,-45
;   overlapInfillAngles,1
;   generateSupport,1
;   supportExtruder,0
;   supportInfillPercentage,25
;   supportExtraInflation,2
;   denseSupportLayers,0
;   denseSupportInfillPercentage,60
;   supportLayerInterval,1
;   supportHorizontalPartOffset,0.3
;   supportUpperSeparationLayers,2
;   supportLowerSeparationLayers,1
;   supportType,0
;   supportGridSpacing,3.5
;   maxOverhangAngle,45
;   supportAngles,0
;   temperatureName,Heated Bed,Primary Extruder
;   temperatureNumber,0,0
;   temperatureSetpointCount,1,1
;   temperatureSetpointLayers,1,1
;   temperatureSetpointTemperatures,85,240
;   temperatureStabilizeAtStartup,1,1
;   temperatureHeatedBed,1,0
;   temperatureRelayBetweenLayers,0,0
;   temperatureRelayBetweenLoops,0,0
;   fanLayers,1,2,3
;   fanSpeeds,0,25,35
;   blipFanToFullPower,0
;   adjustSpeedForCooling,1
;   minSpeedLayerTime,20
;   minCoolingSpeedSlowdown,30
;   increaseFanForCooling,1
;   minFanLayerTime,30
;   maxCoolingFanSpeed,50
;   increaseFanForBridging,1
;   bridgingFanSpeed,100
;   use5D,1
;   relativeEdistances,0
;   allowEaxisZeroing,1
;   independentExtruderAxes,0
;   includeM10123,0
;   stickySupport,1
;   applyToolheadOffsets,0
;   gcodeXoffset,0
;   gcodeYoffset,0
;   gcodeZoffset,0
;   overrideMachineDefinition,1
;   machineTypeOverride,0
;   strokeXoverride,230
;   strokeYoverride,230
;   strokeZoverride,250
;   originOffsetXoverride,0
;   originOffsetYoverride,0
;   originOffsetZoverride,0
;   homeXdirOverride,-1
;   homeYdirOverride,-1
;   homeZdirOverride,-1
;   flipXoverride,1
;   flipYoverride,-1
;   flipZoverride,1
;   toolheadOffsets,0,0|0,0|0,0|0,0|0,0|0,0
;   overrideFirmwareConfiguration,1
;   firmwareTypeOverride,RepRap (Marlin/Repetier/Sprinter)
;   GPXconfigOverride,r2
;   baudRateOverride,115200
;   overridePrinterModels,1
;   printerModelsOverride
;   startingGcode,G28 ; home all axes,M117 Purging Extruder...,;M204 P800 T3000 R9000 ; printing =800ms, travel 3000 retract 9000,M205 T0 X1 Y1 ; Set Jerk ; T0 = Extruder (adjust as needed for multi-extruder mahcines) ; X1/Y1 = Jerk of 1 (lowest value) with a rate of up to 20 (which I believe is the highest value and default),G1 Z1.0 F3000 ; lift Z,G1 X0.2 Y25 Z0.2 F3000.0 ; move to start-line position,G92 E0 ; reset extruder,G1 X0.2 Y150.0 F1000.0 E15 ; draw 1st line,G1 X0.7 Y150.0 F3000.0 ; move to side 0.5mm,G1 X0.7 Y50 F1000.0 E30 ; draw 2nd line,G1 X0.7 Y25 F5000.0 ; quick wipe,M117 Printing!,,; Default S3D CR-10 Startup,; G28 ; home all axes,; G1 Z5 F3000 ; lift,; G1 X20 Y2 F1500 ; avoid binder clips,; G1 Z0.2 F3000 ; get ready to prime,; G92 E0 ; reset extrusion distance,; G1 X120 E10 F600 ; prime nozzle,; G1 X150 F5000 ; quick wipe,
;   layerChangeGcode,
;   retractionGcode,
;   toolChangeGcode,
;   endingGcode,M117 Print Complete!,M104 S0 ; turn off extruder,M140 S0 ; turn off bed,G1 X0 Y295 F1000 ; move finished print out front,M84 ; disable motors,M106 S0 ; turn off cooling fan,,; play song,M300 S294 P200 ;D4: 294,M300 S588 P200 ;D5: 588,M300 S440 P200 ;A4: 440,M300 S392 P200 ;G4: 392,M300 S784 P200 ;G5: 784,M300 S440 P200 ;A4: 440,M300 S740 P200 ;F#5: 740,M300 S440 P200 ;A4: 440,,; Default S3D CR-10 Ending Script,; G28 X0 ; home x axis,; M106 S0 ; turn off cooling fan,; M104 S0 ; turn off extruder,; M140 S0 ; turn off bed,; M84 ; disable motors,
;   exportFileFormat,gcode
;   celebration,0
;   celebrationSong,Star Wars
;   postProcessing,{REPLACE "; outer perimeter\n" "; outer perimeter\nM204 S600\n"},{REPLACE "; inner perimeter\n" "; inner perimeter\nM204 S1200\n"},{REPLACE "; solid layer\n" "; solid layer\nM204 S1000\n"},{REPLACE "; infill\n" "; infill\nM204 S2000\n"}
;   defaultSpeed,1500
;   outlineUnderspeed,0.8
;   solidInfillUnderspeed,0.9
;   supportUnderspeed,1
;   rapidXYspeed,9000
;   rapidZspeed,1002
;   minBridgingArea,50
;   bridgingExtraInflation,0
;   bridgingExtrusionMultiplier,0.9
;   bridgingSpeedMultiplier,1
;   filamentDiameter,1.75
;   filamentPricePerKg,46
;   filamentDensity,1.25
;   useMinPrintHeight,0
;   minPrintHeight,0
;   useMaxPrintHeight,0
;   maxPrintHeight,0
;   useDiaphragm,0
;   diaphragmLayerInterval,20
;   robustSlicing,1
;   mergeAllIntoSolid,0
;   onlyRetractWhenCrossingOutline,0
;   retractBetweenLayers,1
;   useRetractionMinTravel,1
;   retractionMinTravel,3
;   retractWhileWiping,1
;   onlyWipeOutlines,1
;   avoidCrossingOutline,1
;   maxMovementDetourFactor,3
;   toolChangeRetractionDistance,12
;   toolChangeExtraRestartDistance,-0.5
;   toolChangeRetractionSpeed,600
;   allowThinWallGapFill,1
;   thinWallAllowedOverlapPercentage,15
;   horizontalSizeCompensation,0
G90
M82
M106 S0
M140 S85
M190 S85
M104 S240 T0
M109 S240 T0
G28 ; home all axes
M117 Purging Extruder...
;M204 P800 T3000 R9000 ; printing =800ms
 travel 3000 retract 9000
M205 T0 X1 Y1 ; Set Jerk ; T0 = Extruder (adjust as needed for multi-extruder mahcines) ; X1/Y1 = Jerk of 1 (lowest value) with a rate of up to 20 (which I believe is the highest value and default)
G1 Z1.0 F3000 ; lift Z
G1 X0.2 Y25 Z0.2 F3000.0 ; move to start-line position
G92 E0 ; reset extruder
G1 X0.2 Y150.0 F1000.0 E15 ; draw 1st line
G1 X0.7 Y150.0 F3000.0 ; move to side 0.5mm
G1 X0.7 Y50 F1000.0 E30 ; draw 2nd line
G1 X0.7 Y25 F5000.0 ; quick wipe
M117 Printing!
; Default S3D CR-10 Startup
; G28 ; home all axes
; G1 Z5 F3000 ; lift
; G1 X20 Y2 F1500 ; avoid binder clips
; G1 Z0.2 F3000 ; get ready to prime
; G92 E0 ; reset extrusion distance
; G1 X120 E10 F600 ; prime nozzle
; G1 X150 F5000 ; quick wipe
G92 E0
G1 E-6.5000 F3600
G1 Z0.390 F1002
; layer 1, Z = 0.39
T0
; tool H0.390 W0.480
; inner perimeter
M204 S1200
G1 X108.542 Y13.720 F9000
G1 E-0.2000 F1080
G92 E0
G1 X110.515 Y13.720 E0.1520 F840
G1 X109.733 Y14.305 E0.2273
G1 X109.080 Y15.949 E0.3636
G1 X109.734 Y17.593 E0.4999
G1 X111.163 Y18.662 E0.6374
G1 X112.976 Y19.268 E0.7847
G1 X115.000 Y19.469 E0.9414
G1 X117.024 Y19.268 E1.0982
G1 X118.837 Y18.662 E1.2454
G1 X120.266 Y17.593 E1.3830
G1 X120.920 Y15.949 E1.5193
G1 X120.267 Y14.305 E1.6556
G1 X119.485 Y13.720 E1.7308
G1 X121.458 Y13.720 E1.8829
G1 X121.458 Y21.907 E2.5137
G1 X119.300 Y21.907 E2.6800
G1 X119.300 Y26.822 E3.0587
G1 X117.700 Y26.822 E3.1820
G1 X117.700 Y21.907 E3.5606
G1 X112.300 Y21.907 E3.9767
G1 X112.300 Y26.822 E4.3554
G1 X110.700 Y26.822 E4.4787
G1 X110.700 Y21.907 E4.8574
G1 X108.542 Y21.907 E5.0236
G1 X108.542 Y13.920 E5.6390
G1 X108.542 Y13.720 F840
; inner perimeter
M204 S1200
G1 X108.062 Y13.240 F9000
G92 E0
G1 X111.566 Y13.240 E0.2699 F780
G1 X111.566 Y13.607 E0.2982
G1 X111.389 Y13.666 E0.3126
G1 X110.129 Y14.608 E0.4338
G1 X109.596 Y15.949 E0.5449
G1 X110.129 Y17.289 E0.6561
G1 X111.388 Y18.232 E0.7772
G1 X113.077 Y18.796 E0.9144
G1 X115.000 Y18.987 E1.0633
G1 X116.923 Y18.796 E1.2122
G1 X118.611 Y18.232 E1.3494
G1 X119.871 Y17.289 E1.4705
G1 X120.404 Y15.949 E1.5817
G1 X119.871 Y14.608 E1.6929
G1 X118.612 Y13.666 E1.8140
G1 X118.181 Y13.522 E1.8490
G1 X118.227 Y13.240 E1.8710
G1 X121.938 Y13.240 E2.1570
G1 X121.938 Y21.327 E2.7801
G1 X121.980 Y21.327 E2.7833
G1 X121.980 Y22.387 E2.8650
G1 X119.780 Y22.387 E3.0345
G1 X119.780 Y27.135 E3.4004
G1 X119.753 Y27.302 E3.4133
G1 X117.246 Y27.302 E3.6065
G1 X117.220 Y27.135 E3.6195
G1 X117.220 Y22.387 E3.9854
G1 X112.780 Y22.387 E4.3275
G1 X112.780 Y27.135 E4.6933
G1 X112.753 Y27.302 E4.7063
G1 X110.246 Y27.302 E4.8995
G1 X110.220 Y27.135 E4.9125
G1 X110.220 Y22.387 E5.2783
G1 X108.020 Y22.387 E5.4478
G1 X108.020 Y21.327 E5.5295
G1 X108.062 Y21.327 E5.5327
G1 X108.062 Y13.440 E6.1404
G1 X108.062 Y13.240 F780
; outer perimeter
M204 S600
G1 X107.582 Y12.760 F9000
G92 E0
G1 X112.046 Y12.760 E0.3439 F720
G1 X112.046 Y13.953 E0.4358
G1 X111.614 Y14.097 E0.4709
G1 X110.525 Y14.911 E0.5756
G1 X110.113 Y15.949 E0.6617
G1 X110.525 Y16.986 E0.7477
G1 X111.614 Y17.801 E0.8524
G1 X113.178 Y18.323 E0.9795
G1 X115.000 Y18.505 E1.1206
G1 X116.822 Y18.323 E1.2616
G1 X118.386 Y17.801 E1.3887
G1 X119.475 Y16.986 E1.4935
G1 X119.887 Y15.949 E1.5795
G1 X119.475 Y14.911 E1.6655
G1 X118.386 Y14.097 E1.7703
G1 X117.154 Y13.685 E1.8703
G1 X117.154 Y12.760 E1.9416
G1 X122.418 Y12.760 E2.3472
G1 X122.418 Y20.847 E2.9703
G1 X122.460 Y20.847 E2.9735
G1 X122.460 Y22.867 E3.1291
G1 X120.260 Y22.867 E3.2986
G1 X120.260 Y27.173 E3.6304
G1 X120.191 Y27.607 E3.6643
G1 X120.219 Y27.782 E3.6779
G1 X116.781 Y27.782 E3.9428
G1 X116.809 Y27.607 E3.9564
G1 X116.740 Y27.173 E3.9902
G1 X116.740 Y22.867 E4.3220
G1 X113.260 Y22.867 E4.5902
G1 X113.260 Y27.173 E4.9220
G1 X113.191 Y27.607 E4.9558
G1 X113.219 Y27.782 E4.9695
G1 X109.781 Y27.782 E5.2343
G1 X109.809 Y27.607 E5.2480
G1 X109.740 Y27.173 E5.2818
G1 X109.740 Y22.867 E5.6136
G1 X107.540 Y22.867 E5.7831
G1 X107.540 Y20.847 E5.9387
G1 X107.582 Y20.847 E5.9420
G1 X107.582 Y12.960 E6.5497
G1 X107.582 Y12.760 F720
G92 E0
G1 E-6.5000 F3600
; gap fill
G1 X117.615 Y13.077 F9000
G1 E-0.2000 F3600
G92 E0
G1 X117.751 Y13.212 E0.0147 F810
G1 X117.892 Y13.353 F810
; solid layer
M204 S1000
G1 X120.607 Y14.032 F9000
G92 E0
G1 X121.146 Y14.571 E0.0587 F810
G1 X121.146 Y15.250 E0.1110
G1 X121.008 Y15.112 E0.1260
G1 X120.867 Y14.971 F810
G1 X121.037 Y16.499 F9000
G92 E0
G1 X121.146 Y16.607 E0.0118 F810
G1 X121.146 Y17.286 E0.0641
G1 X120.844 Y16.984 E0.0970
G1 X120.651 Y17.470 E0.1373
G1 X121.146 Y17.965 E0.1913
G1 X121.146 Y18.644 E0.2436
G1 X120.391 Y17.889 E0.3258
G1 X120.003 Y18.180 E0.3632
G1 X121.146 Y19.323 E0.4878
G1 X121.146 Y20.002 E0.5401
G1 X119.615 Y18.470 E0.7070
G1 X119.226 Y18.761 E0.7444
G1 X121.146 Y20.681 E0.9536
G1 X121.146 Y21.359 E1.0059
G1 X118.793 Y19.006 E1.2623
G1 X118.284 Y19.176 E1.3036
G1 X120.703 Y21.595 E1.5672
G1 X120.024 Y21.595 E1.6195
G1 X117.775 Y19.346 E1.8646
G1 X117.266 Y19.516 E1.9059
G1 X119.345 Y21.595 E2.1325
G1 X118.988 Y21.595 E2.1600
G1 X118.988 Y21.916 E2.1848
G1 X116.687 Y19.615 E2.4355
G1 X116.069 Y19.676 E2.4834
G1 X117.988 Y21.595 E2.6924
G1 X117.309 Y21.595 E2.7447
G1 X115.452 Y19.738 E2.9471
G1 X115.000 Y19.783 E2.9821
G1 X114.798 Y19.763 E2.9977
G1 X116.630 Y21.595 E3.1974
G1 X115.951 Y21.595 E3.2497
G1 X114.044 Y19.688 E3.4575
G1 X113.290 Y19.613 E3.5159
G1 X115.273 Y21.595 E3.7318
G1 X114.594 Y21.595 E3.7841
G1 X112.405 Y19.406 E4.0227
G1 X111.385 Y19.066 E4.1055
G1 X113.915 Y21.595 E4.3811
G1 X113.236 Y21.595 E4.4334
G1 X108.854 Y17.213 E4.9109
G1 X108.854 Y16.534 E4.9632
G1 X108.916 Y16.596 E4.9699
G1 X109.058 Y16.738 F810
G1 X108.854 Y17.892 F9000
G92 E0
G1 X112.557 Y21.595 E0.4035 F810
G1 X111.988 Y21.595 E0.4474
G1 X111.988 Y21.705 E0.4558
G1 X108.854 Y18.571 E0.7973
G1 X108.854 Y19.250 E0.8496
G1 X111.988 Y22.383 E1.1911
G1 X111.988 Y23.062 E1.2434
G1 X111.012 Y22.086 E1.3497
G1 X111.012 Y21.595 E1.3876
G1 X110.521 Y21.595 E1.4254
G1 X108.854 Y19.928 E1.6070
G1 X108.854 Y20.607 E1.6593
G1 X109.842 Y21.595 E1.7670
G1 X109.163 Y21.595 E1.8193
G1 X108.996 Y21.427 E1.8375
G1 X108.854 Y21.286 F810
G1 X111.012 Y22.765 F9000
G92 E0
G1 X111.988 Y23.741 E0.1064 F810
G1 X111.988 Y24.420 E0.1587
G1 X111.012 Y23.444 E0.2650
G1 X111.012 Y24.123 E0.3173
G1 X111.988 Y25.099 E0.4237
G1 X111.988 Y25.778 E0.4760
G1 X111.012 Y24.802 E0.5823
G1 X111.012 Y25.480 E0.6346
G1 X111.988 Y26.456 E0.7410
G1 X111.988 Y26.510 E0.7451
G1 X111.363 Y26.510 E0.7933
G1 X111.153 Y26.301 E0.8161
G1 X111.012 Y26.159 F810
G92 E0
G1 E-6.5000 F3600
G1 X113.265 Y26.227 F9000
G1 X113.265 Y22.872 F9000
G1 X116.735 Y22.872 F9000
G1 X116.735 Y26.332 F9000
G1 X118.012 Y26.371 F9000
G1 E-0.2000 F3600
G92 E0
G1 X118.151 Y26.510 E0.0151 F810
G1 X118.830 Y26.510 E0.0674
G1 X118.012 Y25.692 E0.1565
G1 X118.012 Y25.013 E0.2088
G1 X118.988 Y25.989 E0.3152
G1 X118.988 Y25.310 E0.3675
G1 X118.012 Y24.334 E0.4738
G1 X118.012 Y23.656 E0.5261
G1 X118.988 Y24.632 E0.6325
G1 X118.988 Y23.953 E0.6848
G1 X118.012 Y22.977 E0.7911
G1 X118.012 Y22.298 E0.8434
G1 X118.988 Y23.274 E0.9498
G1 X118.988 Y22.595 E1.0021
G1 X118.153 Y21.761 E1.0930
G1 X118.012 Y21.619 F810
G92 E0
G1 E-6.5000 F3600
G1 X113.308 Y18.331 F9000
G1 X113.179 Y18.319 F9000
G1 X111.616 Y17.797 F9000
G1 X110.529 Y16.983 F9000
G1 X110.202 Y16.161 F9000
G1 X108.995 Y15.317 F9000
G1 E-0.2000 F3600
G92 E0
G1 X108.854 Y15.177 E0.0153 F810
G1 X108.854 Y14.498 E0.0676
G1 X109.188 Y14.832 E0.1040
G1 X109.381 Y14.346 E0.1443
G1 X109.209 Y14.173 E0.1631
G1 X109.067 Y14.032 F810
G92 E0
G1 E-6.5000 F3600
; inner perimeter
M204 S1200
G1 X108.807 Y22.872 F9000
G1 X109.735 Y22.872 F9000
G1 X109.735 Y27.174 F9000
G1 X109.804 Y27.607 F9000
G1 X109.776 Y27.787 F9000
G1 X108.500 Y33.307 F9000
G1 E-0.2000 F3600
G92 E0
G1 X121.500 Y33.307 E1.0017 F840
G1 X121.500 Y34.907 E1.1249
G1 X119.300 Y34.907 E1.2944
G1 X119.300 Y39.822 E1.6731
G1 X117.700 Y39.822 E1.7964
G1 X117.700 Y34.907 E2.1751
G1 X112.300 Y34.907 E2.5912
G1 X112.300 Y39.822 E2.9699
G1 X110.700 Y39.822 E3.0931
G1 X110.700 Y34.907 E3.4718
G1 X108.500 Y34.907 E3.6413
G1 X108.500 Y33.507 E3.7492
G1 X108.500 Y33.307 F840
; inner perimeter
M204 S1200
G1 X108.020 Y32.827 F9000
G92 E0
G1 X121.980 Y32.827 E1.0756 F780
G1 X121.980 Y35.387 E1.2729
G1 X119.780 Y35.387 E1.4424
G1 X119.780 Y40.135 E1.8082
G1 X119.754 Y40.302 E1.8212
G1 X117.246 Y40.302 E2.0144
G1 X117.220 Y40.135 E2.0274
G1 X117.220 Y35.387 E2.3932
G1 X112.780 Y35.387 E2.7354
G1 X112.780 Y40.135 E3.1012
G1 X112.754 Y40.302 E3.1142
G1 X110.246 Y40.302 E3.3074
G1 X110.220 Y40.135 E3.3204
G1 X110.220 Y35.387 E3.6862
G1 X108.020 Y35.387 E3.8557
G1 X108.020 Y33.027 E4.0376
G1 X108.020 Y32.827 F780
G92 E0
G1 E-6.5000 F3600
; outer perimeter
M204 S600
G1 X107.540 Y27.432 F9000
G1 E-0.2000 F3600
G92 E0
G1 X108.495 Y27.432 E0.0736 F720
G1 X108.523 Y27.607 E0.0872
G1 X108.460 Y28.003 E0.1181
G1 X108.460 Y32.347 E0.4528
G1 X114.540 Y32.347 E0.9213
G1 X114.540 Y28.003 E1.2560
G1 X114.477 Y27.607 E1.2869
G1 X114.505 Y27.432 E1.3005
G1 X115.495 Y27.432 E1.3768
G1 X115.523 Y27.607 E1.3905
G1 X115.460 Y28.003 E1.4214
G1 X115.460 Y32.347 E1.7561
G1 X121.540 Y32.347 E2.2245
G1 X121.540 Y28.003 E2.5593
G1 X121.477 Y27.607 E2.5902
G1 X121.505 Y27.432 E2.6038
G1 X122.460 Y27.432 E2.6774
G1 X122.460 Y35.867 E3.3273
G1 X120.260 Y35.867 E3.4968
