; G-Code generated by Simplify3D(R) Version 4.0.0
; Nov 6, 2018 at 6:01:00 PM
; Settings Summary
;   processName,Process1
;   applyToModels,idlers,zcoupling
;   profileName,Travis_Fletchers_Ultimate_PETG_Profile_v2 (modified)
;   profileVersion,2018-10-27 09:00:55
;   baseProfile,Creality CR-10
;   printMaterial,PETG
;   printQuality,Fast
;   printExtruders,
;   extruderName,Primary Extruder
;   extruderToolheadNumber,0
;   extruderDiameter,0.4
;   extruderAutoWidth,1
;   extruderWidth,0.48
;   extrusionMultiplier,0.99
;   extruderUseRetract,1
;   extruderRetractionDistance,6.5
;   extruderExtraRestartDistance,-0.2
;   extruderRetractionZLift,0
;   extruderRetractionSpeed,3600
;   extruderUseCoasting,1
;   extruderCoastingDistance,0.2
;   extruderUseWipe,0
;   extruderWipeDistance,4
;   primaryExtruder,0
;   layerHeight,0.3
;   topSolidLayers,3
;   bottomSolidLayers,3
;   perimeterOutlines,3
;   printPerimetersInsideOut,1
;   startPointOption,3
;   startPointOriginX,0
;   startPointOriginY,500
;   sequentialIslands,0
;   spiralVaseMode,0
;   firstLayerHeightPercentage,130
;   firstLayerWidthPercentage,120
;   firstLayerUnderspeed,0.6
;   useRaft,0
;   raftExtruder,0
;   raftTopLayers,3
;   raftBaseLayers,2
;   raftOffset,3
;   raftSeparationDistance,0.14
;   raftTopInfill,100
;   aboveRaftSpeedMultiplier,0.3
;   useSkirt,0
;   skirtExtruder,0
;   skirtLayers,1
;   skirtOutlines,2
;   skirtOffset,0.2
;   usePrimePillar,0
;   primePillarExtruder,999
;   primePillarWidth,12
;   primePillarLocation,7
;   primePillarSpeedMultiplier,1
;   useOozeShield,0
;   oozeShieldExtruder,999
;   oozeShieldOffset,2
;   oozeShieldOutlines,1
;   oozeShieldSidewallShape,1
;   oozeShieldSidewallAngle,30
;   oozeShieldSpeedMultiplier,1
;   infillExtruder,0
;   internalInfillPattern,Fast Honeycomb
;   externalInfillPattern,Rectilinear
;   infillPercentage,15
;   outlineOverlapPercentage,35
;   infillExtrusionWidthPercentage,120
;   minInfillLength,4
;   infillLayerInterval,1
;   internalInfillAngles,0
;   overlapInternalInfillAngles,0
;   externalInfillAngles,45,-45
;   generateSupport,1
;   supportExtruder,0
;   supportInfillPercentage,40
;   supportExtraInflation,1
;   supportBaseLayers,0
;   denseSupportExtruder,0
;   denseSupportLayers,0
;   denseSupportInfillPercentage,60
;   supportLayerInterval,1
;   supportHorizontalPartOffset,0.3
;   supportUpperSeparationLayers,2
;   supportLowerSeparationLayers,1
;   supportType,0
;   supportGridSpacing,3.5
;   maxOverhangAngle,45
;   supportAngles,0
;   temperatureName,Heated Bed,Primary Extruder
;   temperatureNumber,0,0
;   temperatureSetpointCount,1,1
;   temperatureSetpointLayers,1,1
;   temperatureSetpointTemperatures,85,240
;   temperatureStabilizeAtStartup,1,1
;   temperatureHeatedBed,1,0
;   temperatureRelayBetweenLayers,0,0
;   temperatureRelayBetweenLoops,0,0
;   fanLayers,1,2,3
;   fanSpeeds,0,25,35
;   blipFanToFullPower,0
;   adjustSpeedForCooling,1
;   minSpeedLayerTime,20
;   minCoolingSpeedSlowdown,30
;   increaseFanForCooling,1
;   minFanLayerTime,30
;   maxCoolingFanSpeed,50
;   increaseFanForBridging,1
;   bridgingFanSpeed,100
;   use5D,1
;   relativeEdistances,0
;   allowEaxisZeroing,1
;   independentExtruderAxes,0
;   includeM10123,0
;   stickySupport,1
;   applyToolheadOffsets,0
;   gcodeXoffset,0
;   gcodeYoffset,0
;   gcodeZoffset,0
;   overrideMachineDefinition,1
;   machineTypeOverride,0
;   strokeXoverride,230
;   strokeYoverride,230
;   strokeZoverride,255
;   originOffsetXoverride,0
;   originOffsetYoverride,0
;   originOffsetZoverride,0
;   homeXdirOverride,-1
;   homeYdirOverride,-1
;   homeZdirOverride,-1
;   flipXoverride,1
;   flipYoverride,-1
;   flipZoverride,1
;   toolheadOffsets,0,0|0,0|0,0|0,0|0,0|0,0
;   overrideFirmwareConfiguration,1
;   firmwareTypeOverride,RepRap (Marlin/Repetier/Sprinter)
;   GPXconfigOverride,r2
;   baudRateOverride,115200
;   overridePrinterModels,1
;   printerModelsOverride
;   startingGcode,G28 ; home all axes,M117 Purging Extruder...,M204 P500 T1000,M205 X10 Y10 ; set jerk x/y=10,G1 Z1.0 F3000 ; lift Z,G1 X0.2 Y25 Z0.2 F3000.0 ; move to start-line position,G92 E0 ; reset extruder,G1 X0.2 Y150.0 F1000.0 E15 ; draw 1st line,G1 X0.7 Y150.0 F3000.0 ; move to side 0.5mm,G1 X0.7 Y50 F1000.0 E30 ; draw 2nd line,G1 X0.7 Y25 F5000.0 ; quick wipe,M117 Printing!,,; Default S3D CR-10 Startup,; G28 ; home all axes,; G1 Z5 F3000 ; lift,; G1 X20 Y2 F1500 ; avoid binder clips,; G1 Z0.2 F3000 ; get ready to prime,; G92 E0 ; reset extrusion distance,; G1 X120 E10 F600 ; prime nozzle,; G1 X150 F5000 ; quick wipe,
;   layerChangeGcode,
;   retractionGcode,
;   toolChangeGcode,
;   endingGcode,M117 Print Complete!,M104 S0 ; turn off extruder,M140 S0 ; turn off bed,G1 X0 Y295 F1000 ; move finished print out front,M84 ; disable motors,M106 S0 ; turn off cooling fan,,; play song,M300 S294 P200 ;D4: 294,M300 S588 P200 ;D5: 588,M300 S440 P200 ;A4: 440,M300 S392 P200 ;G4: 392,M300 S784 P200 ;G5: 784,M300 S440 P200 ;A4: 440,M300 S740 P200 ;F#5: 740,M300 S440 P200 ;A4: 440,,; Default S3D CR-10 Ending Script,; G28 X0 ; home x axis,; M106 S0 ; turn off cooling fan,; M104 S0 ; turn off extruder,; M140 S0 ; turn off bed,; M84 ; disable motors,
;   exportFileFormat,gcode
;   celebration,0
;   celebrationSong,Star Wars
;   postProcessing,,
;   defaultSpeed,2000
;   outlineUnderspeed,0.8
;   solidInfillUnderspeed,0.9
;   supportUnderspeed,1
;   rapidXYspeed,9000
;   rapidZspeed,1002
;   minBridgingArea,50
;   bridgingExtraInflation,0
;   bridgingExtrusionMultiplier,0.9
;   bridgingSpeedMultiplier,1
;   useFixedBridgingAngle,0
;   fixedBridgingAngle,0
;   applyBridgingToPerimeters,0
;   filamentDiameters,1.75|1.75|1.75|1.75|1.75|1.75
;   filamentPricesPerKg,46|46|46|46|46|46
;   filamentDensities,1.25|1.25|1.25|1.25|1.25|1.25
;   useMinPrintHeight,0
;   minPrintHeight,0
;   useMaxPrintHeight,0
;   maxPrintHeight,0
;   useDiaphragm,0
;   diaphragmLayerInterval,20
;   robustSlicing,1
;   mergeAllIntoSolid,0
;   onlyRetractWhenCrossingOutline,0
;   retractBetweenLayers,1
;   useRetractionMinTravel,1
;   retractionMinTravel,3
;   retractWhileWiping,1
;   onlyWipeOutlines,1
;   avoidCrossingOutline,1
;   maxMovementDetourFactor,3
;   toolChangeRetractionDistance,12
;   toolChangeExtraRestartDistance,-0.5
;   toolChangeRetractionSpeed,600
;   externalThinWallType,0
;   internalThinWallType,2
;   thinWallAllowedOverlapPercentage,15
;   singleExtrusionMinLength,1
;   singleExtrusionMinPrintingWidthPercentage,50
;   singleExtrusionMaxPrintingWidthPercentage,200
;   singleExtrusionEndpointExtension,0.2
;   horizontalSizeCompensation,0
G90
M82
M106 S0
M140 S85
M190 S85
M104 S240 T0
M109 S240 T0
G28 ; home all axes
M117 Purging Extruder...
M204 P500 T1000
M205 X10 Y10 ; set jerk x/y=10
G1 Z1.0 F3000 ; lift Z
G1 X0.2 Y25 Z0.2 F3000.0 ; move to start-line position
G92 E0 ; reset extruder
G1 X0.2 Y150.0 F1000.0 E15 ; draw 1st line
G1 X0.7 Y150.0 F3000.0 ; move to side 0.5mm
G1 X0.7 Y50 F1000.0 E30 ; draw 2nd line
G1 X0.7 Y25 F5000.0 ; quick wipe
M117 Printing!
; Default S3D CR-10 Startup
; G28 ; home all axes
; G1 Z5 F3000 ; lift
; G1 X20 Y2 F1500 ; avoid binder clips
; G1 Z0.2 F3000 ; get ready to prime
; G92 E0 ; reset extrusion distance
; G1 X120 E10 F600 ; prime nozzle
; G1 X150 F5000 ; quick wipe
G92 E0
G1 E-6.5000 F3600
G1 Z0.390 F1002
; process Process1
; layer 1, Z = 0.390
T0
; tool H0.390 W0.576
; inner perimeter
G1 X90.607 Y113.539 F9000
G1 E-0.2000 F1080
G92 E0
G1 X90.474 Y113.500 E0.0128 F1080
G1 X90.360 Y113.421 E0.0256
G1 X90.285 Y113.346 E0.0354
G1 X90.207 Y113.232 E0.0482
G1 X90.163 Y113.077 E0.0631
G1 X90.156 Y113.024 E0.0680
G1 X90.143 Y111.125 E0.2437
G1 X90.295 Y111.048 E0.2594
G1 X90.618 Y110.813 E0.2963
G1 X90.906 Y110.544 E0.3328
G1 X91.240 Y110.116 E0.3830
G1 X91.497 Y109.613 E0.4351
G1 X91.656 Y109.071 E0.4874
G1 X91.709 Y108.510 E0.5395
G1 X91.657 Y107.945 E0.5920
G1 X91.499 Y107.402 E0.6443
G1 X91.243 Y106.899 E0.6965
G1 X90.896 Y106.452 E0.7488
G1 X90.508 Y106.111 E0.7965
G1 X90.281 Y105.955 E0.8220
G1 X90.153 Y105.890 E0.8353
G1 X90.153 Y95.586 E1.7880
G1 X88.522 Y95.562 E1.9388
G1 X88.466 Y95.555 E1.9440
G1 X88.323 Y95.513 E1.9578
G1 X88.281 Y95.493 E1.9621
G1 X88.242 Y95.468 E1.9664
G1 X88.145 Y95.383 E1.9783
G1 X88.067 Y95.282 E1.9901
G1 X88.046 Y95.243 E1.9942
G1 X88.020 Y95.176 E2.0008
G1 X88.008 Y95.129 E2.0053
G1 X87.990 Y94.938 E2.0230
G1 X87.990 Y87.870 E2.6766
G1 X88.156 Y87.785 E2.6938
G1 X88.603 Y87.438 E2.7462
G1 X88.976 Y87.014 E2.7984
G1 X89.261 Y86.530 E2.8503
G1 X89.451 Y86.003 E2.9021
G1 X89.542 Y85.443 E2.9545
G1 X89.522 Y84.872 E3.0074
G1 X89.398 Y84.325 E3.0592
G1 X89.175 Y83.808 E3.1114
G1 X88.855 Y83.339 E3.1638
G1 X88.455 Y82.943 E3.2158
G1 X87.991 Y82.627 E3.2678
G1 X87.690 Y82.498 E3.2980
G1 X88.056 Y81.744 E3.3755
G1 X88.086 Y81.698 E3.3806
G1 X88.171 Y81.601 E3.3925
G1 X88.254 Y81.537 E3.4021
G1 X88.365 Y81.480 E3.4137
G1 X88.410 Y81.466 E3.4181
G1 X88.451 Y81.458 E3.4219
G1 X89.051 Y81.445 E3.4774
G1 X98.030 Y81.445 E4.3076
G1 X98.145 Y81.452 E4.3183
G1 X98.216 Y81.466 E4.3249
G1 X98.283 Y81.488 E4.3315
G1 X98.324 Y81.507 E4.3357
G1 X98.447 Y81.590 E4.3494
G1 X98.483 Y81.624 E4.3539
G1 X98.528 Y81.679 E4.3605
G1 X98.570 Y81.744 E4.3677
G1 X98.923 Y82.471 E4.4424
G1 X98.312 Y82.833 E4.5080
G1 X97.903 Y83.194 E4.5584
G1 X97.652 Y83.501 E4.5951
G1 X97.438 Y83.836 E4.6319
G1 X97.225 Y84.336 E4.6821
G1 X97.114 Y84.833 E4.7292
G1 X97.085 Y85.109 E4.7548
G1 X97.103 Y85.633 E4.8034
G1 X97.226 Y86.179 E4.8551
G1 X97.448 Y86.697 E4.9073
G1 X97.768 Y87.167 E4.9598
G1 X98.166 Y87.563 E5.0117
G1 X98.636 Y87.884 E5.0643
G1 X98.636 Y94.962 E5.7187
G1 X98.628 Y95.075 E5.7292
G1 X98.619 Y95.123 E5.7337
G1 X98.565 Y95.275 E5.7487
G1 X98.479 Y95.384 E5.7615
G1 X98.400 Y95.454 E5.7713
G1 X98.312 Y95.506 E5.7807
G1 X98.177 Y95.554 E5.7939
G1 X96.473 Y95.619 E5.9516
G1 X96.473 Y105.876 E6.9000
G1 X96.039 Y106.173 E6.9486
G1 X95.832 Y106.354 E6.9740
G1 X95.485 Y106.749 E7.0226
G1 X95.200 Y107.235 E7.0748
G1 X95.010 Y107.765 E7.1268
G1 X94.926 Y108.298 E7.1767
G1 X94.926 Y108.692 E7.2131
G1 X94.975 Y109.087 E7.2500
G1 X95.127 Y109.608 E7.3001
G1 X95.383 Y110.111 E7.3523
G1 X95.730 Y110.557 E7.4045
G1 X96.153 Y110.930 E7.4567
G1 X96.484 Y111.125 E7.4922
G1 X96.469 Y113.028 E7.6682
G1 X96.463 Y113.079 E7.6729
G1 X96.421 Y113.222 E7.6867
G1 X96.401 Y113.264 E7.6910
G1 X96.376 Y113.303 E7.6953
G1 X96.291 Y113.400 E7.7072
G1 X96.190 Y113.478 E7.7190
G1 X96.151 Y113.499 E7.7231
G1 X96.084 Y113.525 E7.7297
G1 X96.016 Y113.543 E7.7362
G1 X95.938 Y113.552 E7.7435
G1 X95.735 Y113.555 E7.7623
G1 X90.807 Y113.555 E8.2180
G1 X90.778 Y113.555 F1080
G1 X90.607 Y113.539 F1080
G1 X90.498 Y114.107 F9000
G92 E0
G1 X90.281 Y114.043 E0.0209 F1080
G1 X90.177 Y113.994 E0.0316
G1 X89.990 Y113.866 E0.0525
G1 X89.839 Y113.715 E0.0723
G1 X89.712 Y113.527 E0.0932
G1 X89.663 Y113.423 E0.1039
G1 X89.597 Y113.193 E0.1260
G1 X89.581 Y113.061 E0.1383
G1 X89.571 Y111.744 E0.2601
G1 X88.310 Y111.664 E0.3769
G1 X87.918 Y111.589 E0.4138
G1 X87.524 Y111.460 E0.4521
G1 X87.366 Y111.392 E0.4681
G1 X87.004 Y111.192 E0.5063
G1 X86.681 Y110.957 E0.5432
G1 X86.379 Y110.672 E0.5816
G1 X86.264 Y110.542 E0.5976
G1 X86.022 Y110.209 E0.6358
G1 X85.830 Y109.859 E0.6727
G1 X85.683 Y109.486 E0.7097
G1 X85.584 Y109.099 E0.7467
G1 X85.535 Y108.703 E0.7836
G1 X85.535 Y108.304 E0.8204
G1 X85.584 Y107.908 E0.8573
G1 X85.684 Y107.522 E0.8942
G1 X85.831 Y107.148 E0.9313
G1 X86.024 Y106.799 E0.9682
G1 X86.259 Y106.475 E1.0052
G1 X86.533 Y106.184 E1.0422
G1 X86.842 Y105.929 E1.0792
G1 X87.179 Y105.714 E1.1161
G1 X87.541 Y105.544 E1.1531
G1 X87.921 Y105.421 E1.1901
G1 X88.313 Y105.346 E1.2270
G1 X89.577 Y105.266 E1.3441
G1 X89.577 Y96.154 E2.1867
G1 X88.481 Y96.137 E2.2880
G1 X88.348 Y96.121 E2.3004
G1 X88.118 Y96.053 E2.3225
G1 X88.002 Y95.998 E2.3345
G1 X87.893 Y95.929 E2.3463
G1 X87.723 Y95.778 E2.3674
G1 X87.584 Y95.599 E2.3884
G1 X87.523 Y95.487 E2.4001
G1 X87.471 Y95.353 E2.4134
G1 X87.438 Y95.228 E2.4254
G1 X87.414 Y94.965 E2.4498
G1 X87.414 Y88.494 E3.0481
G1 X86.147 Y88.414 E3.1654
G1 X85.755 Y88.339 E3.2024
G1 X85.375 Y88.215 E3.2393
G1 X85.013 Y88.044 E3.2763
G1 X84.677 Y87.829 E3.3132
G1 X84.368 Y87.573 E3.3503
G1 X84.094 Y87.283 E3.3872
G1 X83.852 Y86.947 E3.4255
G1 X83.763 Y86.798 E3.4415
G1 X83.588 Y86.425 E3.4797
G1 X83.465 Y86.044 E3.5166
G1 X83.391 Y85.651 E3.5536
G1 X83.366 Y85.255 E3.5903
G1 X83.391 Y84.855 E3.6273
G1 X83.466 Y84.463 E3.6643
G1 X83.593 Y84.069 E3.7026
G1 X83.660 Y83.914 E3.7181
G1 X83.862 Y83.549 E3.7568
G1 X84.103 Y83.216 E3.7948
G1 X84.218 Y83.086 E3.8108
G1 X84.522 Y82.800 E3.8494
G1 X84.855 Y82.558 E3.8875
G1 X85.003 Y82.470 E3.9033
G1 X85.378 Y82.294 E3.9416
G1 X85.758 Y82.171 E3.9786
G1 X86.164 Y82.093 E4.0168
G1 X86.339 Y82.077 E4.0331
G1 X87.258 Y82.070 E4.1180
G1 X87.553 Y81.463 E4.1804
G1 X87.624 Y81.350 E4.1928
G1 X87.775 Y81.179 E4.2139
G1 X87.943 Y81.049 E4.2336
G1 X88.145 Y80.946 E4.2544
G1 X88.267 Y80.907 E4.2664
G1 X88.390 Y80.883 E4.2779
G1 X89.045 Y80.869 E4.3385
G1 X98.049 Y80.869 E5.1710
G1 X98.218 Y80.880 E5.1867
G1 X98.359 Y80.907 E5.1999
G1 X98.495 Y80.951 E5.2131
G1 X98.610 Y81.005 E5.2249
G1 X98.808 Y81.140 E5.2471
G1 X98.903 Y81.229 E5.2591
G1 X98.994 Y81.339 E5.2723
G1 X99.073 Y81.463 E5.2859
G1 X99.368 Y82.070 E5.3483
G1 X100.287 Y82.077 E5.4333
G1 X100.462 Y82.093 E5.4496
G1 X100.868 Y82.171 E5.4878
G1 X101.248 Y82.294 E5.5248
G1 X101.623 Y82.470 E5.5630
G1 X101.771 Y82.558 E5.5789
G1 X102.115 Y82.808 E5.6183
G1 X102.246 Y82.924 E5.6345
G1 X102.530 Y83.225 E5.6727
G1 X102.764 Y83.549 E5.7097
G1 X102.964 Y83.911 E5.7479
G1 X103.033 Y84.069 E5.7638
G1 X103.165 Y84.477 E5.8035
G1 X103.203 Y84.645 E5.8194
G1 X103.254 Y85.054 E5.8575
G1 X103.254 Y85.459 E5.8950
G1 X103.204 Y85.855 E5.9319
G1 X103.100 Y86.254 E5.9700
G1 X103.041 Y86.418 E5.9861
G1 X102.860 Y86.803 E6.0255
G1 X102.771 Y86.952 E6.0415
G1 X102.528 Y87.287 E6.0798
G1 X102.244 Y87.588 E6.1180
G1 X102.113 Y87.703 E6.1342
G1 X101.768 Y87.954 E6.1736
G1 X101.621 Y88.041 E6.1894
G1 X101.245 Y88.217 E6.2277
G1 X100.865 Y88.340 E6.2647
G1 X100.472 Y88.414 E6.3016
G1 X99.212 Y88.494 E6.4184
G1 X99.212 Y94.980 E7.0182
G1 X99.201 Y95.149 E7.0338
G1 X99.176 Y95.276 E7.0458
G1 X99.095 Y95.503 E7.0681
G1 X99.040 Y95.602 E7.0786
G1 X98.900 Y95.781 E7.0996
G1 X98.740 Y95.922 E7.1193
G1 X98.557 Y96.030 E7.1389
G1 X98.343 Y96.106 E7.1599
G1 X98.226 Y96.128 E7.1709
G1 X97.049 Y96.173 E7.2798
G1 X97.049 Y105.292 E8.1230
G1 X98.101 Y105.325 E8.2203
G1 X98.510 Y105.376 E8.2584
G1 X98.897 Y105.476 E8.2953
G1 X99.270 Y105.623 E8.3324
G1 X99.619 Y105.816 E8.3693
G1 X99.953 Y106.058 E8.4074
G1 X100.082 Y106.173 E8.4235
G1 X100.367 Y106.475 E8.4619
G1 X100.602 Y106.799 E8.4988
G1 X100.801 Y107.160 E8.5370
G1 X100.870 Y107.319 E8.5529
G1 X101.002 Y107.727 E8.5926
G1 X101.040 Y107.895 E8.6085
G1 X101.091 Y108.304 E8.6466
G1 X101.091 Y108.709 E8.6841
G1 X101.041 Y109.105 E8.7210
G1 X100.937 Y109.505 E8.7591
G1 X100.878 Y109.668 E8.7752
G1 X100.696 Y110.055 E8.8147
G1 X100.608 Y110.203 E8.8306
G1 X100.365 Y110.537 E8.8688
G1 X100.080 Y110.839 E8.9072
G1 X99.950 Y110.954 E8.9233
G1 X99.606 Y111.203 E8.9626
G1 X99.457 Y111.291 E8.9786
G1 X99.083 Y111.467 E9.0168
G1 X98.688 Y111.595 E9.0552
G1 X98.520 Y111.632 E9.0711
G1 X98.097 Y111.685 E9.1105
G1 X97.055 Y111.717 E9.2069
G1 X97.045 Y113.067 E9.3317
G1 X97.029 Y113.197 E9.3438
G1 X96.961 Y113.427 E9.3659
G1 X96.906 Y113.543 E9.3778
G1 X96.837 Y113.652 E9.3897
G1 X96.686 Y113.822 E9.4107
G1 X96.507 Y113.961 E9.4317
G1 X96.395 Y114.022 E9.4435
G1 X96.261 Y114.074 E9.4568
G1 X96.123 Y114.110 E9.4699
G1 X95.977 Y114.128 E9.4836
G1 X95.739 Y114.131 E9.5056
G1 X90.750 Y114.131 E9.9668
G1 X90.697 Y114.126 E9.9718
G1 X90.498 Y114.107 F1080
; outer perimeter
G1 X90.389 Y114.675 F9000
G92 E0
G1 X90.076 Y114.583 E0.0302 F960
G1 X89.889 Y114.495 E0.0492
G1 X89.620 Y114.311 E0.0794
G1 X89.393 Y114.083 E0.1092
G1 X89.209 Y113.813 E0.1394
G1 X89.122 Y113.626 E0.1584
G1 X89.031 Y113.308 E0.1890
G1 X89.005 Y113.099 E0.2085
G1 X88.999 Y112.285 E0.2838
