; G-Code generated by Simplify3D(R) Version 3.1.1
; Nov 23, 2018 at 9:28:52 PM
; Settings Summary
;   processName,Process1
;   applyToModels,K-dock,Fiat_Holder_MK2
;   profileName,ABS
;   profileVersion,2018-11-19 00:15:08
;   baseProfile,Creality CR-10
;   printMaterial,PETG
;   printQuality,Fast
;   printExtruders,
;   extruderName,Primary Extruder
;   extruderToolheadNumber,0
;   extruderDiameter,0.4
;   extruderAutoWidth,1
;   extruderWidth,0.48
;   extrusionMultiplier,0.99
;   extruderUseRetract,1
;   extruderRetractionDistance,6.5
;   extruderExtraRestartDistance,-0.2
;   extruderRetractionZLift,0
;   extruderRetractionSpeed,3600
;   extruderUseCoasting,1
;   extruderCoastingDistance,0.2
;   extruderUseWipe,0
;   extruderWipeDistance,4
;   primaryExtruder,0
;   layerHeight,0.3
;   topSolidLayers,3
;   bottomSolidLayers,3
;   perimeterOutlines,3
;   printPerimetersInsideOut,1
;   startPointOption,3
;   startPointOriginX,0
;   startPointOriginY,500
;   startPointOriginZ,0
;   sequentialIslands,0
;   spiralVaseMode,0
;   firstLayerHeightPercentage,130
;   firstLayerWidthPercentage,120
;   firstLayerUnderspeed,0.6
;   useRaft,0
;   raftExtruder,0
;   raftLayers,3
;   raftOffset,3
;   raftSeparationDistance,0.14
;   raftInfill,85
;   disableRaftBaseLayers,0
;   useSkirt,1
;   skirtExtruder,0
;   skirtLayers,1
;   skirtOutlines,3
;   skirtOffset,0.2
;   usePrimePillar,0
;   primePillarExtruder,999
;   primePillarWidth,12
;   primePillarLocation,7
;   primePillarSpeedMultiplier,1
;   useOozeShield,0
;   oozeShieldExtruder,999
;   oozeShieldOffset,2
;   oozeShieldOutlines,1
;   oozeShieldSidewallShape,1
;   oozeShieldSidewallAngle,30
;   oozeShieldSpeedMultiplier,1
;   infillExtruder,0
;   internalInfillPattern,Triangular
;   externalInfillPattern,Rectilinear
;   infillPercentage,20
;   outlineOverlapPercentage,35
;   infillExtrusionWidthPercentage,120
;   minInfillLength,4
;   infillLayerInterval,1
;   infillAngles,45,-45
;   overlapInfillAngles,1
;   generateSupport,1
;   supportExtruder,0
;   supportInfillPercentage,28
;   supportExtraInflation,1
;   denseSupportLayers,0
;   denseSupportInfillPercentage,60
;   supportLayerInterval,1
;   supportHorizontalPartOffset,0.3
;   supportUpperSeparationLayers,2
;   supportLowerSeparationLayers,1
;   supportType,0
;   supportGridSpacing,3.5
;   maxOverhangAngle,45
;   supportAngles,0
;   temperatureName,Heated Bed,Primary Extruder
;   temperatureNumber,0,0
;   temperatureSetpointCount,1,1
;   temperatureSetpointLayers,1,1
;   temperatureSetpointTemperatures,85,245
;   temperatureStabilizeAtStartup,1,1
;   temperatureHeatedBed,1,0
;   temperatureRelayBetweenLayers,0,0
;   temperatureRelayBetweenLoops,0,0
;   fanLayers,1,2,3
;   fanSpeeds,0,0,0
;   blipFanToFullPower,0
;   adjustSpeedForCooling,1
;   minSpeedLayerTime,20
;   minCoolingSpeedSlowdown,30
;   increaseFanForCooling,0
;   minFanLayerTime,30
;   maxCoolingFanSpeed,50
;   increaseFanForBridging,0
;   bridgingFanSpeed,100
;   use5D,1
;   relativeEdistances,0
;   allowEaxisZeroing,1
;   independentExtruderAxes,0
;   includeM10123,0
;   stickySupport,1
;   applyToolheadOffsets,0
;   gcodeXoffset,0
;   gcodeYoffset,0
;   gcodeZoffset,0
;   overrideMachineDefinition,1
;   machineTypeOverride,0
;   strokeXoverride,230
;   strokeYoverride,230
;   strokeZoverride,255
;   originOffsetXoverride,0
;   originOffsetYoverride,0
;   originOffsetZoverride,0
;   homeXdirOverride,-1
;   homeYdirOverride,-1
;   homeZdirOverride,-1
;   flipXoverride,1
;   flipYoverride,-1
;   flipZoverride,1
;   toolheadOffsets,0,0|0,0|0,0|0,0|0,0|0,0
;   overrideFirmwareConfiguration,1
;   firmwareTypeOverride,RepRap (Marlin/Repetier/Sprinter)
;   GPXconfigOverride,r2
;   baudRateOverride,115200
;   overridePrinterModels,1
;   printerModelsOverride
;   startingGcode,G28 ; home all axes,M117 Purging Extruder...,M204 P500 T1000,M205 X10 Y10 ; set jerk x/y=10,G1 Z1.0 F3000 ; lift Z,G1 X0.2 Y25 Z0.2 F3000.0 ; move to start-line position,G92 E0 ; reset extruder,G1 X0.2 Y150.0 F1000.0 E15 ; draw 1st line,G1 X0.7 Y150.0 F3000.0 ; move to side 0.5mm,G1 X0.7 Y50 F1000.0 E30 ; draw 2nd line,G1 X0.7 Y25 F5000.0 ; quick wipe,M117 Printing!,,; Default S3D CR-10 Startup,; G28 ; home all axes,; G1 Z5 F3000 ; lift,; G1 X20 Y2 F1500 ; avoid binder clips,; G1 Z0.2 F3000 ; get ready to prime,; G92 E0 ; reset extrusion distance,; G1 X120 E10 F600 ; prime nozzle,; G1 X150 F5000 ; quick wipe,
;   layerChangeGcode,
;   retractionGcode,
;   toolChangeGcode,
;   endingGcode,M117 Print Complete!,M104 S0 ; turn off extruder,M140 S0 ; turn off bed,G1 X0 Y295 F1000 ; move finished print out front,M84 ; disable motors,M106 S0 ; turn off cooling fan,,; play song,M300 S294 P200 ;D4: 294,M300 S588 P200 ;D5: 588,M300 S440 P200 ;A4: 440,M300 S392 P200 ;G4: 392,M300 S784 P200 ;G5: 784,M300 S440 P200 ;A4: 440,M300 S740 P200 ;F#5: 740,M300 S440 P200 ;A4: 440,,; Default S3D CR-10 Ending Script,; G28 X0 ; home x axis,; M106 S0 ; turn off cooling fan,; M104 S0 ; turn off extruder,; M140 S0 ; turn off bed,; M84 ; disable motors,
;   exportFileFormat,gcode
;   celebration,0
;   celebrationSong,Star Wars
;   postProcessing,,
;   defaultSpeed,3000
;   outlineUnderspeed,0.8
;   solidInfillUnderspeed,0.9
;   supportUnderspeed,1
;   rapidXYspeed,9000
;   rapidZspeed,1002
;   minBridgingArea,50
;   bridgingExtraInflation,0
;   bridgingExtrusionMultiplier,0.9
;   bridgingSpeedMultiplier,1
;   filamentDiameter,1.75
;   filamentPricePerKg,46
;   filamentDensity,1.25
;   useMinPrintHeight,0
;   minPrintHeight,0
;   useMaxPrintHeight,0
;   maxPrintHeight,0
;   useDiaphragm,0
;   diaphragmLayerInterval,20
;   robustSlicing,1
;   mergeAllIntoSolid,0
;   onlyRetractWhenCrossingOutline,0
;   retractBetweenLayers,1
;   useRetractionMinTravel,1
;   retractionMinTravel,3
;   retractWhileWiping,1
;   onlyWipeOutlines,1
;   avoidCrossingOutline,1
;   maxMovementDetourFactor,3
;   toolChangeRetractionDistance,12
;   toolChangeExtraRestartDistance,-0.5
;   toolChangeRetractionSpeed,600
;   allowThinWallGapFill,1
;   thinWallAllowedOverlapPercentage,15
;   horizontalSizeCompensation,0
G90
M82
M106 S0
M140 S85
M190 S85
M104 S245 T0
M109 S245 T0
G28 ; home all axes
M117 Purging Extruder...
M204 P500 T1000
M205 X10 Y10 ; set jerk x/y=10
G1 Z1.0 F3000 ; lift Z
G1 X0.2 Y25 Z0.2 F3000.0 ; move to start-line position
G92 E0 ; reset extruder
G1 X0.2 Y150.0 F1000.0 E15 ; draw 1st line
G1 X0.7 Y150.0 F3000.0 ; move to side 0.5mm
G1 X0.7 Y50 F1000.0 E30 ; draw 2nd line
G1 X0.7 Y25 F5000.0 ; quick wipe
M117 Printing!
; Default S3D CR-10 Startup
; G28 ; home all axes
; G1 Z5 F3000 ; lift
; G1 X20 Y2 F1500 ; avoid binder clips
; G1 Z0.2 F3000 ; get ready to prime
; G92 E0 ; reset extrusion distance
; G1 X120 E10 F600 ; prime nozzle
; G1 X150 F5000 ; quick wipe
G92 E0
G1 E-6.5000 F3600
G1 Z0.390 F1002
; layer 1, Z = 0.39
T0
; tool H0.390 W0.576
; skirt
G1 X87.762 Y85.815 F9000
G1 E-0.2000 F1080
G92 E0
G1 X90.925 Y82.623 E0.4155 F1800
G1 X90.963 Y82.588 E0.4203
G1 X91.017 Y82.543 E0.4268
G1 X91.058 Y82.511 E0.4316
G1 X94.727 Y79.917 E0.8471
G1 X94.771 Y79.889 E0.8519
G1 X94.832 Y79.854 E0.8584
G1 X94.878 Y79.829 E0.8632
G1 X98.942 Y77.912 E1.2787
G1 X98.990 Y77.892 E1.2835
G1 X99.056 Y77.868 E1.2900
G1 X99.106 Y77.852 E1.2948
G1 X103.441 Y76.670 E1.7103
G1 X103.492 Y76.658 E1.7151
G1 X103.561 Y76.646 E1.7216
G1 X103.612 Y76.639 E1.7264
G1 X107.443 Y76.286 E2.0821
G1 X107.472 Y76.284 E2.0848
G1 X107.511 Y76.283 E2.0883
G1 X107.540 Y76.282 E2.0910
G1 X123.195 Y76.356 E3.5386
G1 X123.219 Y76.356 E3.5407
G1 X123.250 Y76.358 E3.5436
G1 X123.273 Y76.359 E3.5458
G1 X126.154 Y76.598 E3.8130
G1 X126.206 Y76.605 E3.8179
G1 X126.274 Y76.617 E3.8243
G1 X126.326 Y76.628 E3.8292
G1 X130.671 Y77.772 E4.2447
G1 X130.721 Y77.787 E4.2495
G1 X130.787 Y77.811 E4.2560
G1 X130.836 Y77.831 E4.2608
G1 X134.917 Y79.712 E4.6763
G1 X134.964 Y79.736 E4.6812
G1 X135.024 Y79.770 E4.6876
G1 X135.068 Y79.798 E4.6924
G1 X138.760 Y82.359 E5.1079
G1 X138.801 Y82.391 E5.1127
G1 X138.855 Y82.435 E5.1191
G1 X138.894 Y82.471 E5.1240
G1 X142.086 Y85.634 E5.5395
G1 X142.121 Y85.672 E5.5443
G1 X142.166 Y85.726 E5.5508
G1 X142.198 Y85.767 E5.5556
G1 X144.792 Y89.436 E5.9711
G1 X144.820 Y89.480 E5.9759
G1 X144.855 Y89.541 E5.9824
G1 X144.880 Y89.587 E5.9872
G1 X146.797 Y93.651 E6.4027
G1 X146.817 Y93.699 E6.4075
G1 X146.841 Y93.765 E6.4140
G1 X146.857 Y93.815 E6.4188
G1 X148.039 Y98.150 E6.8343
G1 X148.051 Y98.201 E6.8391
G1 X148.063 Y98.270 E6.8456
G1 X148.070 Y98.321 E6.8504
G1 X148.482 Y102.796 E7.2659
G1 X148.484 Y102.848 E7.2707
G1 X148.485 Y102.918 E7.2772
G1 X148.483 Y102.970 E7.2820
G1 X148.111 Y107.448 E7.6975
G1 X148.104 Y107.500 E7.7023
G1 X148.092 Y107.569 E7.7088
G1 X148.081 Y107.620 E7.7136
G1 X146.937 Y111.966 E8.1291
G1 X146.922 Y112.016 E8.1339
G1 X146.898 Y112.082 E8.1404
G1 X146.878 Y112.130 E8.1452
G1 X144.997 Y116.211 E8.5607
G1 X144.973 Y116.258 E8.5656
G1 X144.938 Y116.319 E8.5721
G1 X144.911 Y116.363 E8.5769
G1 X142.350 Y120.054 E8.9923
G1 X142.318 Y120.096 E8.9971
G1 X142.274 Y120.150 E9.0036
G1 X142.238 Y120.189 E9.0084
G1 X139.075 Y123.380 E9.4239
G1 X139.036 Y123.416 E9.4288
G1 X138.983 Y123.461 E9.4352
G1 X138.942 Y123.493 E9.4401
G1 X135.273 Y126.086 E9.8555
G1 X135.229 Y126.115 E9.8604
G1 X135.168 Y126.150 E9.8668
G1 X135.122 Y126.174 E9.8717
G1 X131.058 Y128.091 E10.2871
G1 X131.010 Y128.111 E10.2919
G1 X130.944 Y128.136 E10.2984
G1 X130.894 Y128.152 E10.3033
G1 X126.559 Y129.334 E10.7187
G1 X126.508 Y129.345 E10.7235
G1 X126.439 Y129.358 E10.7300
G1 X126.388 Y129.365 E10.7349
G1 X122.595 Y129.714 E11.0870
G1 X122.568 Y129.715 E11.0895
G1 X122.531 Y129.717 E11.0929
G1 X122.504 Y129.718 E11.0955
G1 X107.651 Y129.718 E12.4687
G1 X107.627 Y129.717 E12.4710
G1 X107.594 Y129.716 E12.4740
G1 X107.569 Y129.714 E12.4764
G1 X103.846 Y129.405 E12.8217
G1 X103.794 Y129.399 E12.8266
G1 X103.725 Y129.387 E12.8330
G1 X103.674 Y129.376 E12.8379
G1 X99.329 Y128.232 E13.2533
G1 X99.279 Y128.216 E13.2582
G1 X99.213 Y128.193 E13.2646
G1 X99.164 Y128.173 E13.2695
G1 X95.084 Y126.292 E13.6850
G1 X95.037 Y126.268 E13.6898
G1 X94.976 Y126.233 E13.6963
G1 X94.932 Y126.205 E13.7011
G1 X91.240 Y123.644 E14.1166
G1 X91.198 Y123.613 E14.1214
G1 X91.145 Y123.568 E14.1279
G1 X91.106 Y123.533 E14.1327
G1 X87.914 Y120.370 E14.5482
G1 X87.879 Y120.331 E14.5530
G1 X87.834 Y120.278 E14.5595
G1 X87.802 Y120.236 E14.5643
G1 X85.208 Y116.567 E14.9798
G1 X85.180 Y116.523 E14.9846
G1 X85.145 Y116.463 E14.9911
G1 X85.120 Y116.416 E14.9959
G1 X83.203 Y112.352 E15.4114
G1 X83.183 Y112.304 E15.4162
G1 X83.159 Y112.239 E15.4226
G1 X83.143 Y112.189 E15.4275
G1 X81.961 Y107.854 E15.8430
G1 X81.949 Y107.803 E15.8478
G1 X81.937 Y107.734 E15.8543
G1 X81.930 Y107.682 E15.8591
G1 X81.518 Y103.208 E16.2745
G1 X81.516 Y103.156 E16.2794
G1 X81.515 Y103.086 E16.2858
G1 X81.517 Y103.033 E16.2907
G1 X81.889 Y98.555 E16.7062
G1 X81.896 Y98.503 E16.7110
G1 X81.908 Y98.434 E16.7175
G1 X81.919 Y98.383 E16.7223
G1 X83.063 Y94.038 E17.1378
G1 X83.078 Y93.988 E17.1426
G1 X83.102 Y93.922 E17.1491
G1 X83.122 Y93.873 E17.1539
G1 X85.003 Y89.793 E17.5694
G1 X85.027 Y89.746 E17.5742
G1 X85.061 Y89.685 E17.5807
G1 X85.089 Y89.641 E17.5855
G1 X87.636 Y85.970 E17.9986
G1 X87.650 Y85.949 F1800
G1 X87.682 Y85.907 F1800
G1 X87.726 Y85.854 F1800
G1 X87.762 Y85.815 F1800
G92 E0
G1 E-6.5000 F3600
G1 X87.564 Y89.024 F9000
G1 X86.505 Y90.551 F9000
G1 X84.674 Y94.523 F9000
G1 X83.561 Y98.754 F9000
G1 X83.199 Y103.113 F9000
G1 X83.599 Y107.469 F9000
G1 X84.750 Y111.689 F9000
G1 X86.008 Y114.354 F9000
G1 X84.928 Y131.918 F9000
G1 E-0.2000 F3600
G92 E0
G1 X134.534 Y131.918 E4.5865 F1800
G1 X134.736 Y131.952 E4.6055
G1 X134.994 Y132.044 E4.6308
G1 X135.172 Y132.144 E4.6498
G1 X136.302 Y133.061 E4.7842
G1 X136.325 Y133.081 E4.7871
G1 X136.355 Y133.108 E4.7908
G1 X136.378 Y133.129 E4.7937
G1 X137.754 Y134.501 E4.9734
G1 X137.774 Y134.522 E4.9760
G1 X137.800 Y134.550 E4.9796
G1 X137.819 Y134.571 E4.9822
G1 X138.082 Y134.890 E5.0204
G1 X138.186 Y135.070 E5.0397
G1 X138.280 Y135.332 E5.0653
G1 X138.316 Y135.537 E5.0846
G1 X138.316 Y150.153 E6.4360
G1 X138.133 Y150.594 E6.4802
G1 X137.678 Y151.049 E6.5396
G1 X137.237 Y151.232 E6.5838
G1 X133.596 Y151.232 E6.9204
G1 X133.155 Y151.049 E6.9646
G1 X132.700 Y150.594 E7.0240
G1 X132.518 Y150.153 E7.0682
G1 X132.518 Y139.690 E8.0356
G1 X132.468 Y139.432 E8.0599
G1 X132.364 Y139.169 E8.0861
G1 X132.199 Y138.903 E8.1151
G1 X131.964 Y138.635 E8.1479
G1 X131.668 Y138.387 E8.1836
G1 X131.305 Y138.162 E8.2232
G1 X130.890 Y137.975 E8.2653
G1 X130.444 Y137.839 E8.3084
G1 X129.640 Y137.718 E8.3835
G1 X84.928 Y137.718 E12.5176
G1 X84.487 Y137.535 E12.5617
G1 X84.032 Y137.080 E12.6212
G1 X83.850 Y136.639 E12.6653
G1 X83.850 Y132.996 E13.0022
G1 X84.032 Y132.555 E13.0463
G1 X84.487 Y132.100 E13.1058
G1 X84.743 Y131.994 E13.1314
G1 X84.928 Y131.918 F1800
G1 X85.024 Y132.398 F9000
G92 E0
G1 X134.493 Y132.398 E4.5739 F1800
G1 X134.614 Y132.419 E4.5853
G1 X134.795 Y132.483 E4.6030
G1 X134.902 Y132.543 E4.6144
G1 X135.995 Y133.430 E4.7445
G1 X136.009 Y133.441 E4.7462
G1 X136.030 Y133.461 E4.7488
G1 X136.043 Y133.473 E4.7505
G1 X137.411 Y134.836 E4.9291
G1 X137.424 Y134.849 E4.9308
G1 X137.442 Y134.869 E4.9332
G1 X137.453 Y134.882 E4.9348
G1 X137.686 Y135.164 E4.9687
G1 X137.748 Y135.272 E4.9802
G1 X137.814 Y135.455 E4.9982
G1 X137.836 Y135.578 E5.0097
G1 X137.836 Y150.058 E6.3485
G1 X137.726 Y150.322 E6.3750
G1 X137.406 Y150.642 E6.4168
G1 X137.142 Y150.752 E6.4433
G1 X133.691 Y150.752 E6.7623
G1 X133.427 Y150.642 E6.7888
G1 X133.107 Y150.322 E6.8306
G1 X132.998 Y150.058 E6.8571
G1 X132.998 Y139.644 E7.8199
G1 X132.931 Y139.297 E7.8526
G1 X132.794 Y138.952 E7.8869
G1 X132.586 Y138.616 E7.9235
G1 X132.301 Y138.291 E7.9634
G1 X131.951 Y137.997 E8.0057
G1 X131.531 Y137.737 E8.0514
G1 X131.059 Y137.525 E8.0992
G1 X130.550 Y137.370 E8.1484
G1 X129.676 Y137.238 E8.2301
G1 X85.024 Y137.238 E12.3587
G1 X84.759 Y137.128 E12.3852
G1 X84.439 Y136.808 E12.4270
G1 X84.330 Y136.544 E12.4535
G1 X84.330 Y133.092 E12.7727
G1 X84.439 Y132.827 E12.7991
G1 X84.759 Y132.507 E12.8409
G1 X84.839 Y132.474 E12.8489
G1 X85.024 Y132.398 F1800
G92 E0
G1 E-6.5000 F3600
G1 X91.522 Y123.256 F9000
G1 E-0.2000 F3600
G92 E0
G1 X91.497 Y123.237 E0.0029 F1800
G1 X91.460 Y123.206 E0.0074
G1 X91.436 Y123.185 E0.0103
G1 X88.260 Y120.036 E0.4239
G1 X88.238 Y120.013 E0.4268
G1 X88.207 Y119.976 E0.4313
G1 X88.188 Y119.951 E0.4342
G1 X85.606 Y116.299 E0.8477
G1 X85.589 Y116.272 E0.8506
G1 X85.565 Y116.230 E0.8551
G1 X85.550 Y116.202 E0.8580
G1 X83.642 Y112.157 E1.2716
G1 X83.630 Y112.128 E1.2745
G1 X83.613 Y112.082 E1.2790
G1 X83.603 Y112.052 E1.2819
G1 X82.427 Y107.737 E1.6954
G1 X82.420 Y107.707 E1.6983
G1 X82.411 Y107.659 E1.7028
G1 X82.407 Y107.628 E1.7058
G1 X81.997 Y103.174 E2.1193
G1 X81.996 Y103.143 E2.1222
G1 X81.995 Y103.094 E2.1267
G1 X81.997 Y103.062 E2.1296
G1 X82.367 Y98.605 E2.5431
G1 X82.371 Y98.574 E2.5461
G1 X82.379 Y98.526 E2.5506
G1 X82.386 Y98.495 E2.5535
G1 X83.524 Y94.170 E2.9670
G1 X83.533 Y94.140 E2.9699
G1 X83.550 Y94.094 E2.9744
G1 X83.562 Y94.065 E2.9773
G1 X85.434 Y90.003 E3.3909
G1 X85.448 Y89.975 E3.3938
G1 X85.473 Y89.933 E3.3983
G1 X85.489 Y89.906 E3.4012
G1 X88.039 Y86.231 E3.8147
G1 X88.058 Y86.206 E3.8176
G1 X88.089 Y86.169 E3.8221
G1 X88.110 Y86.145 E3.8250
G1 X91.258 Y82.969 E4.2386
G1 X91.282 Y82.947 E4.2415
G1 X91.319 Y82.916 E4.2460
G1 X91.344 Y82.897 E4.2489
G1 X94.996 Y80.315 E4.6624
G1 X95.022 Y80.298 E4.6653
G1 X95.065 Y80.274 E4.6699
G1 X95.092 Y80.259 E4.6728
G1 X99.137 Y78.351 E5.0863
G1 X99.166 Y78.339 E5.0892
G1 X99.212 Y78.322 E5.0937
G1 X99.242 Y78.312 E5.0966
G1 X103.557 Y77.136 E5.5101
G1 X103.588 Y77.129 E5.5130
G1 X103.636 Y77.120 E5.5176
G1 X103.667 Y77.116 E5.5205
G1 X107.482 Y76.765 E5.8747
G1 X107.499 Y76.764 E5.8763
G1 X107.526 Y76.763 E5.8788
G1 X107.543 Y76.762 E5.8804
G1 X123.188 Y76.836 E7.3269
G1 X123.202 Y76.836 E7.3282
G1 X123.224 Y76.837 E7.3303
G1 X123.238 Y76.838 E7.3316
G1 X126.104 Y77.076 E7.5974
G1 X126.135 Y77.080 E7.6003
G1 X126.183 Y77.088 E7.6048
