; G-Code generated by Simplify3D(R) Version 3.1.1
; Nov 29, 2018 at 6:10:41 PM
; Settings Summary
;   processName,Process1
;   applyToModels,m-8 newton spinner
;   profileName,ABS (modified)
;   profileVersion,2018-11-19 00:15:08
;   baseProfile,Creality CR-10
;   printMaterial,PETG
;   printQuality,Fast
;   printExtruders,
;   extruderName,Primary Extruder
;   extruderToolheadNumber,0
;   extruderDiameter,0.4
;   extruderAutoWidth,1
;   extruderWidth,0.48
;   extrusionMultiplier,0.99
;   extruderUseRetract,1
;   extruderRetractionDistance,6.5
;   extruderExtraRestartDistance,-0.2
;   extruderRetractionZLift,0
;   extruderRetractionSpeed,3600
;   extruderUseCoasting,1
;   extruderCoastingDistance,0.2
;   extruderUseWipe,0
;   extruderWipeDistance,4
;   primaryExtruder,0
;   layerHeight,0.3
;   topSolidLayers,3
;   bottomSolidLayers,3
;   perimeterOutlines,3
;   printPerimetersInsideOut,1
;   startPointOption,3
;   startPointOriginX,0
;   startPointOriginY,500
;   startPointOriginZ,0
;   sequentialIslands,0
;   spiralVaseMode,0
;   firstLayerHeightPercentage,130
;   firstLayerWidthPercentage,120
;   firstLayerUnderspeed,0.6
;   useRaft,0
;   raftExtruder,0
;   raftLayers,3
;   raftOffset,3
;   raftSeparationDistance,0.14
;   raftInfill,85
;   disableRaftBaseLayers,0
;   useSkirt,1
;   skirtExtruder,0
;   skirtLayers,1
;   skirtOutlines,3
;   skirtOffset,0.2
;   usePrimePillar,0
;   primePillarExtruder,999
;   primePillarWidth,12
;   primePillarLocation,7
;   primePillarSpeedMultiplier,1
;   useOozeShield,0
;   oozeShieldExtruder,999
;   oozeShieldOffset,2
;   oozeShieldOutlines,1
;   oozeShieldSidewallShape,1
;   oozeShieldSidewallAngle,30
;   oozeShieldSpeedMultiplier,1
;   infillExtruder,0
;   internalInfillPattern,Triangular
;   externalInfillPattern,Rectilinear
;   infillPercentage,12
;   outlineOverlapPercentage,35
;   infillExtrusionWidthPercentage,120
;   minInfillLength,4
;   infillLayerInterval,1
;   infillAngles,45,-45
;   overlapInfillAngles,1
;   generateSupport,1
;   supportExtruder,0
;   supportInfillPercentage,28
;   supportExtraInflation,1
;   denseSupportLayers,0
;   denseSupportInfillPercentage,60
;   supportLayerInterval,1
;   supportHorizontalPartOffset,0.3
;   supportUpperSeparationLayers,2
;   supportLowerSeparationLayers,1
;   supportType,0
;   supportGridSpacing,3.5
;   maxOverhangAngle,45
;   supportAngles,0
;   temperatureName,Heated Bed,Primary Extruder
;   temperatureNumber,0,0
;   temperatureSetpointCount,1,1
;   temperatureSetpointLayers,1,1
;   temperatureSetpointTemperatures,85,245
;   temperatureStabilizeAtStartup,1,1
;   temperatureHeatedBed,1,0
;   temperatureRelayBetweenLayers,0,0
;   temperatureRelayBetweenLoops,0,0
;   fanLayers,1,2,3
;   fanSpeeds,0,30,50
;   blipFanToFullPower,0
;   adjustSpeedForCooling,1
;   minSpeedLayerTime,20
;   minCoolingSpeedSlowdown,30
;   increaseFanForCooling,0
;   minFanLayerTime,30
;   maxCoolingFanSpeed,50
;   increaseFanForBridging,0
;   bridgingFanSpeed,100
;   use5D,1
;   relativeEdistances,0
;   allowEaxisZeroing,1
;   independentExtruderAxes,0
;   includeM10123,0
;   stickySupport,1
;   applyToolheadOffsets,0
;   gcodeXoffset,0
;   gcodeYoffset,0
;   gcodeZoffset,0
;   overrideMachineDefinition,1
;   machineTypeOverride,0
;   strokeXoverride,230
;   strokeYoverride,230
;   strokeZoverride,255
;   originOffsetXoverride,0
;   originOffsetYoverride,0
;   originOffsetZoverride,0
;   homeXdirOverride,-1
;   homeYdirOverride,-1
;   homeZdirOverride,-1
;   flipXoverride,1
;   flipYoverride,-1
;   flipZoverride,1
;   toolheadOffsets,0,0|0,0|0,0|0,0|0,0|0,0
;   overrideFirmwareConfiguration,1
;   firmwareTypeOverride,RepRap (Marlin/Repetier/Sprinter)
;   GPXconfigOverride,r2
;   baudRateOverride,115200
;   overridePrinterModels,1
;   printerModelsOverride
;   startingGcode,G28 ; home all axes,M117 Purging Extruder...,M204 P500 T1000,M205 X10 Y10 ; set jerk x/y=10,G1 Z1.0 F3000 ; lift Z,G1 X0.2 Y25 Z0.2 F3000.0 ; move to start-line position,G92 E0 ; reset extruder,G1 X0.2 Y150.0 F1000.0 E15 ; draw 1st line,G1 X0.7 Y150.0 F3000.0 ; move to side 0.5mm,G1 X0.7 Y50 F1000.0 E30 ; draw 2nd line,G1 X0.7 Y25 F5000.0 ; quick wipe,M117 Printing!,,; Default S3D CR-10 Startup,; G28 ; home all axes,; G1 Z5 F3000 ; lift,; G1 X20 Y2 F1500 ; avoid binder clips,; G1 Z0.2 F3000 ; get ready to prime,; G92 E0 ; reset extrusion distance,; G1 X120 E10 F600 ; prime nozzle,; G1 X150 F5000 ; quick wipe,
;   layerChangeGcode,
;   retractionGcode,
;   toolChangeGcode,
;   endingGcode,M117 Print Complete!,M104 S0 ; turn off extruder,M140 S0 ; turn off bed,G1 X0 Y295 F1000 ; move finished print out front,M84 ; disable motors,M106 S0 ; turn off cooling fan,,; play song,M300 S294 P200 ;D4: 294,M300 S588 P200 ;D5: 588,M300 S440 P200 ;A4: 440,M300 S392 P200 ;G4: 392,M300 S784 P200 ;G5: 784,M300 S440 P200 ;A4: 440,M300 S740 P200 ;F#5: 740,M300 S440 P200 ;A4: 440,,; Default S3D CR-10 Ending Script,; G28 X0 ; home x axis,; M106 S0 ; turn off cooling fan,; M104 S0 ; turn off extruder,; M140 S0 ; turn off bed,; M84 ; disable motors,
;   exportFileFormat,gcode
;   celebration,0
;   celebrationSong,Star Wars
;   postProcessing,,
;   defaultSpeed,3000
;   outlineUnderspeed,0.8
;   solidInfillUnderspeed,0.9
;   supportUnderspeed,1
;   rapidXYspeed,9000
;   rapidZspeed,1002
;   minBridgingArea,50
;   bridgingExtraInflation,0
;   bridgingExtrusionMultiplier,0.9
;   bridgingSpeedMultiplier,1
;   filamentDiameter,1.75
;   filamentPricePerKg,46
;   filamentDensity,1.25
;   useMinPrintHeight,0
;   minPrintHeight,0
;   useMaxPrintHeight,0
;   maxPrintHeight,0
;   useDiaphragm,0
;   diaphragmLayerInterval,20
;   robustSlicing,1
;   mergeAllIntoSolid,0
;   onlyRetractWhenCrossingOutline,0
;   retractBetweenLayers,1
;   useRetractionMinTravel,1
;   retractionMinTravel,3
;   retractWhileWiping,1
;   onlyWipeOutlines,1
;   avoidCrossingOutline,1
;   maxMovementDetourFactor,3
;   toolChangeRetractionDistance,12
;   toolChangeExtraRestartDistance,-0.5
;   toolChangeRetractionSpeed,600
;   allowThinWallGapFill,1
;   thinWallAllowedOverlapPercentage,15
;   horizontalSizeCompensation,0
G90
M82
M106 S0
M140 S85
M190 S85
M104 S245 T0
M109 S245 T0
G28 ; home all axes
M117 Purging Extruder...
M204 P500 T1000
M205 X10 Y10 ; set jerk x/y=10
G1 Z1.0 F3000 ; lift Z
G1 X0.2 Y25 Z0.2 F3000.0 ; move to start-line position
G92 E0 ; reset extruder
G1 X0.2 Y150.0 F1000.0 E15 ; draw 1st line
G1 X0.7 Y150.0 F3000.0 ; move to side 0.5mm
G1 X0.7 Y50 F1000.0 E30 ; draw 2nd line
G1 X0.7 Y25 F5000.0 ; quick wipe
M117 Printing!
; Default S3D CR-10 Startup
; G28 ; home all axes
; G1 Z5 F3000 ; lift
; G1 X20 Y2 F1500 ; avoid binder clips
; G1 Z0.2 F3000 ; get ready to prime
; G92 E0 ; reset extrusion distance
; G1 X120 E10 F600 ; prime nozzle
; G1 X150 F5000 ; quick wipe
G92 E0
G1 E-6.5000 F3600
G1 Z0.390 F1002
; layer 1, Z = 0.39
T0
; tool H0.390 W0.576
; skirt
G1 X103.511 Y76.427 F9000
G1 E-0.2000 F1080
G92 E0
G1 X103.527 Y76.407 E0.0023 F1800
G1 X103.548 Y76.382 E0.0053
G1 X103.564 Y76.364 E0.0076
G1 X104.192 Y75.665 E0.0944
G1 X104.204 Y75.653 E0.0960
G1 X104.219 Y75.636 E0.0981
G1 X104.231 Y75.625 E0.0996
G1 X104.897 Y74.963 E0.1864
G1 X104.913 Y74.948 E0.1885
G1 X104.936 Y74.927 E0.1913
G1 X104.953 Y74.912 E0.1934
G1 X105.670 Y74.301 E0.2805
G1 X105.686 Y74.287 E0.2825
G1 X105.708 Y74.270 E0.2851
G1 X105.724 Y74.258 E0.2869
G1 X106.480 Y73.699 E0.3739
G1 X106.499 Y73.686 E0.3760
G1 X106.524 Y73.669 E0.3788
G1 X106.543 Y73.656 E0.3809
G1 X107.338 Y73.156 E0.4677
G1 X107.353 Y73.147 E0.4693
G1 X107.372 Y73.136 E0.4714
G1 X107.387 Y73.128 E0.4730
G1 X108.208 Y72.674 E0.5597
G1 X108.228 Y72.664 E0.5617
G1 X108.254 Y72.650 E0.5645
G1 X108.275 Y72.641 E0.5666
G1 X109.131 Y72.249 E0.6536
G1 X109.149 Y72.241 E0.6555
G1 X109.175 Y72.230 E0.6581
G1 X109.195 Y72.222 E0.6601
G1 X110.075 Y71.891 E0.7470
G1 X110.095 Y71.884 E0.7490
G1 X110.121 Y71.875 E0.7515
G1 X110.140 Y71.869 E0.7534
G1 X111.040 Y71.599 E0.8403
G1 X111.059 Y71.594 E0.8421
G1 X111.086 Y71.587 E0.8447
G1 X111.108 Y71.581 E0.8467
G1 X112.026 Y71.375 E0.9338
G1 X112.046 Y71.371 E0.9356
G1 X112.073 Y71.366 E0.9382
G1 X112.094 Y71.363 E0.9401
G1 X113.022 Y71.220 E1.0270
G1 X113.043 Y71.217 E1.0289
G1 X113.070 Y71.214 E1.0314
G1 X113.091 Y71.212 E1.0333
G1 X114.029 Y71.133 E1.1204
G1 X114.053 Y71.132 E1.1226
G1 X114.084 Y71.130 E1.1255
G1 X114.105 Y71.130 E1.1274
G1 X115.043 Y71.123 E1.2142
G1 X115.060 Y71.123 E1.2158
G1 X115.083 Y71.123 E1.2179
G1 X115.100 Y71.124 E1.2194
G1 X116.038 Y71.170 E1.3063
G1 X116.063 Y71.172 E1.3086
G1 X116.096 Y71.175 E1.3116
G1 X116.120 Y71.177 E1.3139
G1 X117.052 Y71.300 E1.4008
G1 X117.069 Y71.302 E1.4024
G1 X117.091 Y71.306 E1.4044
G1 X117.108 Y71.309 E1.4060
G1 X118.029 Y71.483 E1.4927
G1 X118.050 Y71.488 E1.4947
G1 X118.079 Y71.494 E1.4975
G1 X118.103 Y71.500 E1.4997
G1 X119.013 Y71.745 E1.5868
G1 X119.032 Y71.751 E1.5887
G1 X119.059 Y71.759 E1.5913
G1 X119.079 Y71.765 E1.5932
G1 X119.967 Y72.072 E1.6801
G1 X119.986 Y72.079 E1.6820
G1 X120.012 Y72.089 E1.6845
G1 X120.032 Y72.097 E1.6865
G1 X120.898 Y72.464 E1.7736
G1 X120.919 Y72.474 E1.7756
G1 X120.946 Y72.486 E1.7784
G1 X120.966 Y72.496 E1.7805
G1 X121.800 Y72.926 E1.8672
G1 X121.814 Y72.934 E1.8687
G1 X121.833 Y72.944 E1.8707
G1 X121.847 Y72.953 E1.8722
G1 X122.659 Y73.429 E1.9592
G1 X122.681 Y73.442 E1.9616
G1 X122.709 Y73.461 E1.9647
G1 X122.730 Y73.475 E1.9671
G1 X123.498 Y74.018 E2.0541
G1 X123.512 Y74.028 E2.0556
G1 X123.530 Y74.042 E2.0578
G1 X123.544 Y74.053 E2.0594
G1 X124.278 Y74.639 E2.1462
G1 X124.296 Y74.653 E2.1484
G1 X124.320 Y74.674 E2.1513
G1 X124.339 Y74.691 E2.1536
G1 X125.024 Y75.334 E2.2405
G1 X125.036 Y75.346 E2.2421
G1 X125.052 Y75.362 E2.2442
G1 X125.064 Y75.374 E2.2457
G1 X125.712 Y76.054 E2.3326
G1 X125.729 Y76.073 E2.3349
G1 X125.751 Y76.098 E2.3380
G1 X125.766 Y76.116 E2.3402
G1 X126.356 Y76.847 E2.4271
G1 X126.366 Y76.860 E2.4286
G1 X126.380 Y76.878 E2.4307
G1 X126.390 Y76.892 E2.4322
G1 X126.938 Y77.655 E2.5191
G1 X126.952 Y77.676 E2.5214
G1 X126.971 Y77.703 E2.5245
G1 X126.984 Y77.724 E2.5268
G1 X127.467 Y78.531 E2.6138
G1 X127.476 Y78.546 E2.6153
G1 X127.487 Y78.565 E2.6174
G1 X127.495 Y78.580 E2.6189
G1 X127.932 Y79.412 E2.7058
G1 X127.944 Y79.434 E2.7082
G1 X127.958 Y79.464 E2.7112
G1 X127.967 Y79.486 E2.7134
G1 X128.335 Y80.350 E2.8003
G1 X128.341 Y80.366 E2.8019
G1 X128.350 Y80.387 E2.8039
G1 X128.355 Y80.402 E2.8055
G1 X128.674 Y81.285 E2.8922
G1 X128.681 Y81.307 E2.8944
G1 X128.691 Y81.336 E2.8972
G1 X128.697 Y81.358 E2.8993
G1 X128.948 Y82.265 E2.9863
G1 X128.953 Y82.285 E2.9882
G1 X128.959 Y82.312 E2.9908
G1 X128.964 Y82.332 E2.9927
G1 X129.151 Y83.254 E3.0797
G1 X129.155 Y83.276 E3.0818
G1 X129.160 Y83.306 E3.0845
G1 X129.164 Y83.329 E3.0867
G1 X129.282 Y84.263 E3.1738
G1 X129.284 Y84.285 E3.1758
G1 X129.287 Y84.314 E3.1785
G1 X129.288 Y84.336 E3.1805
G1 X129.355 Y85.590 E3.2966
G1 X129.356 Y85.606 E3.2981
G1 X129.357 Y85.628 E3.3001
G1 X129.357 Y85.644 E3.3016
G1 X129.350 Y117.610 E6.2572
G1 X129.357 Y117.795 E6.2744
G1 X129.471 Y118.192 E6.3125
G1 X129.549 Y118.345 E6.3284
G1 X129.651 Y118.494 E6.3451
G1 X129.822 Y118.674 E6.3681
G1 X130.078 Y118.862 E6.3975
G1 X130.354 Y118.984 E6.4253
G1 X130.648 Y119.042 E6.4530
G1 X130.832 Y119.054 E6.4700
G1 X131.043 Y119.024 E6.4898
G1 X131.117 Y119.002 E6.4969
G1 X132.234 Y118.599 E6.6068
G1 X132.252 Y118.593 E6.6085
G1 X132.275 Y118.585 E6.6107
G1 X132.293 Y118.580 E6.6124
G1 X133.201 Y118.314 E6.6999
G1 X133.221 Y118.308 E6.7018
G1 X133.248 Y118.302 E6.7044
G1 X133.268 Y118.297 E6.7063
G1 X134.193 Y118.095 E6.7938
G1 X134.213 Y118.091 E6.7957
G1 X134.240 Y118.086 E6.7983
G1 X134.261 Y118.082 E6.8003
G1 X135.199 Y117.945 E6.8879
G1 X135.220 Y117.942 E6.8898
G1 X135.247 Y117.939 E6.8924
G1 X135.268 Y117.937 E6.8943
G1 X136.216 Y117.865 E6.9822
G1 X136.242 Y117.864 E6.9847
G1 X136.277 Y117.863 E6.9879
G1 X136.303 Y117.862 E6.9902
G1 X137.245 Y117.872 E7.0774
G1 X137.255 Y117.872 E7.0783
G1 X137.268 Y117.873 E7.0796
G1 X137.279 Y117.873 E7.0806
G1 X138.216 Y117.915 E7.1672
G1 X138.243 Y117.917 E7.1697
G1 X138.279 Y117.920 E7.1731
G1 X138.306 Y117.923 E7.1756
G1 X139.255 Y118.052 E7.2642
G1 X139.276 Y118.055 E7.2661
G1 X139.303 Y118.060 E7.2686
G1 X139.322 Y118.063 E7.2705
G1 X140.251 Y118.254 E7.3581
G1 X140.274 Y118.260 E7.3603
G1 X140.304 Y118.267 E7.3632
G1 X140.326 Y118.273 E7.3653
G1 X141.235 Y118.534 E7.4527
G1 X141.251 Y118.539 E7.4543
G1 X141.273 Y118.545 E7.4564
G1 X141.289 Y118.551 E7.4580
G1 X142.182 Y118.863 E7.5454
G1 X142.203 Y118.871 E7.5475
G1 X142.231 Y118.882 E7.5503
G1 X142.252 Y118.891 E7.5524
G1 X143.122 Y119.271 E7.6402
G1 X143.143 Y119.280 E7.6423
G1 X143.170 Y119.294 E7.6451
G1 X143.190 Y119.304 E7.6472
G1 X144.028 Y119.748 E7.7348
G1 X144.045 Y119.758 E7.7367
G1 X144.067 Y119.771 E7.7391
G1 X144.084 Y119.780 E7.7408
G1 X144.888 Y120.276 E7.8282
G1 X144.905 Y120.287 E7.8301
G1 X144.928 Y120.303 E7.8326
G1 X144.945 Y120.314 E7.8345
G1 X145.714 Y120.864 E7.9219
G1 X145.730 Y120.876 E7.9237
G1 X145.750 Y120.892 E7.9261
G1 X145.765 Y120.903 E7.9279
G1 X146.499 Y121.503 E8.0155
G1 X146.516 Y121.518 E8.0176
G1 X146.539 Y121.538 E8.0204
G1 X146.556 Y121.553 E8.0225
G1 X147.242 Y122.207 E8.1101
G1 X147.257 Y122.222 E8.1121
G1 X147.277 Y122.241 E8.1146
G1 X147.291 Y122.256 E8.1165
G1 X147.930 Y122.955 E8.2041
G1 X147.944 Y122.971 E8.2061
G1 X147.963 Y122.993 E8.2087
G1 X147.976 Y123.009 E8.2107
G1 X148.565 Y123.753 E8.2984
G1 X148.577 Y123.769 E8.3003
G1 X148.594 Y123.791 E8.3028
G1 X148.606 Y123.808 E8.3048
G1 X149.141 Y124.589 E8.3923
G1 X149.152 Y124.607 E8.3942
G1 X149.167 Y124.630 E8.3968
G1 X149.178 Y124.648 E8.3987
G1 X149.658 Y125.465 E8.4863
G1 X149.668 Y125.483 E8.4882
G1 X149.681 Y125.508 E8.4908
G1 X149.691 Y125.526 E8.4928
G1 X150.114 Y126.377 E8.5806
G1 X150.125 Y126.400 E8.5830
G1 X150.139 Y126.431 E8.5861
G1 X150.148 Y126.454 E8.5884
G1 X150.586 Y127.559 E8.6983
G1 X150.593 Y127.578 E8.7002
G1 X150.601 Y127.602 E8.7025
G1 X150.607 Y127.619 E8.7042
G1 X150.824 Y128.288 E8.7692
G1 X150.829 Y128.303 E8.7706
G1 X150.835 Y128.323 E8.7726
G1 X150.839 Y128.340 E8.7742
G1 X151.082 Y129.256 E8.8618
G1 X151.088 Y129.281 E8.8642
G1 X151.095 Y129.313 E8.8672
G1 X151.100 Y129.337 E8.8695
G1 X151.265 Y130.269 E8.9570
G1 X151.268 Y130.285 E8.9585
G1 X151.271 Y130.307 E8.9606
G1 X151.273 Y130.325 E8.9622
G1 X151.386 Y131.266 E9.0499
G1 X151.388 Y131.291 E9.0522
G1 X151.391 Y131.324 E9.0552
G1 X151.392 Y131.348 E9.0575
G1 X151.427 Y132.302 E9.1457
G1 X151.427 Y132.330 E9.1483
G1 X151.427 Y132.368 E9.1519
G1 X151.426 Y132.397 E9.1545
G1 X151.316 Y134.273 E9.3283
G1 X151.313 Y134.306 E9.3314
G1 X151.308 Y134.352 E9.3356
G1 X151.303 Y134.386 E9.3388
G1 X151.139 Y135.326 E9.4270
G1 X151.136 Y135.343 E9.4286
G1 X151.131 Y135.366 E9.4308
G1 X151.128 Y135.382 E9.4323
G1 X150.911 Y136.304 E9.5198
G1 X150.906 Y136.326 E9.5220
G1 X150.898 Y136.356 E9.5248
G1 X150.891 Y136.376 E9.5268
G1 X150.606 Y137.282 E9.6146
G1 X150.598 Y137.305 E9.6168
G1 X150.588 Y137.333 E9.6197
G1 X150.580 Y137.353 E9.6216
G1 X150.228 Y138.231 E9.7091
G1 X150.221 Y138.249 E9.7108
G1 X150.211 Y138.270 E9.7130
G1 X150.205 Y138.284 E9.7144
G1 X149.802 Y139.141 E9.8019
G1 X149.792 Y139.162 E9.8041
G1 X149.777 Y139.191 E9.8072
G1 X149.765 Y139.213 E9.8095
G1 X149.293 Y140.036 E9.8972
G1 X149.283 Y140.051 E9.8989
G1 X149.271 Y140.071 E9.9010
G1 X149.263 Y140.084 E9.9025
G1 X148.746 Y140.876 E9.9898
G1 X148.733 Y140.895 E9.9919
G1 X148.716 Y140.919 E9.9948
G1 X148.702 Y140.938 E9.9969
G1 X148.124 Y141.691 E10.0847
G1 X148.111 Y141.707 E10.0866
G1 X148.093 Y141.729 E10.0892
G1 X148.080 Y141.744 E10.0910
G1 X147.452 Y142.454 E10.1786
G1 X147.437 Y142.470 E10.1807
G1 X147.418 Y142.490 E10.1833
G1 X147.404 Y142.504 E10.1851
G1 X146.728 Y143.169 E10.2728
G1 X146.711 Y143.185 E10.2749
G1 X146.688 Y143.206 E10.2778
G1 X146.671 Y143.221 E10.2799
G1 X145.948 Y143.831 E10.3674
G1 X145.934 Y143.842 E10.3690
G1 X145.916 Y143.856 E10.3711
G1 X145.904 Y143.866 E10.3726
G1 X145.148 Y144.433 E10.4599
G1 X145.131 Y144.446 E10.4619
