; G-Code generated by Simplify3D(R) Version 3.1.1
; Nov 14, 2018 at 6:34:49 AM
; Settings Summary
;   processName,Process2
;   applyToModels,mandala_mandala
;   profileName,MK3 TPU (modified)
;   profileVersion,2018-10-28 17:57:46
;   baseProfile,Default
;   printMaterial,TPU
;   printQuality,0.2mm (Normal)
;   printExtruders,
;   extruderName,Primary Extruder
;   extruderToolheadNumber,0
;   extruderDiameter,0.4
;   extruderAutoWidth,0
;   extruderWidth,0.45
;   extrusionMultiplier,1
;   extruderUseRetract,1
;   extruderRetractionDistance,2.8
;   extruderExtraRestartDistance,0
;   extruderRetractionZLift,0
;   extruderRetractionSpeed,6000
;   extruderUseCoasting,1
;   extruderCoastingDistance,2
;   extruderUseWipe,1
;   extruderWipeDistance,2
;   primaryExtruder,0
;   layerHeight,0.2
;   topSolidLayers,4
;   bottomSolidLayers,4
;   perimeterOutlines,3
;   printPerimetersInsideOut,1
;   startPointOption,3
;   startPointOriginX,0
;   startPointOriginY,0
;   startPointOriginZ,0
;   sequentialIslands,0
;   spiralVaseMode,0
;   firstLayerHeightPercentage,100
;   firstLayerWidthPercentage,100
;   firstLayerUnderspeed,0.5
;   useRaft,0
;   raftExtruder,0
;   raftLayers,3
;   raftOffset,3
;   raftSeparationDistance,0.14
;   raftInfill,85
;   disableRaftBaseLayers,0
;   useSkirt,0
;   skirtExtruder,0
;   skirtLayers,1
;   skirtOutlines,3
;   skirtOffset,8
;   usePrimePillar,0
;   primePillarExtruder,999
;   primePillarWidth,12
;   primePillarLocation,7
;   primePillarSpeedMultiplier,1
;   useOozeShield,0
;   oozeShieldExtruder,999
;   oozeShieldOffset,2
;   oozeShieldOutlines,1
;   oozeShieldSidewallShape,1
;   oozeShieldSidewallAngle,30
;   oozeShieldSpeedMultiplier,1
;   infillExtruder,0
;   internalInfillPattern,Rectilinear
;   externalInfillPattern,Rectilinear
;   infillPercentage,25
;   outlineOverlapPercentage,20
;   infillExtrusionWidthPercentage,100
;   minInfillLength,1
;   infillLayerInterval,1
;   infillAngles,45,-45
;   overlapInfillAngles,1
;   generateSupport,0
;   supportExtruder,0
;   supportInfillPercentage,15
;   supportExtraInflation,0.2
;   denseSupportLayers,2
;   denseSupportInfillPercentage,50
;   supportLayerInterval,1
;   supportHorizontalPartOffset,0.1
;   supportUpperSeparationLayers,2
;   supportLowerSeparationLayers,1
;   supportType,0
;   supportGridSpacing,3
;   maxOverhangAngle,35
;   supportAngles,90,45
;   temperatureName,Primary Extruder,Heated Bed
;   temperatureNumber,0,1
;   temperatureSetpointCount,1,1
;   temperatureSetpointLayers,1,1
;   temperatureSetpointTemperatures,220,50
;   temperatureStabilizeAtStartup,1,1
;   temperatureHeatedBed,0,1
;   temperatureRelayBetweenLayers,0,0
;   temperatureRelayBetweenLoops,0,0
;   fanLayers,1,2
;   fanSpeeds,0,100
;   blipFanToFullPower,0
;   adjustSpeedForCooling,1
;   minSpeedLayerTime,15
;   minCoolingSpeedSlowdown,20
;   increaseFanForCooling,0
;   minFanLayerTime,45
;   maxCoolingFanSpeed,100
;   increaseFanForBridging,1
;   bridgingFanSpeed,100
;   use5D,1
;   relativeEdistances,1
;   allowEaxisZeroing,1
;   independentExtruderAxes,0
;   includeM10123,0
;   stickySupport,1
;   applyToolheadOffsets,0
;   gcodeXoffset,0
;   gcodeYoffset,0
;   gcodeZoffset,0
;   overrideMachineDefinition,1
;   machineTypeOverride,0
;   strokeXoverride,200
;   strokeYoverride,210
;   strokeZoverride,250
;   originOffsetXoverride,0
;   originOffsetYoverride,0
;   originOffsetZoverride,0
;   homeXdirOverride,-1
;   homeYdirOverride,-1
;   homeZdirOverride,-1
;   flipXoverride,1
;   flipYoverride,-1
;   flipZoverride,1
;   toolheadOffsets,0,0|0,0|0,0|0,0|0,0|0,0
;   overrideFirmwareConfiguration,0
;   firmwareTypeOverride,RepRap (Marlin/Repetier/Sprinter)
;   GPXconfigOverride,r2
;   baudRateOverride,115200
;   overridePrinterModels,1
;   printerModelsOverride,Prusa_MK3_Assy_STL_-_FULL.STL
;   startingGcode,M115 U3.1.0 ; tell printer latest fw version,G 28 W ;,G1 Z100 ;,M900 K32 ; k value,M104 S[extruder0_temperature] T0 ; this will take the layer 1 temperature for extruder 0,M140 S[bed1_temperature] ; this will take the layer 1 temperature for bed 0,M190 S[bed1_temperature] ; wait for bed temp,M109 S[extruder0_temperature] T0 ; wait for extruder temp,G28 W ; home all without mesh bed level,G80 ; mesh bed leveling,G1 Y-3.0 F1000.0 ; go outside print area,G92 E0.0
;   layerChangeGcode,
;   retractionGcode,
;   toolChangeGcode,
;   endingGcode,G4 ; wait,M104 S0 ; turn off temperature,M140 S0 ; turn off heatbed,M107 ; turn off fan,G1 X0 Y200; home X axis,G1 F1000.0 ; set feed rate,G1 E-3 ; retract,M84 ; disable motors,,
;   exportFileFormat,gcode
;   celebration,0
;   celebrationSong,Star Wars
;   postProcessing,{REPLACE "; outer perimeter\n" "; outer perimeter\nM204 P800\n"},{REPLACE "; inner perimeter\n" "; inner perimeter\nM204 P1000\n"},{REPLACE "; solid layer\n" "; solid layer\nM204 P1000\n"},{REPLACE "; infill\n" "; infill\nM204 P3500\n"}
;   defaultSpeed,780
;   outlineUnderspeed,1
;   solidInfillUnderspeed,1
;   supportUnderspeed,1
;   rapidXYspeed,7200
;   rapidZspeed,900
;   minBridgingArea,50
;   bridgingExtraInflation,0
;   bridgingExtrusionMultiplier,0.9
;   bridgingSpeedMultiplier,0.6
;   filamentDiameter,1.75
;   filamentPricePerKg,46
;   filamentDensity,1.25
;   useMinPrintHeight,0
;   minPrintHeight,0
;   useMaxPrintHeight,0
;   maxPrintHeight,0
;   useDiaphragm,0
;   diaphragmLayerInterval,20
;   robustSlicing,1
;   mergeAllIntoSolid,0
;   onlyRetractWhenCrossingOutline,0
;   retractBetweenLayers,0
;   useRetractionMinTravel,1
;   retractionMinTravel,3
;   retractWhileWiping,1
;   onlyWipeOutlines,0
;   avoidCrossingOutline,1
;   maxMovementDetourFactor,3
;   toolChangeRetractionDistance,12
;   toolChangeExtraRestartDistance,-0.5
;   toolChangeRetractionSpeed,600
;   allowThinWallGapFill,1
;   thinWallAllowedOverlapPercentage,25
;   horizontalSizeCompensation,0
G90
M83
M106 S0
M115 U3.1.0 ; tell printer latest fw version
G 28 W ;
G1 Z100 ;
M900 K32 ; k value
M104 S220 T0 ; this will take the layer 1 temperature for extruder 0
M140 S50 ; this will take the layer 1 temperature for bed 0
M190 S50 ; wait for bed temp
M109 S220 T0 ; wait for extruder temp
G28 W ; home all without mesh bed level
G80 ; mesh bed leveling
G1 Y-3.0 F1000.0 ; go outside print area
G92 E0.0
G1 E-2.8000 F6000
G1 Z0.200 F900
; layer 1, Z = 0.2
T0
; tool H0.200 W0.450
; inner perimeter
M204 P1000
G1 X58.881 Y63.881 F7200
G1 E2.8000 F1800
G1 X59.543 Y63.907 E0.0248 F390
G1 X60.004 Y63.900 E0.0172
G1 X61.545 Y63.798 E0.0578
G1 X61.982 Y63.746 E0.0165
G1 X63.553 Y63.477 E0.0597
G1 X63.984 Y63.355 E0.0167
G1 X64.415 Y63.170 E0.0175
G1 X67.131 Y61.514 E0.1191
G1 X69.592 Y60.337 E0.1021
G1 X72.162 Y59.420 E0.1021
G1 X74.812 Y58.773 E0.1021
G1 X77.514 Y58.403 E0.1021
G1 X80.240 Y58.313 E0.1021
G1 X82.969 Y58.504 E0.1023
G1 X85.665 Y58.941 E0.1022
G1 X86.299 Y58.400 E0.0312
G1 X86.434 Y58.085 E0.0128
G1 X87.215 Y56.746 E0.0580
G1 X88.074 Y55.504 E0.0565
G1 X89.105 Y54.237 E0.0611
G1 X90.231 Y53.046 E0.0613
G1 X91.457 Y51.920 E0.0623
G1 X92.778 Y50.860 E0.0634
G1 X94.237 Y49.840 E0.0666
G1 X97.019 Y48.106 E0.1227
G1 X98.356 Y47.180 E0.0608
G1 X99.447 Y46.277 E0.0530
G1 X100.000 Y45.711 E0.0296
G1 X100.553 Y46.277 E0.0296
G1 X101.644 Y47.180 E0.0530
G1 X102.981 Y48.106 E0.0608
G1 X105.763 Y49.840 E0.1227
G1 X107.222 Y50.860 E0.0666
G1 X108.543 Y51.920 E0.0634
G1 X109.769 Y53.046 E0.0623
G1 X110.895 Y54.237 E0.0613
G1 X111.926 Y55.504 E0.0611
G1 X112.785 Y56.746 E0.0565
G1 X113.566 Y58.085 E0.0580
G1 X113.701 Y58.400 E0.0128
G1 X114.335 Y58.941 E0.0312
G1 X117.031 Y58.504 E0.1022
G1 X119.760 Y58.313 E0.1023
G1 X122.486 Y58.403 E0.1021
G1 X125.188 Y58.773 E0.1021
G1 X127.838 Y59.420 E0.1021
G1 X130.407 Y60.337 E0.1021
G1 X132.869 Y61.514 E0.1021
G1 X135.585 Y63.170 E0.1191
G1 X136.016 Y63.355 E0.0175
G1 X136.447 Y63.477 E0.0167
G1 X138.018 Y63.746 E0.0597
G1 X138.455 Y63.798 E0.0165
G1 X139.996 Y63.900 E0.0578
G1 X140.457 Y63.907 E0.0172
G1 X141.119 Y63.881 E0.0248
G1 X141.093 Y64.543 E0.0248
G1 X141.100 Y65.004 E0.0172
G1 X141.202 Y66.545 E0.0578
G1 X141.254 Y66.982 E0.0165
G1 X141.523 Y68.553 E0.0597
G1 X141.645 Y68.984 E0.0167
G1 X141.829 Y69.414 E0.0175
G1 X143.489 Y72.136 E0.1193
G1 X144.668 Y74.604 E0.1023
G1 X145.585 Y77.180 E0.1023
G1 X146.231 Y79.837 E0.1023
G1 X146.600 Y82.546 E0.1023
G1 X146.687 Y85.278 E0.1023
G1 X146.490 Y88.013 E0.1026
G1 X146.047 Y90.715 E0.1025
G1 X146.590 Y91.352 E0.0313
G1 X146.900 Y91.482 E0.0126
G1 X148.228 Y92.258 E0.0576
G1 X149.470 Y93.118 E0.0565
G1 X150.737 Y94.148 E0.0611
G1 X151.928 Y95.274 E0.0613
G1 X153.054 Y96.500 E0.0623
G1 X154.114 Y97.822 E0.0634
G1 X155.134 Y99.280 E0.0666
G1 X156.869 Y102.063 E0.1227
G1 X157.794 Y103.399 E0.0608
G1 X158.697 Y104.490 E0.0530
G1 X159.264 Y105.044 E0.0296
G1 X158.697 Y105.597 E0.0296
G1 X157.794 Y106.688 E0.0530
G1 X156.869 Y108.024 E0.0608
G1 X155.134 Y110.807 E0.1227
G1 X154.114 Y112.266 E0.0666
G1 X153.054 Y113.587 E0.0634
G1 X151.928 Y114.813 E0.0623
G1 X150.737 Y115.939 E0.0613
G1 X149.470 Y116.969 E0.0611
G1 X148.228 Y117.829 E0.0565
G1 X146.909 Y118.600 E0.0572
G1 X146.608 Y118.725 E0.0122
G1 X146.065 Y119.362 E0.0313
G1 X146.499 Y122.056 E0.1021
G1 X146.688 Y124.781 E0.1022
G1 X146.596 Y127.504 E0.1019
G1 X146.224 Y130.202 E0.1019
G1 X145.577 Y132.849 E0.1019
G1 X144.660 Y135.414 E0.1019
G1 X143.485 Y137.872 E0.1020
G1 X141.830 Y140.585 E0.1189
G1 X141.645 Y141.016 E0.0175
G1 X141.523 Y141.447 E0.0167
G1 X141.254 Y143.018 E0.0597
G1 X141.202 Y143.455 E0.0165
G1 X141.100 Y144.996 E0.0578
G1 X141.093 Y145.457 E0.0172
G1 X141.119 Y146.119 E0.0248
G1 X140.457 Y146.093 E0.0248
G1 X139.996 Y146.100 E0.0172
G1 X138.455 Y146.202 E0.0578
G1 X138.018 Y146.254 E0.0165
G1 X136.447 Y146.523 E0.0597
G1 X136.016 Y146.645 E0.0167
G1 X135.585 Y146.829 E0.0175
G1 X132.869 Y148.486 E0.1191
G1 X130.408 Y149.663 E0.1021
G1 X127.838 Y150.580 E0.1021
G1 X125.188 Y151.227 E0.1021
G1 X122.486 Y151.597 E0.1021
G1 X119.760 Y151.687 E0.1021
G1 X117.031 Y151.496 E0.1023
G1 X114.335 Y151.059 E0.1022
G1 X113.701 Y151.600 E0.0312
G1 X113.566 Y151.915 E0.0128
G1 X112.785 Y153.254 E0.0580
G1 X111.926 Y154.496 E0.0565
G1 X110.895 Y155.763 E0.0611
G1 X109.769 Y156.954 E0.0613
G1 X108.543 Y158.080 E0.0623
G1 X107.222 Y159.140 E0.0634
G1 X105.763 Y160.160 E0.0666
G1 X102.981 Y161.894 E0.1227
G1 X101.644 Y162.820 E0.0608
G1 X100.553 Y163.723 E0.0530
G1 X100.000 Y164.289 E0.0296
G1 X99.447 Y163.723 E0.0296
G1 X98.356 Y162.820 E0.0530
G1 X97.019 Y161.894 E0.0608
G1 X94.237 Y160.160 E0.1227
G1 X92.778 Y159.140 E0.0666
G1 X91.457 Y158.080 E0.0634
G1 X90.231 Y156.954 E0.0623
G1 X89.105 Y155.763 E0.0613
G1 X88.074 Y154.496 E0.0611
G1 X87.215 Y153.254 E0.0565
G1 X86.434 Y151.915 E0.0580
G1 X86.299 Y151.600 E0.0128
G1 X85.665 Y151.059 E0.0312
G1 X82.969 Y151.496 E0.1022
G1 X80.240 Y151.687 E0.1023
G1 X77.514 Y151.597 E0.1021
G1 X74.812 Y151.227 E0.1021
G1 X72.162 Y150.580 E0.1021
G1 X69.592 Y149.663 E0.1021
G1 X67.131 Y148.486 E0.1021
G1 X64.415 Y146.829 E0.1191
G1 X63.984 Y146.645 E0.0175
G1 X63.553 Y146.523 E0.0167
G1 X61.982 Y146.254 E0.0597
G1 X61.545 Y146.202 E0.0165
G1 X60.004 Y146.100 E0.0578
G1 X59.543 Y146.093 E0.0172
G1 X58.881 Y146.119 E0.0248
G1 X58.907 Y145.457 E0.0248
G1 X58.900 Y144.996 E0.0172
G1 X58.798 Y143.455 E0.0578
G1 X58.746 Y143.018 E0.0165
G1 X58.477 Y141.447 E0.0597
G1 X58.355 Y141.016 E0.0167
G1 X58.170 Y140.585 E0.0175
G1 X56.515 Y137.872 E0.1189
G1 X55.340 Y135.414 E0.1020
G1 X54.423 Y132.849 E0.1019
G1 X53.776 Y130.202 E0.1019
G1 X53.404 Y127.504 E0.1019
G1 X53.312 Y124.781 E0.1019
G1 X53.501 Y122.056 E0.1022
G1 X53.935 Y119.363 E0.1021
G1 X53.392 Y118.725 E0.0313
G1 X53.091 Y118.600 E0.0122
G1 X51.772 Y117.829 E0.0572
G1 X50.530 Y116.969 E0.0565
G1 X49.263 Y115.939 E0.0611
G1 X48.072 Y114.813 E0.0613
G1 X46.946 Y113.587 E0.0623
G1 X45.886 Y112.265 E0.0634
G1 X44.866 Y110.807 E0.0666
G1 X43.131 Y108.024 E0.1227
G1 X42.206 Y106.688 E0.0608
G1 X41.303 Y105.597 E0.0530
G1 X40.736 Y105.044 E0.0296
G1 X41.303 Y104.490 E0.0296
G1 X42.206 Y103.399 E0.0530
G1 X43.131 Y102.063 E0.0608
G1 X44.866 Y99.280 E0.1227
G1 X45.886 Y97.822 E0.0666
G1 X46.946 Y96.500 E0.0634
G1 X48.072 Y95.274 E0.0623
G1 X49.263 Y94.148 E0.0613
G1 X50.530 Y93.118 E0.0611
G1 X51.772 Y92.258 E0.0565
G1 X53.100 Y91.482 E0.0576
G1 X53.410 Y91.352 E0.0126
G1 X53.953 Y90.715 E0.0313
G1 X53.510 Y88.013 E0.1025
G1 X53.313 Y85.278 E0.1026
G1 X53.400 Y82.546 E0.1023
G1 X53.769 Y79.837 E0.1023
G1 X54.415 Y77.180 E0.1023
G1 X55.332 Y74.604 E0.1023
G1 X56.510 Y72.136 E0.1023
G1 X58.170 Y69.414 E0.1193
G1 X58.355 Y68.984 E0.0175
G1 X58.477 Y68.553 E0.0167
G1 X58.746 Y66.982 E0.0597
G1 X58.798 Y66.545 E0.0165
G1 X58.842 Y65.878 E0.0250
G1 X58.900 Y65.004 F390
G1 X58.907 Y64.543 F390
G1 X58.881 Y63.881 F390
G1 X59.543 Y63.907 F780
G1 X60.004 Y63.900 F780
G1 X60.878 Y63.842 F780
; inner perimeter
M204 P1000
G1 X58.412 Y63.412 F7200
G1 X59.549 Y63.457 E0.0425 F390
G1 X59.986 Y63.451 E0.0164
G1 X61.503 Y63.350 E0.0569
G1 X61.917 Y63.300 E0.0156
G1 X63.454 Y63.037 E0.0583
G1 X63.834 Y62.930 E0.0148
G1 X64.208 Y62.770 E0.0152
G1 X66.916 Y61.117 E0.1187
G1 X69.419 Y59.921 E0.1038
G1 X72.032 Y58.989 E0.1038
G1 X74.727 Y58.331 E0.1038
G1 X77.476 Y57.954 E0.1038
G1 X80.249 Y57.862 E0.1038
G1 X83.020 Y58.057 E0.1040
G1 X85.532 Y58.464 E0.0952
G1 X85.927 Y58.127 E0.0194
G1 X86.031 Y57.882 E0.0099
G1 X86.835 Y56.504 E0.0597
G1 X87.714 Y55.234 E0.0578
G1 X88.766 Y53.940 E0.0624
G1 X89.915 Y52.726 E0.0626
G1 X91.163 Y51.578 E0.0635
G1 X92.508 Y50.500 E0.0645
G1 X93.988 Y49.465 E0.0676
G1 X96.772 Y47.729 E0.1227
G1 X98.084 Y46.821 E0.0597
G1 X99.141 Y45.946 E0.0514
G1 X100.000 Y45.067 E0.0460
G1 X100.859 Y45.946 E0.0460
G1 X101.916 Y46.821 E0.0514
G1 X103.228 Y47.729 E0.0597
G1 X106.011 Y49.465 E0.1227
G1 X107.492 Y50.500 E0.0676
G1 X108.837 Y51.578 E0.0645
G1 X110.085 Y52.726 E0.0634
G1 X111.234 Y53.940 E0.0626
G1 X112.286 Y55.234 E0.0624
G1 X113.165 Y56.504 E0.0578
G1 X113.969 Y57.882 E0.0597
G1 X114.073 Y58.127 E0.0099
G1 X114.468 Y58.464 E0.0194
G1 X116.980 Y58.057 E0.0952
G1 X119.751 Y57.862 E0.1040
G1 X122.524 Y57.954 E0.1038
G1 X125.273 Y58.331 E0.1038
G1 X127.968 Y58.989 E0.1038
G1 X130.581 Y59.921 E0.1038
G1 X133.084 Y61.117 E0.1038
G1 X135.792 Y62.770 E0.1187
G1 X136.166 Y62.930 E0.0152
G1 X136.546 Y63.037 E0.0148
G1 X138.083 Y63.300 E0.0583
G1 X138.497 Y63.350 E0.0156
G1 X140.014 Y63.451 E0.0569
G1 X140.451 Y63.457 E0.0163
G1 X141.588 Y63.412 E0.0426
G1 X141.543 Y64.549 E0.0425
G1 X141.549 Y64.986 E0.0164
G1 X141.650 Y66.503 E0.0569
G1 X141.700 Y66.917 E0.0156
G1 X141.963 Y68.454 E0.0583
G1 X142.070 Y68.834 E0.0148
G1 X142.230 Y69.207 E0.0152
G1 X143.886 Y71.922 E0.1190
G1 X145.084 Y74.431 E0.1041
G1 X146.017 Y77.051 E0.1040
G1 X146.674 Y79.753 E0.1040
G1 X147.049 Y82.508 E0.1040
G1 X147.137 Y85.287 E0.1040
G1 X146.938 Y88.065 E0.1042
G1 X146.525 Y90.582 E0.0954
G1 X146.863 Y90.979 E0.0195
G1 X147.101 Y91.079 E0.0097
G1 X148.470 Y91.879 E0.0593
G1 X149.741 Y92.758 E0.0578
G1 X151.034 Y93.810 E0.0624
G1 X152.249 Y94.958 E0.0625
G1 X153.396 Y96.207 E0.0635
G1 X154.475 Y97.552 E0.0645
G1 X155.510 Y99.032 E0.0676
G1 X157.245 Y101.816 E0.1227
G1 X158.153 Y103.127 E0.0597
G1 X159.028 Y104.185 E0.0514
G1 X159.908 Y105.044 E0.0460
G1 X159.028 Y105.902 E0.0460
G1 X158.153 Y106.960 E0.0514
G1 X157.245 Y108.272 E0.0597
G1 X155.510 Y111.055 E0.1227
G1 X154.475 Y112.536 E0.0676
G1 X153.396 Y113.880 E0.0645
G1 X152.249 Y115.129 E0.0635
G1 X151.034 Y116.277 E0.0625
G1 X149.740 Y117.329 E0.0624
G1 X148.470 Y118.209 E0.0578
G1 X147.110 Y119.004 E0.0589
G1 X146.881 Y119.099 E0.0093
G1 X146.542 Y119.496 E0.0195
G1 X146.946 Y122.005 E0.0951
G1 X147.138 Y124.773 E0.1038
G1 X147.045 Y127.542 E0.1037
G1 X146.667 Y130.287 E0.1037
G1 X146.008 Y132.978 E0.1037
G1 X145.076 Y135.587 E0.1037
G1 X143.881 Y138.087 E0.1037
G1 X142.230 Y140.792 E0.1186
G1 X142.070 Y141.166 E0.0152
G1 X141.963 Y141.546 E0.0148
G1 X141.700 Y143.083 E0.0583
G1 X141.650 Y143.497 E0.0156
G1 X141.549 Y145.014 E0.0569
G1 X141.543 Y145.451 E0.0163
G1 X141.588 Y146.588 E0.0426
G1 X140.451 Y146.543 E0.0425
