; G-Code generated by Simplify3D(R) Version 3.1.1
; Oct 22, 2018 at 10:06:51 AM
; Settings Summary
;   processName,Process1
;   applyToModels,Modified Tensioner Bushing
;   profileName,Travis_Fletchers_Ultimate_PETG_Profile_v2 (modified)
;   profileVersion,2017-10-07 13:44:38
;   baseProfile,Creality CR-10
;   printMaterial,PETG
;   printQuality,Fast
;   printExtruders,
;   extruderName,Primary Extruder
;   extruderToolheadNumber,0
;   extruderDiameter,0.4
;   extruderAutoWidth,0
;   extruderWidth,0.4
;   extrusionMultiplier,0.99
;   extruderUseRetract,1
;   extruderRetractionDistance,6.5
;   extruderExtraRestartDistance,-0.2
;   extruderRetractionZLift,0
;   extruderRetractionSpeed,3600
;   extruderUseCoasting,1
;   extruderCoastingDistance,0.2
;   extruderUseWipe,0
;   extruderWipeDistance,4
;   primaryExtruder,0
;   layerHeight,0.3
;   topSolidLayers,3
;   bottomSolidLayers,3
;   perimeterOutlines,3
;   printPerimetersInsideOut,1
;   startPointOption,3
;   startPointOriginX,0
;   startPointOriginY,500
;   startPointOriginZ,0
;   sequentialIslands,0
;   spiralVaseMode,0
;   firstLayerHeightPercentage,130
;   firstLayerWidthPercentage,120
;   firstLayerUnderspeed,0.6
;   useRaft,0
;   raftExtruder,0
;   raftLayers,3
;   raftOffset,3
;   raftSeparationDistance,0.14
;   raftInfill,85
;   disableRaftBaseLayers,0
;   useSkirt,0
;   skirtExtruder,0
;   skirtLayers,1
;   skirtOutlines,10
;   skirtOffset,0.2
;   usePrimePillar,0
;   primePillarExtruder,999
;   primePillarWidth,12
;   primePillarLocation,7
;   primePillarSpeedMultiplier,1
;   useOozeShield,0
;   oozeShieldExtruder,999
;   oozeShieldOffset,2
;   oozeShieldOutlines,1
;   oozeShieldSidewallShape,1
;   oozeShieldSidewallAngle,30
;   oozeShieldSpeedMultiplier,1
;   infillExtruder,0
;   internalInfillPattern,Grid
;   externalInfillPattern,Rectilinear
;   infillPercentage,15
;   outlineOverlapPercentage,35
;   infillExtrusionWidthPercentage,120
;   minInfillLength,4
;   infillLayerInterval,1
;   infillAngles,45,-45
;   overlapInfillAngles,1
;   generateSupport,1
;   supportExtruder,0
;   supportInfillPercentage,25
;   supportExtraInflation,2
;   denseSupportLayers,0
;   denseSupportInfillPercentage,60
;   supportLayerInterval,1
;   supportHorizontalPartOffset,0.3
;   supportUpperSeparationLayers,2
;   supportLowerSeparationLayers,1
;   supportType,0
;   supportGridSpacing,3.5
;   maxOverhangAngle,45
;   supportAngles,0
;   temperatureName,Heated Bed,Primary Extruder
;   temperatureNumber,0,0
;   temperatureSetpointCount,1,1
;   temperatureSetpointLayers,1,1
;   temperatureSetpointTemperatures,85,240
;   temperatureStabilizeAtStartup,1,1
;   temperatureHeatedBed,1,0
;   temperatureRelayBetweenLayers,0,0
;   temperatureRelayBetweenLoops,0,0
;   fanLayers,1,2,3
;   fanSpeeds,0,25,35
;   blipFanToFullPower,0
;   adjustSpeedForCooling,1
;   minSpeedLayerTime,20
;   minCoolingSpeedSlowdown,30
;   increaseFanForCooling,1
;   minFanLayerTime,30
;   maxCoolingFanSpeed,50
;   increaseFanForBridging,1
;   bridgingFanSpeed,100
;   use5D,1
;   relativeEdistances,0
;   allowEaxisZeroing,1
;   independentExtruderAxes,0
;   includeM10123,0
;   stickySupport,1
;   applyToolheadOffsets,0
;   gcodeXoffset,0
;   gcodeYoffset,0
;   gcodeZoffset,0
;   overrideMachineDefinition,1
;   machineTypeOverride,0
;   strokeXoverride,230
;   strokeYoverride,230
;   strokeZoverride,250
;   originOffsetXoverride,0
;   originOffsetYoverride,0
;   originOffsetZoverride,0
;   homeXdirOverride,-1
;   homeYdirOverride,-1
;   homeZdirOverride,-1
;   flipXoverride,1
;   flipYoverride,-1
;   flipZoverride,1
;   toolheadOffsets,0,0|0,0|0,0|0,0|0,0|0,0
;   overrideFirmwareConfiguration,1
;   firmwareTypeOverride,RepRap (Marlin/Repetier/Sprinter)
;   GPXconfigOverride,r2
;   baudRateOverride,115200
;   overridePrinterModels,1
;   printerModelsOverride
;   startingGcode,G28 ; home all axes,M117 Purging Extruder...,;M204 P800 T3000 R9000 ; printing =800ms, travel 3000 retract 9000,M205 T0 X1 Y1 ; Set Jerk ; T0 = Extruder (adjust as needed for multi-extruder mahcines) ; X1/Y1 = Jerk of 1 (lowest value) with a rate of up to 20 (which I believe is the highest value and default),G1 Z1.0 F3000 ; lift Z,G1 X0.2 Y25 Z0.2 F3000.0 ; move to start-line position,G92 E0 ; reset extruder,G1 X0.2 Y150.0 F1000.0 E15 ; draw 1st line,G1 X0.7 Y150.0 F3000.0 ; move to side 0.5mm,G1 X0.7 Y50 F1000.0 E30 ; draw 2nd line,G1 X0.7 Y25 F5000.0 ; quick wipe,M117 Printing!,,; Default S3D CR-10 Startup,; G28 ; home all axes,; G1 Z5 F3000 ; lift,; G1 X20 Y2 F1500 ; avoid binder clips,; G1 Z0.2 F3000 ; get ready to prime,; G92 E0 ; reset extrusion distance,; G1 X120 E10 F600 ; prime nozzle,; G1 X150 F5000 ; quick wipe,
;   layerChangeGcode,
;   retractionGcode,
;   toolChangeGcode,
;   endingGcode,M117 Print Complete!,M104 S0 ; turn off extruder,M140 S0 ; turn off bed,G1 X0 Y295 F1000 ; move finished print out front,M84 ; disable motors,M106 S0 ; turn off cooling fan,,; play song,M300 S294 P200 ;D4: 294,M300 S588 P200 ;D5: 588,M300 S440 P200 ;A4: 440,M300 S392 P200 ;G4: 392,M300 S784 P200 ;G5: 784,M300 S440 P200 ;A4: 440,M300 S740 P200 ;F#5: 740,M300 S440 P200 ;A4: 440,,; Default S3D CR-10 Ending Script,; G28 X0 ; home x axis,; M106 S0 ; turn off cooling fan,; M104 S0 ; turn off extruder,; M140 S0 ; turn off bed,; M84 ; disable motors,
;   exportFileFormat,gcode
;   celebration,0
;   celebrationSong,Star Wars
;   postProcessing,{REPLACE "; outer perimeter\n" "; outer perimeter\nM204 S600\n"},{REPLACE "; inner perimeter\n" "; inner perimeter\nM204 S1200\n"},{REPLACE "; solid layer\n" "; solid layer\nM204 S1000\n"},{REPLACE "; infill\n" "; infill\nM204 S2000\n"}
;   defaultSpeed,1500
;   outlineUnderspeed,0.8
;   solidInfillUnderspeed,0.9
;   supportUnderspeed,1
;   rapidXYspeed,9000
;   rapidZspeed,1002
;   minBridgingArea,50
;   bridgingExtraInflation,0
;   bridgingExtrusionMultiplier,0.9
;   bridgingSpeedMultiplier,1
;   filamentDiameter,1.75
;   filamentPricePerKg,46
;   filamentDensity,1.25
;   useMinPrintHeight,0
;   minPrintHeight,0
;   useMaxPrintHeight,0
;   maxPrintHeight,0
;   useDiaphragm,0
;   diaphragmLayerInterval,20
;   robustSlicing,1
;   mergeAllIntoSolid,0
;   onlyRetractWhenCrossingOutline,0
;   retractBetweenLayers,1
;   useRetractionMinTravel,1
;   retractionMinTravel,3
;   retractWhileWiping,1
;   onlyWipeOutlines,1
;   avoidCrossingOutline,1
;   maxMovementDetourFactor,3
;   toolChangeRetractionDistance,12
;   toolChangeExtraRestartDistance,-0.5
;   toolChangeRetractionSpeed,600
;   allowThinWallGapFill,1
;   thinWallAllowedOverlapPercentage,15
;   horizontalSizeCompensation,0
G90
M82
M106 S0
M140 S85
M190 S85
M104 S240 T0
M109 S240 T0
G28 ; home all axes
M117 Purging Extruder...
;M204 P800 T3000 R9000 ; printing =800ms, travel 3000 retract 9000
M205 T0 X1 Y1 ; Set Jerk ; T0 = Extruder (adjust as needed for multi-extruder mahcines) ; X1/Y1 = Jerk of 1 (lowest value) with a rate of up to 20 (which I believe is the highest value and default)
G1 Z1.0 F3000 ; lift Z
G1 X0.2 Y25 Z0.2 F3000.0 ; move to start-line position
G92 E0 ; reset extruder
G1 X0.2 Y150.0 F1000.0 E15 ; draw 1st line
G1 X0.7 Y150.0 F3000.0 ; move to side 0.5mm
G1 X0.7 Y50 F1000.0 E30 ; draw 2nd line
G1 X0.7 Y25 F5000.0 ; quick wipe
M117 Printing!
; Default S3D CR-10 Startup
; G28 ; home all axes
; G1 Z5 F3000 ; lift
; G1 X20 Y2 F1500 ; avoid binder clips
; G1 Z0.2 F3000 ; get ready to prime
; G92 E0 ; reset extrusion distance
; G1 X120 E10 F600 ; prime nozzle
; G1 X150 F5000 ; quick wipe
G92 E0
G1 E-6.5000 F3600
G1 Z0.390 F1002
; layer 1, Z = 0.39
M106 S127
T0
; tool H0.390 W0.480
; inner perimeter
M204 S1200
; inner perimeter
M204 S1200
; outer perimeter
M204 S600
G1 X112.448 Y112.246 F9000
G1 E-0.2000 F1080
G92 E0
G1 X112.765 Y111.986 E0.0316 F360
G1 X113.131 Y111.743 E0.0654
G1 X113.499 Y111.560 E0.0971
G1 X113.883 Y111.415 E0.1287
G1 X114.306 Y111.310 E0.1623
G1 X114.866 Y111.248 E0.2057
G1 X115.292 Y111.254 E0.2385
G1 X115.556 Y111.284 E0.2590
G1 X116.112 Y111.410 E0.3029
G1 X116.504 Y111.558 E0.3352
G1 X116.870 Y111.741 E0.3668
G1 X117.346 Y112.064 E0.4111
G1 X117.648 Y112.338 E0.4425
G1 X117.949 Y112.672 E0.4771
G1 X118.106 Y112.884 E0.4975
G1 X118.445 Y113.505 E0.5519
G1 X118.625 Y114.021 E0.5941
G1 X118.711 Y114.423 E0.6258
G1 X118.747 Y114.725 E0.6492
G1 X118.752 Y115.137 E0.6809
G1 X118.715 Y115.557 E0.7134
G1 X118.625 Y115.976 E0.7464
G1 X118.499 Y116.364 E0.7779
G1 X118.255 Y116.872 E0.8213
G1 X117.938 Y117.337 E0.8647
G1 X117.653 Y117.652 E0.8974
G1 X117.347 Y117.930 E0.9293
G1 X117.119 Y118.098 E0.9511
G1 X116.499 Y118.437 E1.0056
G1 X115.972 Y118.622 E1.0485
G1 X115.575 Y118.707 E1.0799
G1 X115.001 Y118.751 E1.1242
G1 X114.582 Y118.725 E1.1565
G1 X114.169 Y118.658 E1.1888
G1 X113.638 Y118.493 E1.2316
G1 X112.769 Y118.011 E1.3082
G1 X112.445 Y117.746 E1.3404
G1 X112.255 Y117.555 E1.3612
G1 X112.078 Y117.349 E1.3821
G1 X111.822 Y116.988 E1.4162
G1 X111.624 Y116.634 E1.4475
G1 X111.380 Y115.971 E1.5019
G1 X111.295 Y115.571 E1.5334
G1 X111.259 Y115.269 E1.5568
G1 X111.254 Y114.857 E1.5886
G1 X111.290 Y114.448 E1.6203
G1 X111.381 Y114.021 E1.6539
G1 X111.562 Y113.503 E1.6962
G1 X111.827 Y113.000 E1.7400
G1 X112.153 Y112.558 E1.7823
G1 X112.311 Y112.391 E1.8000
G1 X112.448 Y112.246 F360
; inner perimeter
M204 S1200
; inner perimeter
M204 S1200
; outer perimeter
M204 S600
G1 X112.377 Y113.089 F9000
G92 E0
G1 X111.916 Y113.994 E0.0783 F360
G1 X111.758 Y114.997 E0.1565
G1 X111.916 Y116.000 E0.2347
G1 X112.377 Y116.905 E0.3130
G1 X113.095 Y117.623 E0.3912
G1 X114.000 Y118.084 E0.4695
G1 X115.003 Y118.243 E0.5477
G1 X116.006 Y118.084 E0.6260
G1 X116.911 Y117.623 E0.7042
G1 X117.629 Y116.905 E0.7824
G1 X118.090 Y116.000 E0.8607
G1 X118.249 Y114.997 E0.9389
G1 X118.090 Y113.994 E1.0172
G1 X117.629 Y113.089 E1.0955
G1 X116.911 Y112.371 E1.1737
G1 X116.006 Y111.910 E1.2519
G1 X115.003 Y111.751 E1.3302
G1 X114.000 Y111.910 E1.4084
G1 X113.095 Y112.371 E1.4867
G1 X112.519 Y112.948 E1.5495
G1 X112.377 Y113.089 F360
G92 E0
G1 E-6.5000 F3600
; layer 2, Z = 0.69
; tool H0.300 W0.400
; inner perimeter
M204 S1200
; inner perimeter
M204 S1200
; outer perimeter
M204 S600
G1 X112.418 Y112.212 F9000
G1 Z0.690 F1002
G1 E-0.2000 F3600
G92 E0
G1 X112.726 Y111.960 E0.0196 F360
G1 X113.104 Y111.706 E0.0421
G1 X113.494 Y111.513 E0.0636
G1 X113.887 Y111.365 E0.0844
G1 X114.300 Y111.265 E0.1053
G1 X114.854 Y111.203 E0.1329
G1 X115.289 Y111.208 E0.1544
G1 X115.570 Y111.240 E0.1683
G1 X116.124 Y111.367 E0.1964
G1 X116.512 Y111.513 E0.2169
G1 X116.902 Y111.706 E0.2384
G1 X117.373 Y112.027 E0.2665
G1 X117.694 Y112.319 E0.2880
G1 X117.975 Y112.630 E0.3086
G1 X118.128 Y112.837 E0.3213
G1 X118.480 Y113.472 E0.3572
G1 X118.669 Y114.007 E0.3853
G1 X118.760 Y114.433 E0.4068
G1 X118.792 Y114.715 E0.4208
G1 X118.797 Y115.143 E0.4419
G1 X118.760 Y115.563 E0.4628
G1 X118.668 Y115.989 E0.4843
G1 X118.540 Y116.383 E0.5048
G1 X118.293 Y116.897 E0.5329
G1 X117.973 Y117.367 E0.5610
G1 X117.681 Y117.688 E0.5824
G1 X117.370 Y117.969 E0.6031
G1 X117.163 Y118.122 E0.6158
G1 X116.528 Y118.474 E0.6517
G1 X115.993 Y118.663 E0.6797
G1 X115.570 Y118.754 E0.7011
G1 X115.002 Y118.797 E0.7292
G1 X114.606 Y118.772 E0.7488
G1 X114.158 Y118.702 E0.7712
G1 X113.621 Y118.535 E0.7990
G1 X112.766 Y118.063 E0.8472
G1 X112.416 Y117.780 E0.8694
G1 X112.205 Y117.567 E0.8842
G1 X112.034 Y117.368 E0.8972
G1 X111.782 Y117.009 E0.9189
G1 X111.581 Y116.649 E0.9392
G1 X111.337 Y115.986 E0.9742
G1 X111.246 Y115.560 E0.9956
G1 X111.214 Y115.283 E1.0094
G1 X111.209 Y114.860 E1.0303
G1 X111.246 Y114.431 E1.0516
G1 X111.337 Y114.007 E1.0730
G1 X111.527 Y113.470 E1.1011
G1 X111.783 Y112.985 E1.1282
G1 X112.120 Y112.526 E1.1564
G1 X112.281 Y112.357 E1.1679
G1 X112.418 Y112.212 F360
; inner perimeter
M204 S1200
; inner perimeter
M204 S1200
; outer perimeter
M204 S600
G1 X112.410 Y113.113 F9000
G92 E0
G1 X111.954 Y114.006 E0.0495 F360
G1 X111.799 Y114.997 E0.0991
G1 X111.954 Y115.988 E0.1486
G1 X112.410 Y116.881 E0.1981
G1 X113.119 Y117.590 E0.2476
G1 X114.012 Y118.046 E0.2972
G1 X115.003 Y118.202 E0.3467
G1 X115.994 Y118.046 E0.3963
G1 X116.887 Y117.590 E0.4458
G1 X117.596 Y116.881 E0.4953
G1 X118.052 Y115.988 E0.5448
G1 X118.208 Y114.997 E0.5944
G1 X118.052 Y114.006 E0.6439
G1 X117.596 Y113.113 E0.6935
G1 X116.887 Y112.404 E0.7430
G1 X115.994 Y111.948 E0.7925
G1 X115.003 Y111.792 E0.8420
G1 X114.012 Y111.948 E0.8916
G1 X113.119 Y112.404 E0.9411
G1 X112.552 Y112.972 E0.9807
G1 X112.410 Y113.113 F360
; gap fill
G1 X111.699 Y113.776 F9000
G92 E0
G1 X111.856 Y113.619 E0.0110 F405
G1 X111.700 Y113.924 E0.0279
G1 X111.622 Y114.418 E0.0526
G1 X111.502 Y114.538 E0.0610
G1 X111.473 Y114.870 E0.0774
G1 X111.476 Y115.130 E0.0903
G1 X111.542 Y115.064 E0.0949
G1 X111.619 Y115.553 E0.1193
G1 X111.533 Y115.639 E0.1253
G1 X111.591 Y115.912 E0.1391
G1 X111.654 Y116.083 E0.1481
G1 X111.696 Y116.042 E0.1510
G1 X111.700 Y116.070 E0.1524
G1 X111.880 Y116.423 E0.1720
G1 X111.806 Y116.497 E0.1771
G1 X111.822 Y116.539 E0.1793
G1 X112.004 Y116.865 E0.1978
G1 X112.071 Y116.797 E0.2025
G1 X112.194 Y117.038 E0.2158
G1 X112.295 Y117.139 E0.2229
G1 X112.237 Y117.197 E0.2269
G1 X112.243 Y117.206 E0.2275
G1 X112.399 Y117.388 E0.2393
G1 X112.505 Y117.495 E0.2467
G1 X112.578 Y117.422 E0.2518
G1 X112.861 Y117.705 E0.2716
G1 X112.808 Y117.758 E0.2753
G1 X112.913 Y117.843 E0.2820
G1 X113.155 Y117.976 E0.2956
G1 X113.203 Y117.929 E0.2989
G1 X113.577 Y118.120 E0.3197
G1 X113.520 Y118.178 E0.3237
G1 X113.725 Y118.291 E0.3353
G1 X113.913 Y118.349 E0.3450
G1 X113.958 Y118.304 E0.3482
G1 X114.447 Y118.382 E0.3726
G1 X114.362 Y118.466 E0.3785
G1 X114.635 Y118.509 E0.3922
G1 X114.870 Y118.524 E0.4038
G1 X114.935 Y118.459 E0.4083
G1 X115.003 Y118.470 E0.4117
G1 X115.582 Y118.378 E0.4407
G1 X115.463 Y118.497 E0.4490
G1 X115.532 Y118.492 E0.4524
G1 X115.921 Y118.408 E0.4720
G1 X116.225 Y118.301 E0.4879
G1 X116.381 Y118.144 E0.4989
G1 X117.044 Y117.806 E0.5356
G1 X117.812 Y117.038 E0.5893
G1 X118.150 Y116.375 E0.6260
G1 X118.320 Y116.205 E0.6379
G1 X118.413 Y115.921 E0.6527
G1 X118.498 Y115.524 E0.6728
G1 X118.504 Y115.456 E0.6761
G1 X118.384 Y115.576 E0.6845
G1 X118.476 Y114.997 E0.7135
G1 X118.465 Y114.929 E0.7169
G1 X118.530 Y114.864 E0.7214
G1 X118.528 Y114.731 E0.7279
G1 X118.500 Y114.476 E0.7406
G1 X118.473 Y114.355 E0.7468
G1 X118.388 Y114.441 E0.7527
G1 X118.310 Y113.952 E0.7772
G1 X118.354 Y113.909 E0.7802
G1 X118.238 Y113.581 E0.7974
G1 X118.195 Y113.502 E0.8018
G1 X118.126 Y113.571 E0.8066
G1 X117.935 Y113.197 E0.8274
G1 X117.993 Y113.138 E0.8315
G1 X117.905 Y112.980 E0.8404
G1 X117.770 Y112.797 E0.8516
G1 X117.711 Y112.855 E0.8557
G1 X117.428 Y112.572 E0.8755
G1 X117.500 Y112.500 E0.8805
G1 X117.209 Y112.235 E0.9000
G1 X117.203 Y112.231 E0.9003
G1 X117.145 Y112.289 E0.9044
G1 X117.044 Y112.188 E0.9114
G1 X116.803 Y112.065 E0.9248
G1 X116.867 Y112.002 E0.9292
G1 X116.768 Y111.934 E0.9351
G1 X116.501 Y111.802 E0.9498
G1 X116.429 Y111.874 E0.9549
G1 X116.076 Y111.694 E0.9744
G1 X116.048 Y111.690 E0.9758
G1 X116.098 Y111.639 E0.9794
G1 X116.048 Y111.620 E0.9820
G1 X115.644 Y111.528 E1.0025
G1 X115.559 Y111.612 E1.0084
G1 X115.071 Y111.535 E1.0328
G1 X115.136 Y111.470 E1.0373
G1 X114.868 Y111.468 E1.0506
G1 X114.535 Y111.505 E1.0671
G1 X114.424 Y111.616 E1.0748
G1 X113.930 Y111.694 E1.0996
G1 X113.625 Y111.850 E1.1165
G1 X113.651 Y111.824 E1.1183
G1 X113.791 Y111.683 F405
G92 E0
G1 E-6.5000 F3600
; layer 3, Z = 0.99
; inner perimeter
M204 S1200
; inner perimeter
M204 S1200
; outer perimeter
M204 S600
G1 X112.418 Y112.213 F9000
G1 Z0.990 F1002
G1 E-0.2000 F3600
G92 E0
G1 X112.793 Y111.912 E0.0237 F360
G1 X113.103 Y111.707 E0.0421
G1 X113.501 Y111.510 E0.0641
G1 X113.891 Y111.364 E0.0846
G1 X114.304 Y111.265 E0.1056
G1 X114.846 Y111.204 E0.1325
G1 X115.289 Y111.208 E0.1544
G1 X115.574 Y111.241 E0.1686
G1 X116.124 Y111.367 E0.1965
G1 X116.505 Y111.510 E0.2165
G1 X116.902 Y111.706 E0.2384
G1 X117.373 Y112.027 E0.2666
G1 X117.700 Y112.325 E0.2884
G1 X117.975 Y112.630 E0.3087
G1 X118.118 Y112.823 E0.3206
G1 X118.477 Y113.465 E0.3569
