; G-Code generated by Simplify3D(R) Version 3.1.1
; Nov 19, 2018 at 12:16:16 AM
; Settings Summary
;   processName,Process1
;   applyToModels,MountableCase Pixel
;   profileName,MK3 TPU (modified)
;   profileVersion,2018-11-15 18:26:31
;   baseProfile,Default
;   printMaterial,TPU
;   printQuality,0.2mm (Normal)
;   printExtruders,
;   extruderName,Primary Extruder
;   extruderToolheadNumber,0
;   extruderDiameter,0.4
;   extruderAutoWidth,0
;   extruderWidth,0.45
;   extrusionMultiplier,1
;   extruderUseRetract,1
;   extruderRetractionDistance,2.8
;   extruderExtraRestartDistance,0
;   extruderRetractionZLift,0
;   extruderRetractionSpeed,6000
;   extruderUseCoasting,1
;   extruderCoastingDistance,2
;   extruderUseWipe,1
;   extruderWipeDistance,2
;   primaryExtruder,0
;   layerHeight,0.2
;   topSolidLayers,4
;   bottomSolidLayers,4
;   perimeterOutlines,3
;   printPerimetersInsideOut,1
;   startPointOption,3
;   startPointOriginX,0
;   startPointOriginY,0
;   startPointOriginZ,0
;   sequentialIslands,0
;   spiralVaseMode,0
;   firstLayerHeightPercentage,100
;   firstLayerWidthPercentage,100
;   firstLayerUnderspeed,0.5
;   useRaft,0
;   raftExtruder,0
;   raftLayers,3
;   raftOffset,3
;   raftSeparationDistance,0.14
;   raftInfill,85
;   disableRaftBaseLayers,0
;   useSkirt,0
;   skirtExtruder,0
;   skirtLayers,1
;   skirtOutlines,3
;   skirtOffset,8
;   usePrimePillar,0
;   primePillarExtruder,999
;   primePillarWidth,12
;   primePillarLocation,7
;   primePillarSpeedMultiplier,1
;   useOozeShield,0
;   oozeShieldExtruder,999
;   oozeShieldOffset,2
;   oozeShieldOutlines,1
;   oozeShieldSidewallShape,1
;   oozeShieldSidewallAngle,30
;   oozeShieldSpeedMultiplier,1
;   infillExtruder,0
;   internalInfillPattern,Rectilinear
;   externalInfillPattern,Rectilinear
;   infillPercentage,25
;   outlineOverlapPercentage,20
;   infillExtrusionWidthPercentage,100
;   minInfillLength,1
;   infillLayerInterval,1
;   infillAngles,45,-45
;   overlapInfillAngles,1
;   generateSupport,1
;   supportExtruder,0
;   supportInfillPercentage,15
;   supportExtraInflation,0.2
;   denseSupportLayers,2
;   denseSupportInfillPercentage,50
;   supportLayerInterval,1
;   supportHorizontalPartOffset,0.1
;   supportUpperSeparationLayers,2
;   supportLowerSeparationLayers,1
;   supportType,0
;   supportGridSpacing,3
;   maxOverhangAngle,35
;   supportAngles,90,45
;   temperatureName,Primary Extruder,Heated Bed
;   temperatureNumber,0,1
;   temperatureSetpointCount,1,1
;   temperatureSetpointLayers,1,1
;   temperatureSetpointTemperatures,220,50
;   temperatureStabilizeAtStartup,1,1
;   temperatureHeatedBed,0,1
;   temperatureRelayBetweenLayers,0,0
;   temperatureRelayBetweenLoops,0,0
;   fanLayers,1,2
;   fanSpeeds,0,100
;   blipFanToFullPower,0
;   adjustSpeedForCooling,1
;   minSpeedLayerTime,15
;   minCoolingSpeedSlowdown,20
;   increaseFanForCooling,0
;   minFanLayerTime,45
;   maxCoolingFanSpeed,100
;   increaseFanForBridging,1
;   bridgingFanSpeed,100
;   use5D,1
;   relativeEdistances,1
;   allowEaxisZeroing,1
;   independentExtruderAxes,0
;   includeM10123,0
;   stickySupport,1
;   applyToolheadOffsets,0
;   gcodeXoffset,0
;   gcodeYoffset,0
;   gcodeZoffset,0
;   overrideMachineDefinition,1
;   machineTypeOverride,0
;   strokeXoverride,200
;   strokeYoverride,210
;   strokeZoverride,250
;   originOffsetXoverride,0
;   originOffsetYoverride,0
;   originOffsetZoverride,0
;   homeXdirOverride,-1
;   homeYdirOverride,-1
;   homeZdirOverride,-1
;   flipXoverride,1
;   flipYoverride,-1
;   flipZoverride,1
;   toolheadOffsets,0,0|0,0|0,0|0,0|0,0|0,0
;   overrideFirmwareConfiguration,0
;   firmwareTypeOverride,RepRap (Marlin/Repetier/Sprinter)
;   GPXconfigOverride,r2
;   baudRateOverride,115200
;   overridePrinterModels,1
;   printerModelsOverride,Prusa_MK3_Assy_STL_-_FULL.STL
;   startingGcode,M115 U3.1.0 ; tell printer latest fw version,G 28 W ;,G1 Z100 ;,M900 K32 ; k value,M104 S[extruder0_temperature] T0 ; this will take the layer 1 temperature for extruder 0,M140 S[bed1_temperature] ; this will take the layer 1 temperature for bed 0,M190 S[bed1_temperature] ; wait for bed temp,M109 S[extruder0_temperature] T0 ; wait for extruder temp,G28 W ; home all without mesh bed level,G80 ; mesh bed leveling,G1 Y-3.0 F1000.0 ; go outside print area,G92 E0.0
;   layerChangeGcode,
;   retractionGcode,
;   toolChangeGcode,
;   endingGcode,G4 ; wait,M104 S0 ; turn off temperature,M140 S0 ; turn off heatbed,M107 ; turn off fan,G1 X0 Y200; home X axis,G1 F1000.0 ; set feed rate,G1 E-3 ; retract,M84 ; disable motors,,
;   exportFileFormat,gcode
;   celebration,0
;   celebrationSong,Star Wars
;   postProcessing,{REPLACE "; outer perimeter\n" "; outer perimeter\nM204 P800\n"},{REPLACE "; inner perimeter\n" "; inner perimeter\nM204 P1000\n"},{REPLACE "; solid layer\n" "; solid layer\nM204 P1000\n"},{REPLACE "; infill\n" "; infill\nM204 P3500\n"}
;   defaultSpeed,780
;   outlineUnderspeed,1
;   solidInfillUnderspeed,1
;   supportUnderspeed,1
;   rapidXYspeed,7200
;   rapidZspeed,900
;   minBridgingArea,50
;   bridgingExtraInflation,0
;   bridgingExtrusionMultiplier,0.9
;   bridgingSpeedMultiplier,0.6
;   filamentDiameter,1.75
;   filamentPricePerKg,46
;   filamentDensity,1.25
;   useMinPrintHeight,0
;   minPrintHeight,0
;   useMaxPrintHeight,0
;   maxPrintHeight,0
;   useDiaphragm,0
;   diaphragmLayerInterval,20
;   robustSlicing,1
;   mergeAllIntoSolid,0
;   onlyRetractWhenCrossingOutline,0
;   retractBetweenLayers,0
;   useRetractionMinTravel,1
;   retractionMinTravel,3
;   retractWhileWiping,1
;   onlyWipeOutlines,0
;   avoidCrossingOutline,1
;   maxMovementDetourFactor,3
;   toolChangeRetractionDistance,12
;   toolChangeExtraRestartDistance,-0.5
;   toolChangeRetractionSpeed,600
;   allowThinWallGapFill,1
;   thinWallAllowedOverlapPercentage,25
;   horizontalSizeCompensation,0
G90
M83
M106 S0
M115 U3.1.0 ; tell printer latest fw version
G 28 W ;
G1 Z100 ;
M900 K32 ; k value
M104 S220 T0 ; this will take the layer 1 temperature for extruder 0
M140 S50 ; this will take the layer 1 temperature for bed 0
M190 S50 ; wait for bed temp
M109 S220 T0 ; wait for extruder temp
G28 W ; home all without mesh bed level
G80 ; mesh bed leveling
G1 Y-3.0 F1000.0 ; go outside print area
G92 E0.0
G1 E-2.8000 F6000
G1 Z0.200 F900
; layer 1, Z = 0.2
T0
; tool H0.200 W0.450
; inner perimeter
M204 P1000
G1 X94.624 Y90.463 F7200
G1 E2.8000 F1800
G1 X105.156 Y90.463 E0.3941 F390
G1 X105.156 Y128.213 E1.4125
G1 X94.624 Y128.213 E0.3941
G1 X94.624 Y92.463 E1.3377
G1 X94.624 Y90.463 F390
G1 X96.624 Y90.463 F780
; inner perimeter
M204 P1000
G1 X94.174 Y90.013 F7200
G1 X105.606 Y90.013 E0.4278 F390
G1 X105.606 Y128.663 E1.4462
G1 X94.174 Y128.663 E0.4278
G1 X94.174 Y92.013 E1.3714
G1 X94.174 Y90.013 F390
G1 X96.174 Y90.013 F780
; outer perimeter
M204 P800
G1 X93.724 Y89.563 F7200
G1 X106.056 Y89.563 E0.4615 F390
G1 X106.056 Y129.113 E1.4799
G1 X93.724 Y129.113 E0.4615
G1 X93.724 Y91.563 E1.4050
G1 X93.724 Y89.563 F390
G1 X94.088 Y89.563 E-2.8000 F780
G1 X95.724 Y89.563 F780
; solid layer
M204 P1000
G1 X104.278 Y90.823 F7200
G1 E2.8000 F6000
G1 X104.796 Y91.341 E0.0274 F390
G1 X104.796 Y91.977 E0.0238
G1 X103.642 Y90.823 E0.0611
G1 X103.006 Y90.823 E0.0238
G1 X104.796 Y92.614 E0.0948
G1 X104.796 Y93.250 E0.0238
G1 X102.369 Y90.823 E0.1284
G1 X101.733 Y90.823 E0.0238
G1 X104.796 Y93.886 E0.1621
G1 X104.796 Y94.523 E0.0238
G1 X101.097 Y90.823 E0.1958
G1 X100.460 Y90.823 E0.0238
G1 X104.796 Y95.159 E0.2295
G1 X104.796 Y95.796 E0.0238
G1 X99.824 Y90.823 E0.2631
G1 X99.187 Y90.823 E0.0238
G1 X104.796 Y96.432 E0.2968
G1 X104.796 Y97.068 E0.0238
G1 X98.551 Y90.823 E0.3305
G1 X97.915 Y90.823 E0.0238
G1 X104.796 Y97.705 E0.3642
G1 X104.796 Y98.341 E0.0238
G1 X97.278 Y90.823 E0.3978
G1 X96.642 Y90.823 E0.0238
G1 X104.796 Y98.978 E0.4315
G1 X104.796 Y99.614 E0.0238
G1 X96.005 Y90.823 E0.4652
G1 X95.369 Y90.823 E0.0238
G1 X104.796 Y100.250 E0.4989
G1 X104.796 Y100.887 E0.0238
G1 X94.984 Y91.074 E0.5192
G1 X94.984 Y91.711 E0.0238
G1 X104.796 Y101.523 E0.5192
G1 X104.796 Y102.160 E0.0238
G1 X94.984 Y92.347 E0.5192
G1 X94.984 Y92.983 E0.0238
G1 X104.796 Y102.796 E0.5192
G1 X104.796 Y103.432 E0.0238
G1 X94.984 Y93.620 E0.5192
G1 X94.984 Y94.256 E0.0238
G1 X104.796 Y104.069 E0.5192
G1 X104.796 Y104.705 E0.0238
G1 X94.984 Y94.893 E0.5192
G1 X94.984 Y95.529 E0.0238
G1 X104.796 Y105.342 E0.5192
G1 X104.796 Y105.978 E0.0238
G1 X94.984 Y96.165 E0.5192
G1 X94.984 Y96.802 E0.0238
G1 X104.796 Y106.614 E0.5192
G1 X104.796 Y107.251 E0.0238
G1 X94.984 Y97.438 E0.5192
G1 X94.984 Y98.074 E0.0238
G1 X104.796 Y107.887 E0.5192
G1 X104.796 Y108.523 E0.0238
G1 X94.984 Y98.711 E0.5192
G1 X94.984 Y99.347 E0.0238
G1 X104.796 Y109.160 E0.5192
G1 X104.796 Y109.796 E0.0238
G1 X94.984 Y99.984 E0.5192
G1 X94.984 Y100.620 E0.0238
G1 X104.796 Y110.433 E0.5192
G1 X104.796 Y111.069 E0.0238
G1 X94.984 Y101.256 E0.5192
G1 X94.984 Y101.893 E0.0238
G1 X104.796 Y111.705 E0.5192
G1 X104.796 Y112.342 E0.0238
G1 X94.984 Y102.529 E0.5192
G1 X94.984 Y103.166 E0.0238
G1 X104.796 Y112.978 E0.5192
G1 X104.796 Y113.615 E0.0238
G1 X94.984 Y103.802 E0.5192
G1 X94.984 Y104.438 E0.0238
G1 X104.796 Y114.251 E0.5192
G1 X104.796 Y114.887 E0.0238
G1 X94.984 Y105.075 E0.5192
G1 X94.984 Y105.711 E0.0238
G1 X104.796 Y115.524 E0.5192
G1 X104.796 Y116.160 E0.0238
G1 X94.984 Y106.348 E0.5192
G1 X94.984 Y106.984 E0.0238
G1 X104.796 Y116.797 E0.5192
G1 X104.796 Y117.433 E0.0238
G1 X94.984 Y107.620 E0.5192
G1 X94.984 Y108.257 E0.0238
G1 X104.796 Y118.069 E0.5192
G1 X104.796 Y118.706 E0.0238
G1 X94.984 Y108.893 E0.5192
G1 X94.984 Y109.530 E0.0238
G1 X104.796 Y119.342 E0.5192
G1 X104.796 Y119.979 E0.0238
G1 X94.984 Y110.166 E0.5192
G1 X94.984 Y110.802 E0.0238
G1 X104.796 Y120.615 E0.5192
G1 X104.796 Y121.251 E0.0238
G1 X94.984 Y111.439 E0.5192
G1 X94.984 Y112.075 E0.0238
G1 X104.796 Y121.888 E0.5192
G1 X104.796 Y122.524 E0.0238
G1 X94.984 Y112.712 E0.5192
G1 X94.984 Y113.348 E0.0238
G1 X104.796 Y123.161 E0.5192
G1 X104.796 Y123.797 E0.0238
G1 X94.984 Y113.984 E0.5192
G1 X94.984 Y114.621 E0.0238
G1 X104.796 Y124.433 E0.5192
G1 X104.796 Y125.070 E0.0238
G1 X94.984 Y115.257 E0.5192
G1 X94.984 Y115.894 E0.0238
G1 X104.796 Y125.706 E0.5192
G1 X104.796 Y126.343 E0.0238
G1 X94.984 Y116.530 E0.5192
G1 X94.984 Y117.166 E0.0238
G1 X104.796 Y126.979 E0.5192
G1 X104.796 Y127.615 E0.0238
G1 X94.984 Y117.803 E0.5192
G1 X94.984 Y118.439 E0.0238
G1 X104.398 Y127.853 E0.4981
G1 X103.761 Y127.853 E0.0238
G1 X94.984 Y119.076 E0.4645
G1 X94.984 Y119.712 E0.0238
G1 X103.125 Y127.853 E0.4308
G1 X102.488 Y127.853 E0.0238
G1 X94.984 Y120.348 E0.3971
G1 X94.984 Y120.985 E0.0238
G1 X101.852 Y127.853 E0.3634
G1 X101.216 Y127.853 E0.0238
G1 X94.984 Y121.621 E0.3298
G1 X94.984 Y122.258 E0.0238
G1 X100.579 Y127.853 E0.2961
G1 X99.943 Y127.853 E0.0238
G1 X94.984 Y122.894 E0.2624
G1 X94.984 Y123.530 E0.0238
G1 X99.306 Y127.853 E0.2287
G1 X98.670 Y127.853 E0.0238
G1 X94.984 Y124.167 E0.1951
G1 X94.984 Y124.803 E0.0238
G1 X98.034 Y127.853 E0.1614
G1 X97.397 Y127.853 E0.0238
G1 X94.984 Y125.440 E0.1277
G1 X94.984 Y126.076 E0.0238
G1 X96.761 Y127.853 E0.0940
G1 X96.124 Y127.853 E0.0238
G1 X95.443 Y127.172 E0.0360
G1 X94.984 Y126.712 F390
G1 X94.984 Y127.349 F390
G1 X95.488 Y127.853 F390
G1 X95.231 Y127.596 E-2.8000 F780
G1 X94.984 Y127.349 F780
G1 X94.984 Y126.712 F780
G1 X95.444 Y127.172 F780
; support
G1 X97.000 Y130.165 F7200
G1 E2.8000 F6000
G1 X97.000 Y133.835 E0.1373 F390
G1 X94.335 Y133.835 E0.0997
G1 X94.335 Y136.835 E0.1123
G1 X94.000 Y136.835 E0.0125
G1 X94.000 Y129.663 E0.2684
G1 X93.174 Y129.663 E0.0309
G1 X93.174 Y109.165 E0.7670
G1 X91.335 Y109.165 E0.0688
G1 X91.335 Y106.165 E0.1123
G1 X91.000 Y106.165 E0.0125
G1 X91.000 Y178.835 E2.7191
G1 X90.665 Y178.835 E0.0125
G1 X90.665 Y175.835 E0.1123
G1 X88.000 Y175.835 E0.0997
G1 X88.000 Y124.165 E1.9334
G1 X90.665 Y124.165 E0.0997
G1 X90.665 Y118.835 E0.1994
G1 X88.000 Y118.835 E0.0997
G1 X88.000 Y100.165 E0.6986
G1 X85.335 Y100.165 E0.0997
G1 X85.335 Y97.165 E0.1123
G1 X85.000 Y97.165 E0.0125
G1 X85.000 Y115.835 E0.6986
G1 X84.665 Y115.835 E0.0125
G1 X84.665 Y112.835 E0.1123
G1 X82.335 Y112.835 E0.0872
G1 X82.335 Y118.165 E0.1994
G1 X85.000 Y118.165 E0.0997
G1 X85.000 Y163.835 E1.7089
G1 X82.335 Y163.835 E0.0997
G1 X82.335 Y166.835 E0.1123
G1 X82.000 Y166.835 E0.0125
G1 X82.000 Y142.165 E0.9231
G1 X84.665 Y142.165 E0.0997
G1 X84.665 Y139.835 E0.0872
G1 X82.000 Y139.835 E0.0997
G1 X82.000 Y43.165 E3.6172
G1 X79.000 Y43.165 E0.1123
G1 X79.000 Y52.835 E0.3618
G1 X81.665 Y52.835 E0.0997
G1 X81.665 Y55.165 E0.0872
G1 X79.000 Y55.165 E0.0997
G1 X79.000 Y131.835 E2.8688
G1 X79.000 Y133.835 F390
G1 X79.000 Y133.471 E-2.8000 F780
G1 X79.000 Y131.835 F780
G1 X79.000 Y148.165 F7200
G1 E2.8000 F6000
G1 X79.000 Y176.835 E1.0728 F390
G1 X79.000 Y178.835 F390
G1 X79.000 Y178.471 E-2.8000 F780
G1 X79.000 Y176.835 F780
G1 X82.000 Y169.165 F7200
G1 E2.8000 F6000
G1 X82.000 Y178.835 E0.3618 F390
G1 X82.335 Y178.835 E0.0125
G1 X82.335 Y175.835 E0.1123
G1 X85.000 Y175.835 E0.0997
G1 X85.000 Y171.165 E0.1747
G1 X85.000 Y169.165 F390
G1 X85.000 Y169.529 E-2.8000 F780
G1 X85.000 Y171.165 F780
G1 X94.000 Y178.835 F7200
G1 E2.8000 F6000
G1 X94.000 Y141.165 E1.4095 F390
G1 X94.000 Y139.165 F390
G1 X94.000 Y139.529 E-2.8000 F780
G1 X94.000 Y141.165 F780
G1 X103.000 Y130.165 F7200
G1 E2.8000 F6000
G1 X103.000 Y133.835 E0.1373 F390
G1 X105.665 Y133.835 E0.0997
G1 X105.665 Y136.835 E0.1123
G1 X106.000 Y136.835 E0.0125
G1 X106.000 Y131.663 E0.1935
G1 X106.000 Y129.663 F390
G1 X106.000 Y130.027 E-2.8000 F780
G1 X106.000 Y131.663 F780
G1 X118.000 Y139.835 F7200
G1 E2.8000 F6000
G1 X118.000 Y109.165 E1.1476 F390
G1 X117.665 Y109.165 E0.0125
G1 X117.665 Y118.165 E0.3368
G1 X115.000 Y118.165 E0.0997
G1 X115.000 Y163.835 E1.7089
G1 X118.000 Y163.835 E0.1123
G1 X118.000 Y142.165 E0.8108
G1 X118.335 Y142.165 E0.0125
G1 X118.335 Y148.165 E0.2245
G1 X121.000 Y148.165 E0.0997
G1 X121.000 Y163.835 E0.5863
G1 X124.000 Y163.835 E0.1123
G1 X124.000 Y153.165 E0.3992
G1 X124.000 Y151.165 F390
G1 X124.000 Y151.529 E-2.8000 F780
G1 X124.000 Y153.165 F780
G1 X112.000 Y163.835 F7200
G1 E2.8000 F6000
G1 X112.000 Y124.165 E1.4844 F390
G1 X109.000 Y124.165 E0.1123
G1 X109.000 Y163.835 E1.4844
G1 X106.000 Y163.835 E0.1123
G1 X106.000 Y139.165 E0.9231
G1 X105.665 Y139.165 E0.0125
G1 X105.665 Y145.165 E0.2245
G1 X103.000 Y145.165 E0.0997
G1 X103.000 Y163.835 E0.6986
G1 X100.000 Y163.835 E0.1123
G1 X100.000 Y145.165 E0.6986
G1 X97.000 Y145.165 E0.1123
G1 X97.000 Y178.835 E1.2599
G1 X100.000 Y178.835 E0.1123
G1 X100.000 Y172.165 E0.2496
G1 X103.000 Y172.165 E0.1123
G1 X103.000 Y178.835 E0.2496
G1 X106.000 Y178.835 E0.1123
G1 X106.000 Y172.165 E0.2496
G1 X109.000 Y172.165 E0.1123
G1 X109.000 Y178.835 E0.2496
G1 X112.000 Y178.835 E0.1123
G1 X112.000 Y172.165 E0.2496
G1 X115.000 Y172.165 E0.1123
G1 X115.000 Y178.835 E0.2496
G1 X118.000 Y178.835 E0.1123
G1 X118.000 Y172.165 E0.2496
G1 X121.000 Y172.165 E0.1123
G1 X121.000 Y178.835 E0.2496
G1 X124.000 Y178.835 E0.1123
G1 X124.000 Y174.165 E0.1747
G1 X124.000 Y172.165 F390
G1 X124.000 Y172.529 E-2.8000 F780
G1 X124.000 Y174.165 F780
G1 X64.000 Y175.835 F7200
G1 E2.8000 F6000
G1 X64.000 Y34.165 E5.3010 F390
G1 X67.000 Y34.165 E0.1123
G1 X67.000 Y175.835 E5.3010
G1 X69.665 Y175.835 E0.0997
G1 X69.665 Y178.835 E0.1123
G1 X70.000 Y178.835 E0.0125
G1 X70.000 Y31.165 E5.5255
G1 X73.000 Y31.165 E0.1123
G1 X73.000 Y178.835 E5.5255
G1 X76.000 Y178.835 E0.1123
G1 X76.000 Y151.165 E1.0353
G1 X73.335 Y151.165 E0.0997
G1 X73.335 Y145.835 E0.1994
G1 X76.000 Y145.835 E0.0997
G1 X76.000 Y58.165 E3.2804
G1 X75.665 Y58.165 E0.0125
G1 X75.665 Y64.165 E0.2245
G1 X73.335 Y64.165 E0.0872
G1 X73.335 Y49.835 E0.5362
G1 X75.665 Y49.835 E0.0872
G1 X75.665 Y52.835 E0.1123
G1 X76.000 Y52.835 E0.0125
G1 X76.000 Y31.165 E0.8108
G1 X76.335 Y31.165 E0.0125
G1 X76.335 Y34.165 E0.1123
G1 X79.000 Y34.165 E0.0997
G1 X79.000 Y40.835 E0.2496
G1 X82.000 Y40.835 E0.1123
G1 X82.000 Y34.165 E0.2496
G1 X85.000 Y34.165 E0.1123
G1 X85.000 Y94.835 E2.2701
