; G-Code generated by Simplify3D(R) Version 3.1.1
; Oct 27, 2018 at 9:49:25 AM
; Settings Summary
;   processName,Process1
;   applyToModels,NEMA17_Dampener-1,NEMA17_Dampener-2,NEMA17_Dampener-2(2),NEMA17_Dampener-1(2)
;   profileName,MK3 TPU (modified)
;   profileVersion,2018-01-15 08:30:03
;   baseProfile,Default
;   printMaterial,TPU
;   printQuality,0.2mm (Normal)
;   printExtruders,
;   extruderName,Primary Extruder
;   extruderToolheadNumber,0
;   extruderDiameter,0.4
;   extruderAutoWidth,0
;   extruderWidth,0.45
;   extrusionMultiplier,1
;   extruderUseRetract,1
;   extruderRetractionDistance,2.8
;   extruderExtraRestartDistance,0
;   extruderRetractionZLift,0
;   extruderRetractionSpeed,6000
;   extruderUseCoasting,1
;   extruderCoastingDistance,2
;   extruderUseWipe,1
;   extruderWipeDistance,2
;   primaryExtruder,0
;   layerHeight,0.2
;   topSolidLayers,4
;   bottomSolidLayers,4
;   perimeterOutlines,3
;   printPerimetersInsideOut,1
;   startPointOption,3
;   startPointOriginX,0
;   startPointOriginY,0
;   startPointOriginZ,0
;   sequentialIslands,0
;   spiralVaseMode,0
;   firstLayerHeightPercentage,100
;   firstLayerWidthPercentage,100
;   firstLayerUnderspeed,0.5
;   useRaft,0
;   raftExtruder,0
;   raftLayers,3
;   raftOffset,3
;   raftSeparationDistance,0.14
;   raftInfill,85
;   disableRaftBaseLayers,0
;   useSkirt,1
;   skirtExtruder,0
;   skirtLayers,1
;   skirtOutlines,3
;   skirtOffset,8
;   usePrimePillar,0
;   primePillarExtruder,999
;   primePillarWidth,12
;   primePillarLocation,7
;   primePillarSpeedMultiplier,1
;   useOozeShield,0
;   oozeShieldExtruder,999
;   oozeShieldOffset,2
;   oozeShieldOutlines,1
;   oozeShieldSidewallShape,1
;   oozeShieldSidewallAngle,30
;   oozeShieldSpeedMultiplier,1
;   infillExtruder,0
;   internalInfillPattern,Rectilinear
;   externalInfillPattern,Rectilinear
;   infillPercentage,25
;   outlineOverlapPercentage,20
;   infillExtrusionWidthPercentage,100
;   minInfillLength,1
;   infillLayerInterval,1
;   infillAngles,45,-45
;   overlapInfillAngles,1
;   generateSupport,0
;   supportExtruder,0
;   supportInfillPercentage,15
;   supportExtraInflation,0.2
;   denseSupportLayers,2
;   denseSupportInfillPercentage,50
;   supportLayerInterval,1
;   supportHorizontalPartOffset,0.1
;   supportUpperSeparationLayers,2
;   supportLowerSeparationLayers,1
;   supportType,0
;   supportGridSpacing,3
;   maxOverhangAngle,35
;   supportAngles,90,45
;   temperatureName,Primary Extruder,Heated Bed
;   temperatureNumber,0,1
;   temperatureSetpointCount,1,1
;   temperatureSetpointLayers,1,1
;   temperatureSetpointTemperatures,220,50
;   temperatureStabilizeAtStartup,1,1
;   temperatureHeatedBed,0,1
;   temperatureRelayBetweenLayers,0,0
;   temperatureRelayBetweenLoops,0,0
;   fanLayers,1,2
;   fanSpeeds,0,100
;   blipFanToFullPower,0
;   adjustSpeedForCooling,1
;   minSpeedLayerTime,15
;   minCoolingSpeedSlowdown,20
;   increaseFanForCooling,0
;   minFanLayerTime,45
;   maxCoolingFanSpeed,100
;   increaseFanForBridging,1
;   bridgingFanSpeed,100
;   use5D,1
;   relativeEdistances,1
;   allowEaxisZeroing,1
;   independentExtruderAxes,0
;   includeM10123,0
;   stickySupport,1
;   applyToolheadOffsets,0
;   gcodeXoffset,0
;   gcodeYoffset,0
;   gcodeZoffset,0
;   overrideMachineDefinition,1
;   machineTypeOverride,0
;   strokeXoverride,210
;   strokeYoverride,210
;   strokeZoverride,250
;   originOffsetXoverride,0
;   originOffsetYoverride,0
;   originOffsetZoverride,0
;   homeXdirOverride,-1
;   homeYdirOverride,-1
;   homeZdirOverride,-1
;   flipXoverride,1
;   flipYoverride,-1
;   flipZoverride,1
;   toolheadOffsets,0,0|0,0|0,0|0,0|0,0|0,0
;   overrideFirmwareConfiguration,0
;   firmwareTypeOverride,RepRap (Marlin/Repetier/Sprinter)
;   GPXconfigOverride,r2
;   baudRateOverride,115200
;   overridePrinterModels,1
;   printerModelsOverride,Prusa_MK3_Assy_STL_-_FULL.STL
;   startingGcode,M115 U3.1.0 ; tell printer latest fw version,G 28 W ;,G1 Z100 ;,M900 K32 ; k value,M104 S[extruder0_temperature] T0 ; this will take the layer 1 temperature for extruder 0,M140 S[bed1_temperature] ; this will take the layer 1 temperature for bed 0,M190 S[bed1_temperature] ; wait for bed temp,M109 S[extruder0_temperature] T0 ; wait for extruder temp,G28 W ; home all without mesh bed level,G80 ; mesh bed leveling,G1 Y-3.0 F1000.0 ; go outside print area,G92 E0.0
;   layerChangeGcode,
;   retractionGcode,
;   toolChangeGcode,
;   endingGcode,G4 ; wait,M104 S0 ; turn off temperature,M140 S0 ; turn off heatbed,M107 ; turn off fan,G1 X0 Y200; home X axis,G1 F1000.0 ; set feed rate,G1 E-3 ; retract,M84 ; disable motors,,
;   exportFileFormat,gcode
;   celebration,0
;   celebrationSong,Star Wars
;   postProcessing,{REPLACE "; outer perimeter\n" "; outer perimeter\nM204 P800\n"},{REPLACE "; inner perimeter\n" "; inner perimeter\nM204 P1000\n"},{REPLACE "; solid layer\n" "; solid layer\nM204 P1000\n"},{REPLACE "; infill\n" "; infill\nM204 P3500\n"}
;   defaultSpeed,780
;   outlineUnderspeed,1
;   solidInfillUnderspeed,1
;   supportUnderspeed,1
;   rapidXYspeed,7200
;   rapidZspeed,900
;   minBridgingArea,50
;   bridgingExtraInflation,0
;   bridgingExtrusionMultiplier,0.9
;   bridgingSpeedMultiplier,0.6
;   filamentDiameter,1.75
;   filamentPricePerKg,46
;   filamentDensity,1.25
;   useMinPrintHeight,0
;   minPrintHeight,0
;   useMaxPrintHeight,0
;   maxPrintHeight,0
;   useDiaphragm,0
;   diaphragmLayerInterval,20
;   robustSlicing,1
;   mergeAllIntoSolid,0
;   onlyRetractWhenCrossingOutline,0
;   retractBetweenLayers,0
;   useRetractionMinTravel,1
;   retractionMinTravel,3
;   retractWhileWiping,1
;   onlyWipeOutlines,0
;   avoidCrossingOutline,1
;   maxMovementDetourFactor,3
;   toolChangeRetractionDistance,12
;   toolChangeExtraRestartDistance,-0.5
;   toolChangeRetractionSpeed,600
;   allowThinWallGapFill,1
;   thinWallAllowedOverlapPercentage,25
;   horizontalSizeCompensation,0
G90
M83
M106 S0
M115 U3.1.0 ; tell printer latest fw version
G 28 W ;
G1 Z100 ;
M900 K32 ; k value
M104 S220 T0 ; this will take the layer 1 temperature for extruder 0
M140 S50 ; this will take the layer 1 temperature for bed 0
M190 S50 ; wait for bed temp
M109 S220 T0 ; wait for extruder temp
G28 W ; home all without mesh bed level
G80 ; mesh bed leveling
G1 Y-3.0 F1000.0 ; go outside print area
G92 E0.0
G1 E-2.8000 F6000
G1 Z0.200 F900
; layer 1, Z = 0.2
T0
; tool H0.200 W0.450
; skirt
G1 X56.184 Y55.422 F7200
G1 E2.8000 F1800
G1 X57.187 Y54.564 E0.0494 F390
G1 X57.212 Y54.543 E0.0012
G1 X57.611 Y54.240 E0.0187
G1 X57.638 Y54.221 E0.0012
G1 X58.355 Y53.741 E0.0323
G1 X58.382 Y53.724 E0.0012
G1 X58.806 Y53.473 E0.0184
G1 X58.835 Y53.458 E0.0012
G1 X59.911 Y52.904 E0.0453
G1 X59.940 Y52.890 E0.0012
G1 X60.385 Y52.692 E0.0182
G1 X60.415 Y52.679 E0.0012
G1 X61.200 Y52.382 E0.0314
G1 X61.230 Y52.372 E0.0012
G1 X61.686 Y52.228 E0.0179
G1 X61.716 Y52.219 E0.0012
G1 X62.864 Y51.926 E0.0443
G1 X62.895 Y51.919 E0.0012
G1 X63.361 Y51.828 E0.0178
G1 X63.392 Y51.822 E0.0012
G1 X64.209 Y51.708 E0.0309
G1 X64.240 Y51.705 E0.0012
G1 X64.709 Y51.665 E0.0176
G1 X64.739 Y51.663 E0.0012
G1 X65.989 Y51.627 E0.0468
G1 X66.030 Y51.627 E0.0015
G1 X66.652 Y51.655 E0.0233
G1 X66.692 Y51.658 E0.0015
G1 X67.615 Y51.766 E0.0348
G1 X67.642 Y51.769 E0.0010
G1 X68.055 Y51.838 E0.0156
G1 X68.082 Y51.843 E0.0010
G1 X69.697 Y52.194 E0.0618
G1 X69.715 Y52.198 E0.0007
G1 X69.983 Y52.266 E0.0104
G1 X70.001 Y52.270 E0.0007
G1 X73.090 Y53.154 E0.1202
G1 X73.100 Y53.157 E0.0004
G1 X73.245 Y53.201 E0.0057
G1 X73.254 Y53.204 E0.0004
G1 X75.807 Y54.032 E0.1004
G1 X75.814 Y54.035 E0.0003
G1 X75.929 Y54.074 E0.0045
G1 X75.937 Y54.077 E0.0003
G1 X77.758 Y54.726 E0.0724
G1 X78.416 Y54.632 E0.0249
G1 X78.429 Y54.630 E0.0005
G1 X78.630 Y54.606 E0.0076
G1 X78.643 Y54.605 E0.0005
G1 X79.700 Y54.505 E0.0397
G1 X79.713 Y54.504 E0.0005
G1 X79.914 Y54.489 E0.0075
G1 X79.928 Y54.489 E0.0005
G1 X80.988 Y54.438 E0.0397
G1 X81.001 Y54.438 E0.0005
G1 X81.202 Y54.433 E0.0075
G1 X81.216 Y54.433 E0.0005
G1 X82.277 Y54.433 E0.0397
G1 X82.290 Y54.433 E0.0005
G1 X82.492 Y54.438 E0.0076
G1 X82.505 Y54.438 E0.0005
G1 X83.566 Y54.488 E0.0397
G1 X83.579 Y54.489 E0.0005
G1 X83.781 Y54.503 E0.0076
G1 X83.794 Y54.504 E0.0005
G1 X84.852 Y54.604 E0.0398
G1 X84.865 Y54.605 E0.0005
G1 X85.066 Y54.629 E0.0076
G1 X85.080 Y54.631 E0.0005
G1 X85.741 Y54.725 E0.0250
G1 X87.573 Y54.073 E0.0728
G1 X87.583 Y54.069 E0.0004
G1 X87.722 Y54.022 E0.0055
G1 X87.731 Y54.019 E0.0004
G1 X91.399 Y52.853 E0.1440
G1 X91.412 Y52.849 E0.0005
G1 X91.614 Y52.791 E0.0079
G1 X91.627 Y52.787 E0.0005
G1 X94.390 Y52.056 E0.1069
G1 X94.409 Y52.051 E0.0007
G1 X94.691 Y51.986 E0.0109
G1 X94.710 Y51.983 E0.0007
G1 X95.574 Y51.815 E0.0329
G1 X95.595 Y51.812 E0.0008
G1 X95.911 Y51.763 E0.0120
G1 X95.932 Y51.760 E0.0008
G1 X96.728 Y51.667 E0.0300
G1 X96.758 Y51.664 E0.0011
G1 X97.224 Y51.635 E0.0174
G1 X97.254 Y51.634 E0.0011
G1 X97.996 Y51.629 E0.0277
G1 X98.016 Y51.629 E0.0008
G1 X98.330 Y51.638 E0.0117
G1 X98.350 Y51.639 E0.0008
G1 X99.093 Y51.688 E0.0279
G1 X99.124 Y51.691 E0.0012
G1 X99.593 Y51.748 E0.0177
G1 X99.623 Y51.752 E0.0012
G1 X100.784 Y51.959 E0.0441
G1 X100.815 Y51.965 E0.0012
G1 X101.277 Y52.074 E0.0178
G1 X101.307 Y52.082 E0.0012
G1 X102.107 Y52.318 E0.0312
G1 X102.137 Y52.328 E0.0012
G1 X102.592 Y52.490 E0.0181
G1 X102.621 Y52.502 E0.0012
G1 X103.804 Y53.001 E0.0480
G1 X103.842 Y53.019 E0.0016
G1 X104.424 Y53.319 E0.0245
G1 X104.461 Y53.340 E0.0016
G1 X104.986 Y53.663 E0.0231
G1 X105.308 Y53.473 E0.0140
G1 X105.336 Y53.458 E0.0012
G1 X106.483 Y52.867 E0.0483
G1 X106.522 Y52.849 E0.0016
G1 X107.118 Y52.597 E0.0242
G1 X107.158 Y52.582 E0.0016
G1 X108.365 Y52.176 E0.0477
G1 X108.395 Y52.167 E0.0012
G1 X108.856 Y52.040 E0.0179
G1 X108.886 Y52.032 E0.0012
G1 X109.696 Y51.857 E0.0310
G1 X109.727 Y51.852 E0.0012
G1 X110.194 Y51.778 E0.0177
G1 X110.225 Y51.774 E0.0012
G1 X111.378 Y51.655 E0.0434
G1 X111.407 Y51.653 E0.0011
G1 X111.845 Y51.630 E0.0164
G1 X111.873 Y51.630 E0.0011
G1 X144.549 Y51.630 E1.2227
G1 X144.568 Y51.630 E0.0007
G1 X144.849 Y51.639 E0.0105
G1 X144.867 Y51.640 E0.0007
G1 X145.594 Y51.688 E0.0273
G1 X145.625 Y51.691 E0.0012
G1 X146.094 Y51.748 E0.0177
G1 X146.124 Y51.752 E0.0012
G1 X147.285 Y51.959 E0.0441
G1 X147.316 Y51.965 E0.0012
G1 X147.778 Y52.074 E0.0178
G1 X147.809 Y52.082 E0.0012
G1 X148.608 Y52.318 E0.0312
G1 X148.638 Y52.328 E0.0012
G1 X149.093 Y52.490 E0.0181
G1 X149.123 Y52.502 E0.0012
G1 X150.305 Y53.001 E0.0480
G1 X150.344 Y53.019 E0.0016
G1 X150.925 Y53.319 E0.0245
G1 X150.962 Y53.340 E0.0016
G1 X152.143 Y54.067 E0.0519
G1 X152.179 Y54.092 E0.0016
G1 X152.717 Y54.484 E0.0249
G1 X152.751 Y54.511 E0.0016
G1 X153.816 Y55.422 E0.0524
G1 X153.847 Y55.450 E0.0016
G1 X154.305 Y55.906 E0.0242
G1 X154.334 Y55.937 E0.0016
G1 X155.194 Y56.933 E0.0492
G1 X155.220 Y56.965 E0.0015
G1 X155.592 Y57.465 E0.0233
G1 X155.615 Y57.499 E0.0015
G1 X156.303 Y58.580 E0.0480
G1 X156.324 Y58.615 E0.0015
G1 X156.614 Y59.152 E0.0228
G1 X156.632 Y59.188 E0.0015
G1 X157.150 Y60.334 E0.0471
G1 X157.165 Y60.370 E0.0015
G1 X157.371 Y60.929 E0.0223
G1 X157.384 Y60.966 E0.0015
G1 X157.732 Y62.154 E0.0463
G1 X157.742 Y62.191 E0.0014
G1 X157.867 Y62.758 E0.0217
G1 X157.874 Y62.796 E0.0014
G1 X158.062 Y64.040 E0.0471
G1 X158.066 Y64.082 E0.0016
G1 X158.114 Y64.721 E0.0240
G1 X158.116 Y64.763 E0.0016
G1 X158.116 Y98.492 E1.2621
G1 X158.114 Y98.534 E0.0016
G1 X158.066 Y99.173 E0.0240
G1 X158.062 Y99.215 E0.0016
G1 X157.874 Y100.459 E0.0471
G1 X157.867 Y100.496 E0.0014
G1 X157.742 Y101.064 E0.0217
G1 X157.732 Y101.101 E0.0014
G1 X157.384 Y102.289 E0.0463
G1 X157.371 Y102.326 E0.0015
G1 X157.165 Y102.884 E0.0223
G1 X157.150 Y102.921 E0.0015
G1 X156.632 Y104.067 E0.0471
G1 X156.614 Y104.103 E0.0015
G1 X156.324 Y104.640 E0.0228
G1 X156.303 Y104.675 E0.0015
G1 X156.096 Y105.000 E0.0144
G1 X156.303 Y105.325 E0.0144
G1 X156.324 Y105.360 E0.0015
G1 X156.614 Y105.897 E0.0228
G1 X156.632 Y105.933 E0.0015
G1 X157.150 Y107.079 E0.0471
G1 X157.165 Y107.116 E0.0015
G1 X157.371 Y107.674 E0.0223
G1 X157.384 Y107.711 E0.0015
G1 X157.732 Y108.899 E0.0463
G1 X157.742 Y108.936 E0.0014
G1 X157.867 Y109.504 E0.0218
G1 X157.874 Y109.541 E0.0014
G1 X158.062 Y110.786 E0.0471
G1 X158.066 Y110.827 E0.0016
G1 X158.114 Y111.466 E0.0240
G1 X158.116 Y111.508 E0.0016
G1 X158.116 Y145.237 E1.2620
G1 X158.114 Y145.279 E0.0016
G1 X158.066 Y145.918 E0.0240
G1 X158.062 Y145.960 E0.0016
G1 X157.874 Y147.204 E0.0471
G1 X157.867 Y147.242 E0.0014
G1 X157.742 Y147.809 E0.0218
G1 X157.732 Y147.846 E0.0014
G1 X157.384 Y149.034 E0.0463
G1 X157.371 Y149.071 E0.0015
G1 X157.165 Y149.630 E0.0223
G1 X157.150 Y149.666 E0.0015
G1 X156.632 Y150.812 E0.0471
G1 X156.614 Y150.848 E0.0015
G1 X156.324 Y151.385 E0.0228
G1 X156.303 Y151.420 E0.0015
G1 X155.615 Y152.501 E0.0480
G1 X155.592 Y152.535 E0.0015
G1 X155.220 Y153.035 E0.0233
G1 X155.194 Y153.067 E0.0015
G1 X154.334 Y154.063 E0.0492
G1 X154.305 Y154.094 E0.0016
G1 X153.847 Y154.550 E0.0242
G1 X153.816 Y154.578 E0.0016
G1 X152.813 Y155.436 E0.0494
G1 X152.788 Y155.457 E0.0012
G1 X152.389 Y155.760 E0.0188
G1 X152.362 Y155.779 E0.0012
G1 X151.645 Y156.259 E0.0323
G1 X151.618 Y156.276 E0.0012
G1 X151.194 Y156.526 E0.0184
G1 X151.165 Y156.542 E0.0012
G1 X150.018 Y157.133 E0.0483
G1 X149.980 Y157.151 E0.0016
G1 X149.383 Y157.403 E0.0242
G1 X149.344 Y157.418 E0.0016
G1 X148.136 Y157.824 E0.0477
G1 X148.106 Y157.833 E0.0012
G1 X147.645 Y157.960 E0.0179
G1 X147.615 Y157.968 E0.0012
G1 X146.804 Y158.143 E0.0310
G1 X146.774 Y158.148 E0.0012
G1 X146.307 Y158.222 E0.0177
G1 X146.276 Y158.226 E0.0012
G1 X145.123 Y158.345 E0.0434
G1 X145.094 Y158.347 E0.0011
G1 X144.657 Y158.370 E0.0164
G1 X144.628 Y158.370 E0.0011
G1 X111.873 Y158.370 E1.2256
G1 X111.845 Y158.370 E0.0011
G1 X111.407 Y158.347 E0.0164
G1 X111.378 Y158.345 E0.0011
G1 X110.225 Y158.226 E0.0434
G1 X110.194 Y158.222 E0.0012
G1 X109.727 Y158.148 E0.0177
G1 X109.696 Y158.143 E0.0012
G1 X108.886 Y157.968 E0.0310
G1 X108.856 Y157.960 E0.0012
G1 X108.395 Y157.833 E0.0179
G1 X108.365 Y157.824 E0.0012
G1 X107.158 Y157.418 E0.0477
G1 X107.118 Y157.403 E0.0016
G1 X106.522 Y157.151 E0.0242
G1 X106.483 Y157.133 E0.0016
G1 X105.261 Y156.504 E0.0514
G1 X105.224 Y156.482 E0.0016
G1 X105.000 Y156.345 E0.0098
G1 X104.692 Y156.526 E0.0134
G1 X104.664 Y156.542 E0.0012
G1 X103.588 Y157.096 E0.0453
G1 X103.559 Y157.110 E0.0012
G1 X103.114 Y157.308 E0.0182
G1 X103.084 Y157.321 E0.0012
G1 X102.299 Y157.618 E0.0314
G1 X102.269 Y157.628 E0.0012
G1 X101.812 Y157.772 E0.0179
G1 X101.782 Y157.781 E0.0012
G1 X100.634 Y158.074 E0.0443
G1 X100.604 Y158.081 E0.0012
G1 X100.138 Y158.172 E0.0178
G1 X100.107 Y158.177 E0.0012
G1 X99.290 Y158.292 E0.0309
G1 X99.259 Y158.295 E0.0012
G1 X98.790 Y158.335 E0.0176
G1 X98.759 Y158.337 E0.0012
G1 X97.510 Y158.373 E0.0468
G1 X97.469 Y158.373 E0.0015
G1 X96.847 Y158.345 E0.0233
G1 X96.806 Y158.342 E0.0015
G1 X95.883 Y158.234 E0.0348
G1 X95.856 Y158.231 E0.0010
G1 X95.444 Y158.162 E0.0156
G1 X95.417 Y158.157 E0.0010
G1 X93.802 Y157.806 E0.0618
G1 X93.784 Y157.802 E0.0007
G1 X93.516 Y157.734 E0.0104
G1 X93.498 Y157.730 E0.0007
G1 X90.396 Y156.842 E0.1207
G1 X90.385 Y156.839 E0.0004
G1 X90.215 Y156.787 E0.0066
G1 X90.204 Y156.783 E0.0004
G1 X86.318 Y155.496 E0.1532
G1 X86.310 Y155.493 E0.0003
G1 X86.199 Y155.455 E0.0044
G1 X86.191 Y155.452 E0.0003
G1 X85.712 Y155.278 E0.0191
G1 X85.083 Y155.368 E0.0238
G1 X85.070 Y155.370 E0.0005
G1 X84.869 Y155.394 E0.0076
G1 X84.856 Y155.395 E0.0005
G1 X83.799 Y155.495 E0.0397
G1 X83.786 Y155.496 E0.0005
G1 X83.584 Y155.511 E0.0075
G1 X83.571 Y155.511 E0.0005
G1 X82.511 Y155.562 E0.0397
G1 X82.498 Y155.562 E0.0005
G1 X82.296 Y155.567 E0.0075
G1 X82.283 Y155.567 E0.0005
G1 X81.222 Y155.567 E0.0397
G1 X81.209 Y155.567 E0.0005
G1 X81.007 Y155.562 E0.0076
G1 X80.994 Y155.562 E0.0005
G1 X79.933 Y155.512 E0.0397
G1 X79.920 Y155.511 E0.0005
G1 X79.718 Y155.497 E0.0076
G1 X79.705 Y155.496 E0.0005
G1 X78.647 Y155.396 E0.0398
G1 X78.634 Y155.395 E0.0005
G1 X78.432 Y155.371 E0.0076
G1 X78.419 Y155.369 E0.0005
