; G-Code generated by Simplify3D(R) Version 4.0.0
; Nov 4, 2018 at 7:44:33 AM
; Settings Summary
;   processName,Process1
;   applyToModels,08 - T Track x 6,18 - scope rail,33 - hengstler emblem
;   profileName,Travis_Fletchers_Ultimate_PETG_Profile_v2 (modified)
;   profileVersion,2018-10-27 09:00:55
;   baseProfile,Creality CR-10
;   printMaterial,PETG
;   printQuality,Fast
;   printExtruders,
;   extruderName,Primary Extruder
;   extruderToolheadNumber,0
;   extruderDiameter,0.4
;   extruderAutoWidth,1
;   extruderWidth,0.48
;   extrusionMultiplier,0.99
;   extruderUseRetract,1
;   extruderRetractionDistance,6.5
;   extruderExtraRestartDistance,-0.2
;   extruderRetractionZLift,0
;   extruderRetractionSpeed,3600
;   extruderUseCoasting,1
;   extruderCoastingDistance,0.2
;   extruderUseWipe,0
;   extruderWipeDistance,4
;   primaryExtruder,0
;   layerHeight,0.3
;   topSolidLayers,3
;   bottomSolidLayers,3
;   perimeterOutlines,3
;   printPerimetersInsideOut,1
;   startPointOption,3
;   startPointOriginX,0
;   startPointOriginY,500
;   sequentialIslands,0
;   spiralVaseMode,0
;   firstLayerHeightPercentage,130
;   firstLayerWidthPercentage,120
;   firstLayerUnderspeed,0.6
;   useRaft,0
;   raftExtruder,0
;   raftTopLayers,3
;   raftBaseLayers,2
;   raftOffset,3
;   raftSeparationDistance,0.14
;   raftTopInfill,100
;   aboveRaftSpeedMultiplier,0.3
;   useSkirt,1
;   skirtExtruder,0
;   skirtLayers,1
;   skirtOutlines,2
;   skirtOffset,0.2
;   usePrimePillar,0
;   primePillarExtruder,999
;   primePillarWidth,12
;   primePillarLocation,7
;   primePillarSpeedMultiplier,1
;   useOozeShield,0
;   oozeShieldExtruder,999
;   oozeShieldOffset,2
;   oozeShieldOutlines,1
;   oozeShieldSidewallShape,1
;   oozeShieldSidewallAngle,30
;   oozeShieldSpeedMultiplier,1
;   infillExtruder,0
;   internalInfillPattern,Grid
;   externalInfillPattern,Rectilinear
;   infillPercentage,15
;   outlineOverlapPercentage,35
;   infillExtrusionWidthPercentage,120
;   minInfillLength,4
;   infillLayerInterval,1
;   internalInfillAngles,45,-45
;   overlapInternalInfillAngles,1
;   externalInfillAngles,45,-45
;   generateSupport,1
;   supportExtruder,0
;   supportInfillPercentage,40
;   supportExtraInflation,1
;   supportBaseLayers,0
;   denseSupportExtruder,0
;   denseSupportLayers,0
;   denseSupportInfillPercentage,60
;   supportLayerInterval,1
;   supportHorizontalPartOffset,0.3
;   supportUpperSeparationLayers,2
;   supportLowerSeparationLayers,1
;   supportType,0
;   supportGridSpacing,3.5
;   maxOverhangAngle,45
;   supportAngles,0
;   temperatureName,Heated Bed,Primary Extruder
;   temperatureNumber,0,0
;   temperatureSetpointCount,1,1
;   temperatureSetpointLayers,1,1
;   temperatureSetpointTemperatures,85,240
;   temperatureStabilizeAtStartup,1,1
;   temperatureHeatedBed,1,0
;   temperatureRelayBetweenLayers,0,0
;   temperatureRelayBetweenLoops,0,0
;   fanLayers,1,2,3
;   fanSpeeds,0,25,35
;   blipFanToFullPower,0
;   adjustSpeedForCooling,1
;   minSpeedLayerTime,20
;   minCoolingSpeedSlowdown,30
;   increaseFanForCooling,1
;   minFanLayerTime,30
;   maxCoolingFanSpeed,50
;   increaseFanForBridging,1
;   bridgingFanSpeed,100
;   use5D,1
;   relativeEdistances,0
;   allowEaxisZeroing,1
;   independentExtruderAxes,0
;   includeM10123,0
;   stickySupport,1
;   applyToolheadOffsets,0
;   gcodeXoffset,0
;   gcodeYoffset,0
;   gcodeZoffset,0
;   overrideMachineDefinition,1
;   machineTypeOverride,0
;   strokeXoverride,230
;   strokeYoverride,230
;   strokeZoverride,250
;   originOffsetXoverride,0
;   originOffsetYoverride,0
;   originOffsetZoverride,0
;   homeXdirOverride,-1
;   homeYdirOverride,-1
;   homeZdirOverride,-1
;   flipXoverride,1
;   flipYoverride,-1
;   flipZoverride,1
;   toolheadOffsets,0,0|0,0|0,0|0,0|0,0|0,0
;   overrideFirmwareConfiguration,1
;   firmwareTypeOverride,RepRap (Marlin/Repetier/Sprinter)
;   GPXconfigOverride,r2
;   baudRateOverride,115200
;   overridePrinterModels,1
;   printerModelsOverride
;   startingGcode,G28 ; home all axes,M117 Purging Extruder...,M204 P500 T1000,M205 X10 Y10 ; set jerk x/y=10,G1 Z1.0 F3000 ; lift Z,G1 X0.2 Y25 Z0.2 F3000.0 ; move to start-line position,G92 E0 ; reset extruder,G1 X0.2 Y150.0 F1000.0 E15 ; draw 1st line,G1 X0.7 Y150.0 F3000.0 ; move to side 0.5mm,G1 X0.7 Y50 F1000.0 E30 ; draw 2nd line,G1 X0.7 Y25 F5000.0 ; quick wipe,M117 Printing!,,; Default S3D CR-10 Startup,; G28 ; home all axes,; G1 Z5 F3000 ; lift,; G1 X20 Y2 F1500 ; avoid binder clips,; G1 Z0.2 F3000 ; get ready to prime,; G92 E0 ; reset extrusion distance,; G1 X120 E10 F600 ; prime nozzle,; G1 X150 F5000 ; quick wipe,
;   layerChangeGcode,
;   retractionGcode,
;   toolChangeGcode,
;   endingGcode,M117 Print Complete!,M104 S0 ; turn off extruder,M140 S0 ; turn off bed,G1 X0 Y295 F1000 ; move finished print out front,M84 ; disable motors,M106 S0 ; turn off cooling fan,,; play song,M300 S294 P200 ;D4: 294,M300 S588 P200 ;D5: 588,M300 S440 P200 ;A4: 440,M300 S392 P200 ;G4: 392,M300 S784 P200 ;G5: 784,M300 S440 P200 ;A4: 440,M300 S740 P200 ;F#5: 740,M300 S440 P200 ;A4: 440,,; Default S3D CR-10 Ending Script,; G28 X0 ; home x axis,; M106 S0 ; turn off cooling fan,; M104 S0 ; turn off extruder,; M140 S0 ; turn off bed,; M84 ; disable motors,
;   exportFileFormat,gcode
;   celebration,0
;   celebrationSong,Star Wars
;   postProcessing,,
;   defaultSpeed,2000
;   outlineUnderspeed,0.8
;   solidInfillUnderspeed,0.9
;   supportUnderspeed,1
;   rapidXYspeed,9000
;   rapidZspeed,1002
;   minBridgingArea,50
;   bridgingExtraInflation,0
;   bridgingExtrusionMultiplier,0.9
;   bridgingSpeedMultiplier,1
;   useFixedBridgingAngle,0
;   fixedBridgingAngle,0
;   applyBridgingToPerimeters,0
;   filamentDiameters,1.75|1.75|1.75|1.75|1.75|1.75
;   filamentPricesPerKg,46|46|46|46|46|46
;   filamentDensities,1.25|1.25|1.25|1.25|1.25|1.25
;   useMinPrintHeight,0
;   minPrintHeight,0
;   useMaxPrintHeight,0
;   maxPrintHeight,0
;   useDiaphragm,0
;   diaphragmLayerInterval,20
;   robustSlicing,1
;   mergeAllIntoSolid,0
;   onlyRetractWhenCrossingOutline,0
;   retractBetweenLayers,1
;   useRetractionMinTravel,1
;   retractionMinTravel,3
;   retractWhileWiping,1
;   onlyWipeOutlines,1
;   avoidCrossingOutline,1
;   maxMovementDetourFactor,3
;   toolChangeRetractionDistance,12
;   toolChangeExtraRestartDistance,-0.5
;   toolChangeRetractionSpeed,600
;   externalThinWallType,0
;   internalThinWallType,2
;   thinWallAllowedOverlapPercentage,15
;   singleExtrusionMinLength,1
;   singleExtrusionMinPrintingWidthPercentage,50
;   singleExtrusionMaxPrintingWidthPercentage,200
;   singleExtrusionEndpointExtension,0.2
;   horizontalSizeCompensation,0
G90
M82
M106 S0
M140 S85
M190 S85
M104 S240 T0
M109 S240 T0
G28 ; home all axes
M117 Purging Extruder...
M204 P500 T1000
M205 X10 Y10 ; set jerk x/y=10
G1 Z1.0 F3000 ; lift Z
G1 X0.2 Y25 Z0.2 F3000.0 ; move to start-line position
G92 E0 ; reset extruder
G1 X0.2 Y150.0 F1000.0 E15 ; draw 1st line
G1 X0.7 Y150.0 F3000.0 ; move to side 0.5mm
G1 X0.7 Y50 F1000.0 E30 ; draw 2nd line
G1 X0.7 Y25 F5000.0 ; quick wipe
M117 Printing!
; Default S3D CR-10 Startup
; G28 ; home all axes
; G1 Z5 F3000 ; lift
; G1 X20 Y2 F1500 ; avoid binder clips
; G1 Z0.2 F3000 ; get ready to prime
; G92 E0 ; reset extrusion distance
; G1 X120 E10 F600 ; prime nozzle
; G1 X150 F5000 ; quick wipe
G92 E0
G1 E-6.5000 F3600
G1 Z0.390 F1002
; process Process1
; layer 1, Z = 0.390
T0
; tool H0.390 W0.576
; skirt
G1 X111.274 Y14.778 F9000
G1 E-0.2000 F1080
G92 E0
G1 X111.384 Y14.513 E0.0265 F1200
G1 X111.703 Y14.194 E0.0683
G1 X111.968 Y14.084 E0.0948
G1 X132.132 Y14.084 E1.9591
G1 X132.397 Y14.194 E1.9856
G1 X132.716 Y14.513 E2.0274
G1 X132.826 Y14.778 E2.0539
G1 X132.826 Y34.922 E3.9164
G1 X132.716 Y35.187 E3.9429
G1 X132.397 Y35.506 E3.9847
G1 X132.132 Y35.616 E4.0112
G1 X111.968 Y35.616 E5.8756
G1 X111.704 Y35.506 E5.9020
G1 X111.384 Y35.187 E5.9439
G1 X111.274 Y34.922 E5.9703
G1 X111.274 Y14.978 E7.8144
G1 X111.274 Y14.778 F1200
G92 E0
G1 E-6.5000 F3600
G1 X161.903 Y10.883 F9000
G1 E-0.2000 F3600
G92 E0
G1 X162.139 Y10.721 E0.0265 F1200
G1 X162.582 Y10.627 E0.0683
G1 X162.863 Y10.679 E0.0948
G1 X173.306 Y17.461 E1.2461
G1 X173.469 Y17.697 E1.2726
G1 X173.563 Y18.139 E1.3144
G1 X173.510 Y18.421 E1.3409
G1 X146.679 Y59.738 E5.8959
G1 X149.304 Y59.738 E6.1386
G1 X149.304 Y56.932 E6.3981
G1 X149.413 Y56.667 E6.4246
G1 X149.733 Y56.348 E6.4664
G1 X149.998 Y56.238 E6.4929
G1 X159.804 Y56.238 E7.3995
G1 X159.804 Y53.665 E7.6374
G1 X159.797 Y53.703 E7.6410
G1 X158.637 Y55.489 E7.8379
G1 X158.401 Y55.651 E7.8644
G1 X157.958 Y55.745 E7.9062
G1 X157.677 Y55.693 E7.9327
G1 X156.841 Y55.150 E8.0248
G1 X156.669 Y54.861 E8.0559
G1 X156.627 Y54.330 E8.1052
G1 X156.752 Y54.018 E8.1362
G1 X158.379 Y52.553 E8.3387
G1 X158.598 Y52.459 E8.3607
G1 X158.970 Y52.430 E8.3952
G1 X159.200 Y52.488 E8.4172
G1 X159.593 Y52.743 E8.4605
G1 X159.755 Y52.979 E8.4870
G1 X159.804 Y53.209 E8.5087
G1 X159.804 Y49.932 E8.8117
G1 X159.913 Y49.667 E8.8381
G1 X160.233 Y49.348 E8.8799
G1 X160.498 Y49.238 E8.9064
G1 X166.890 Y49.238 E9.4974
G1 X167.154 Y49.348 E9.5239
G1 X167.474 Y49.667 E9.5657
G1 X167.584 Y49.932 E9.5922
G1 X167.584 Y59.824 E10.5068
G1 X167.474 Y60.089 E10.5333
G1 X167.154 Y60.408 E10.5751
G1 X166.890 Y60.518 E10.6016
G1 X164.084 Y60.518 E10.8611
G1 X164.084 Y70.324 E11.7677
G1 X163.974 Y70.589 E11.7942
G1 X163.654 Y70.908 E11.8360
G1 X163.390 Y71.018 E11.8625
G1 X160.584 Y71.018 E12.1220
G1 X160.584 Y77.324 E12.7050
G1 X160.474 Y77.589 E12.7315
G1 X160.154 Y77.908 E12.7733
G1 X159.890 Y78.018 E12.7998
G1 X157.084 Y78.018 E13.0592
G1 X157.084 Y80.824 E13.3187
G1 X156.974 Y81.089 E13.3452
G1 X156.654 Y81.408 E13.3870
G1 X156.390 Y81.518 E13.4135
G1 X153.584 Y81.518 E13.6729
G1 X153.584 Y87.824 E14.2560
G1 X153.474 Y88.089 E14.2825
G1 X153.154 Y88.408 E14.3243
G1 X152.890 Y88.518 E14.3507
G1 X150.084 Y88.518 E14.6102
G1 X150.084 Y94.824 E15.1933
G1 X149.974 Y95.089 E15.2197
G1 X149.654 Y95.408 E15.2615
G1 X149.390 Y95.518 E15.2880
G1 X146.584 Y95.518 E15.5475
G1 X146.584 Y98.324 E15.8069
G1 X146.474 Y98.589 E15.8334
G1 X146.154 Y98.908 E15.8752
G1 X145.890 Y99.018 E15.9017
G1 X143.084 Y99.018 E16.1611
G1 X143.084 Y105.324 E16.7442
G1 X142.974 Y105.589 E16.7707
G1 X142.654 Y105.908 E16.8125
G1 X142.390 Y106.018 E16.8390
G1 X139.584 Y106.018 E17.0984
G1 X139.584 Y108.824 E17.3579
G1 X139.474 Y109.089 E17.3844
G1 X139.154 Y109.408 E17.4262
G1 X138.890 Y109.518 E17.4526
G1 X136.084 Y109.518 E17.7121
G1 X136.084 Y115.824 E18.2952
G1 X135.974 Y116.089 E18.3216
G1 X135.654 Y116.408 E18.3634
G1 X135.390 Y116.518 E18.3899
G1 X132.584 Y116.518 E18.6494
G1 X132.584 Y119.324 E18.9088
G1 X132.474 Y119.589 E18.9353
G1 X132.154 Y119.908 E18.9771
G1 X131.890 Y120.018 E19.0036
G1 X129.084 Y120.018 E19.2630
G1 X129.084 Y126.324 E19.8461
G1 X128.974 Y126.589 E19.8726
G1 X128.654 Y126.908 E19.9144
G1 X128.390 Y127.018 E19.9409
G1 X125.584 Y127.018 E20.2003
G1 X125.584 Y129.824 E20.4598
G1 X125.474 Y130.089 E20.4863
G1 X125.155 Y130.408 E20.5281
G1 X124.890 Y130.518 E20.5545
G1 X122.084 Y130.518 E20.8140
G1 X122.084 Y136.824 E21.3971
G1 X121.974 Y137.089 E21.4235
G1 X121.655 Y137.408 E21.4653
G1 X121.390 Y137.518 E21.4918
G1 X118.584 Y137.518 E21.7513
G1 X118.584 Y140.324 E22.0107
G1 X118.474 Y140.589 E22.0372
G1 X118.155 Y140.908 E22.0790
G1 X117.890 Y141.018 E22.1055
G1 X115.084 Y141.018 E22.3649
G1 X115.084 Y147.324 E22.9480
G1 X114.974 Y147.589 E22.9745
G1 X114.655 Y147.908 E23.0163
G1 X114.390 Y148.018 E23.0428
G1 X111.584 Y148.018 E23.3022
G1 X111.584 Y150.824 E23.5617
G1 X111.474 Y151.089 E23.5882
G1 X111.155 Y151.408 E23.6300
G1 X110.890 Y151.518 E23.6565
G1 X108.084 Y151.518 E23.9159
G1 X108.084 Y157.824 E24.4990
G1 X107.974 Y158.089 E24.5254
G1 X107.655 Y158.408 E24.5672
G1 X107.390 Y158.518 E24.5937
G1 X104.584 Y158.518 E24.8532
G1 X104.584 Y164.824 E25.4362
G1 X104.474 Y165.089 E25.4627
G1 X104.155 Y165.408 E25.5045
G1 X103.890 Y165.518 E25.5310
G1 X101.084 Y165.518 E25.7905
G1 X101.084 Y168.324 E26.0499
G1 X100.974 Y168.589 E26.0764
G1 X100.655 Y168.908 E26.1182
G1 X100.390 Y169.018 E26.1447
G1 X97.584 Y169.018 E26.4041
G1 X97.584 Y175.324 E26.9872
G1 X97.474 Y175.589 E27.0137
G1 X97.155 Y175.908 E27.0555
G1 X96.890 Y176.018 E27.0820
G1 X94.084 Y176.018 E27.3414
G1 X94.084 Y178.824 E27.6009
G1 X93.974 Y179.089 E27.6274
G1 X93.655 Y179.408 E27.6692
G1 X93.390 Y179.518 E27.6956
G1 X90.584 Y179.518 E27.9551
G1 X90.584 Y185.824 E28.5382
G1 X90.474 Y186.089 E28.5646
G1 X90.155 Y186.408 E28.6064
G1 X89.890 Y186.518 E28.6329
G1 X87.084 Y186.518 E28.8924
G1 X87.084 Y189.324 E29.1518
G1 X86.974 Y189.589 E29.1783
G1 X86.655 Y189.908 E29.2201
G1 X86.390 Y190.018 E29.2466
G1 X80.084 Y190.018 E29.8297
G1 X80.084 Y192.824 E30.0891
G1 X79.974 Y193.089 E30.1156
G1 X79.655 Y193.408 E30.1574
G1 X79.390 Y193.518 E30.1839
G1 X78.090 Y193.518 E30.3041
G1 X77.922 Y193.666 E30.3248
G1 X77.382 Y193.669 E30.3747
G1 X77.207 Y193.518 E30.3961
G1 X76.584 Y193.518 E30.4537
G1 X76.584 Y196.324 E30.7132
G1 X76.474 Y196.589 E30.7396
G1 X76.155 Y196.908 E30.7814
G1 X75.890 Y197.018 E30.8079
G1 X69.498 Y197.018 E31.3990
G1 X69.233 Y196.908 E31.4254
G1 X68.913 Y196.589 E31.4672
G1 X68.804 Y196.324 E31.4937
G1 X68.804 Y186.432 E32.4084
G1 X68.913 Y186.167 E32.4348
G1 X69.233 Y185.848 E32.4766
G1 X69.498 Y185.738 E32.5031
G1 X72.304 Y185.738 E32.7626
G1 X72.304 Y175.932 E33.6692
G1 X72.413 Y175.667 E33.6957
G1 X72.733 Y175.348 E33.7375
G1 X72.998 Y175.238 E33.7640
G1 X75.804 Y175.238 E34.0235
G1 X75.804 Y168.932 E34.6065
G1 X75.868 Y168.778 E34.6219
G1 X43.388 Y218.793 E40.1359
G1 X43.152 Y218.955 E40.1624
G1 X42.709 Y219.049 E40.2042
G1 X42.428 Y218.997 E40.2306
G1 X31.985 Y212.215 E41.3820
G1 X31.822 Y211.978 E41.4085
G1 X31.728 Y211.536 E41.4503
G1 X31.780 Y211.255 E41.4768
G1 X161.794 Y11.051 E63.5485
G1 X161.903 Y10.883 F1200
G92 E0
G1 E-6.5000 F3600
G1 X162.635 Y11.964 F9000
G1 X160.505 Y15.244 F9000
G1 X145.804 Y61.085 F9000
G1 E-0.2000 F3600
G92 E0
G1 X139.860 Y70.238 E1.0090 F1200
G1 X142.304 Y70.238 E1.2350
G1 X142.304 Y67.432 E1.4944
G1 X142.413 Y67.167 E1.5209
G1 X142.733 Y66.848 E1.5627
G1 X142.998 Y66.738 E1.5892
G1 X145.804 Y66.738 E1.8486
G1 X145.804 Y61.285 E2.3528
G1 X145.804 Y61.085 F1200
G92 E0
G1 E-6.5000 F3600
G1 X138.804 Y71.865 F9000
G1 E-0.2000 F3600
G92 E0
G1 X133.041 Y80.738 E0.9783 F1200
G1 X135.304 Y80.738 E1.1875
G1 X135.304 Y77.932 E1.4469
G1 X135.413 Y77.667 E1.4734
G1 X135.733 Y77.348 E1.5152
G1 X135.998 Y77.238 E1.5417
G1 X138.804 Y77.238 E1.8011
G1 X138.804 Y72.065 E2.2795
G1 X138.804 Y71.865 F1200
G92 E0
G1 E-6.5000 F3600
G1 X131.804 Y82.644 F9000
G1 E-0.2000 F3600
G92 E0
G1 X114.806 Y108.817 E2.8855 F1200
G1 X114.998 Y108.738 E2.9047
G1 X117.804 Y108.738 E3.1641
G1 X117.804 Y105.932 E3.4236
G1 X117.913 Y105.667 E3.4501
G1 X118.233 Y105.348 E3.4919
G1 X118.498 Y105.238 E3.5184
G1 X121.304 Y105.238 E3.7778
G1 X121.304 Y98.932 E4.3609
G1 X121.413 Y98.667 E4.3874
G1 X121.733 Y98.348 E4.4292
G1 X121.998 Y98.238 E4.4556
G1 X124.804 Y98.238 E4.7151
G1 X124.804 Y95.432 E4.9745
G1 X124.913 Y95.167 E5.0010
G1 X125.233 Y94.848 E5.0428
G1 X125.498 Y94.738 E5.0693
G1 X128.304 Y94.738 E5.3288
G1 X128.304 Y88.432 E5.9118
G1 X128.413 Y88.167 E5.9383
G1 X128.733 Y87.848 E5.9801
G1 X128.998 Y87.738 E6.0066
G1 X131.804 Y87.738 E6.2660
G1 X131.804 Y82.844 E6.7186
G1 X131.804 Y82.644 F1200
G92 E0
G1 E-6.5000 F3600
G1 X114.304 Y109.591 F9000
G1 E-0.2000 F3600
G92 E0
G1 X108.039 Y119.238 E1.0635 F1200
G1 X110.804 Y119.238 E1.3191
G1 X110.804 Y116.432 E1.5786
G1 X110.913 Y116.167 E1.6051
G1 X111.233 Y115.848 E1.6469
G1 X111.498 Y115.738 E1.6734
G1 X114.304 Y115.738 E1.9328
G1 X114.304 Y109.791 E2.4826
G1 X114.304 Y109.591 F1200
G92 E0
G1 E-6.5000 F3600
G1 X107.304 Y120.370 F9000
G1 E-0.2000 F3600
G92 E0
G1 X101.220 Y129.738 E1.0327 F1200
G1 X103.804 Y129.738 E1.2716
G1 X103.804 Y126.932 E1.5311
G1 X103.913 Y126.667 E1.5575
G1 X104.233 Y126.348 E1.5993
G1 X104.498 Y126.238 E1.6258
G1 X107.304 Y126.238 E1.8853
G1 X107.304 Y120.570 E2.4093
G1 X107.304 Y120.370 F1200
G92 E0
