; G-Code generated by Simplify3D(R) Version 3.1.1
; Jan 13, 2019 at 2:16:29 PM
; Settings Summary
;   processName,Process1
;   applyToModels,shoretrooper
;   profileName,ABS
;   profileVersion,2018-11-19 00:15:08
;   baseProfile,Creality CR-10
;   printMaterial,PETG
;   printQuality,Fast
;   printExtruders,
;   extruderName,Primary Extruder
;   extruderToolheadNumber,0
;   extruderDiameter,0.4
;   extruderAutoWidth,1
;   extruderWidth,0.48
;   extrusionMultiplier,0.99
;   extruderUseRetract,1
;   extruderRetractionDistance,6.5
;   extruderExtraRestartDistance,-0.2
;   extruderRetractionZLift,0
;   extruderRetractionSpeed,3600
;   extruderUseCoasting,1
;   extruderCoastingDistance,0.2
;   extruderUseWipe,0
;   extruderWipeDistance,4
;   primaryExtruder,0
;   layerHeight,0.3
;   topSolidLayers,3
;   bottomSolidLayers,3
;   perimeterOutlines,3
;   printPerimetersInsideOut,1
;   startPointOption,3
;   startPointOriginX,0
;   startPointOriginY,500
;   startPointOriginZ,0
;   sequentialIslands,0
;   spiralVaseMode,0
;   firstLayerHeightPercentage,130
;   firstLayerWidthPercentage,120
;   firstLayerUnderspeed,0.6
;   useRaft,0
;   raftExtruder,0
;   raftLayers,3
;   raftOffset,3
;   raftSeparationDistance,0.14
;   raftInfill,85
;   disableRaftBaseLayers,0
;   useSkirt,1
;   skirtExtruder,0
;   skirtLayers,1
;   skirtOutlines,3
;   skirtOffset,0.2
;   usePrimePillar,0
;   primePillarExtruder,999
;   primePillarWidth,12
;   primePillarLocation,7
;   primePillarSpeedMultiplier,1
;   useOozeShield,0
;   oozeShieldExtruder,999
;   oozeShieldOffset,2
;   oozeShieldOutlines,1
;   oozeShieldSidewallShape,1
;   oozeShieldSidewallAngle,30
;   oozeShieldSpeedMultiplier,1
;   infillExtruder,0
;   internalInfillPattern,Triangular
;   externalInfillPattern,Rectilinear
;   infillPercentage,20
;   outlineOverlapPercentage,35
;   infillExtrusionWidthPercentage,120
;   minInfillLength,4
;   infillLayerInterval,1
;   infillAngles,45,-45
;   overlapInfillAngles,1
;   generateSupport,1
;   supportExtruder,0
;   supportInfillPercentage,28
;   supportExtraInflation,1
;   denseSupportLayers,0
;   denseSupportInfillPercentage,60
;   supportLayerInterval,1
;   supportHorizontalPartOffset,0.3
;   supportUpperSeparationLayers,2
;   supportLowerSeparationLayers,1
;   supportType,0
;   supportGridSpacing,3.5
;   maxOverhangAngle,45
;   supportAngles,0
;   temperatureName,Heated Bed,Primary Extruder
;   temperatureNumber,0,0
;   temperatureSetpointCount,1,1
;   temperatureSetpointLayers,1,1
;   temperatureSetpointTemperatures,85,245
;   temperatureStabilizeAtStartup,1,1
;   temperatureHeatedBed,1,0
;   temperatureRelayBetweenLayers,0,0
;   temperatureRelayBetweenLoops,0,0
;   fanLayers,1,2,3
;   fanSpeeds,0,0,0
;   blipFanToFullPower,0
;   adjustSpeedForCooling,1
;   minSpeedLayerTime,20
;   minCoolingSpeedSlowdown,30
;   increaseFanForCooling,0
;   minFanLayerTime,30
;   maxCoolingFanSpeed,50
;   increaseFanForBridging,0
;   bridgingFanSpeed,100
;   use5D,1
;   relativeEdistances,0
;   allowEaxisZeroing,1
;   independentExtruderAxes,0
;   includeM10123,0
;   stickySupport,1
;   applyToolheadOffsets,0
;   gcodeXoffset,0
;   gcodeYoffset,0
;   gcodeZoffset,0
;   overrideMachineDefinition,1
;   machineTypeOverride,0
;   strokeXoverride,230
;   strokeYoverride,230
;   strokeZoverride,255
;   originOffsetXoverride,0
;   originOffsetYoverride,0
;   originOffsetZoverride,0
;   homeXdirOverride,-1
;   homeYdirOverride,-1
;   homeZdirOverride,-1
;   flipXoverride,1
;   flipYoverride,-1
;   flipZoverride,1
;   toolheadOffsets,0,0|0,0|0,0|0,0|0,0|0,0
;   overrideFirmwareConfiguration,1
;   firmwareTypeOverride,RepRap (Marlin/Repetier/Sprinter)
;   GPXconfigOverride,r2
;   baudRateOverride,115200
;   overridePrinterModels,1
;   printerModelsOverride
;   startingGcode,G28 ; home all axes,M117 Purging Extruder...,M204 P500 T1000,M205 X10 Y10 ; set jerk x/y=10,G1 Z1.0 F3000 ; lift Z,G1 X0.2 Y25 Z0.2 F3000.0 ; move to start-line position,G92 E0 ; reset extruder,G1 X0.2 Y150.0 F1000.0 E15 ; draw 1st line,G1 X0.7 Y150.0 F3000.0 ; move to side 0.5mm,G1 X0.7 Y50 F1000.0 E30 ; draw 2nd line,G1 X0.7 Y25 F5000.0 ; quick wipe,M117 Printing!,,; Default S3D CR-10 Startup,; G28 ; home all axes,; G1 Z5 F3000 ; lift,; G1 X20 Y2 F1500 ; avoid binder clips,; G1 Z0.2 F3000 ; get ready to prime,; G92 E0 ; reset extrusion distance,; G1 X120 E10 F600 ; prime nozzle,; G1 X150 F5000 ; quick wipe,
;   layerChangeGcode,
;   retractionGcode,
;   toolChangeGcode,
;   endingGcode,M117 Print Complete!,M104 S0 ; turn off extruder,M140 S0 ; turn off bed,G1 X0 Y295 F1000 ; move finished print out front,M84 ; disable motors,M106 S0 ; turn off cooling fan,,; play song,M300 S294 P200 ;D4: 294,M300 S588 P200 ;D5: 588,M300 S440 P200 ;A4: 440,M300 S392 P200 ;G4: 392,M300 S784 P200 ;G5: 784,M300 S440 P200 ;A4: 440,M300 S740 P200 ;F#5: 740,M300 S440 P200 ;A4: 440,,; Default S3D CR-10 Ending Script,; G28 X0 ; home x axis,; M106 S0 ; turn off cooling fan,; M104 S0 ; turn off extruder,; M140 S0 ; turn off bed,; M84 ; disable motors,
;   exportFileFormat,gcode
;   celebration,0
;   celebrationSong,Star Wars
;   postProcessing,,
;   defaultSpeed,3000
;   outlineUnderspeed,0.8
;   solidInfillUnderspeed,0.9
;   supportUnderspeed,1
;   rapidXYspeed,9000
;   rapidZspeed,1002
;   minBridgingArea,50
;   bridgingExtraInflation,0
;   bridgingExtrusionMultiplier,0.9
;   bridgingSpeedMultiplier,1
;   filamentDiameter,1.75
;   filamentPricePerKg,46
;   filamentDensity,1.25
;   useMinPrintHeight,0
;   minPrintHeight,0
;   useMaxPrintHeight,0
;   maxPrintHeight,0
;   useDiaphragm,0
;   diaphragmLayerInterval,20
;   robustSlicing,1
;   mergeAllIntoSolid,0
;   onlyRetractWhenCrossingOutline,0
;   retractBetweenLayers,1
;   useRetractionMinTravel,1
;   retractionMinTravel,3
;   retractWhileWiping,1
;   onlyWipeOutlines,1
;   avoidCrossingOutline,1
;   maxMovementDetourFactor,3
;   toolChangeRetractionDistance,12
;   toolChangeExtraRestartDistance,-0.5
;   toolChangeRetractionSpeed,600
;   allowThinWallGapFill,1
;   thinWallAllowedOverlapPercentage,15
;   horizontalSizeCompensation,0
G90
M82
M106 S0
M140 S85
M190 S85
M104 S245 T0
M109 S245 T0
G28 ; home all axes
M117 Purging Extruder...
M204 P500 T1000
M205 X10 Y10 ; set jerk x/y=10
G1 Z1.0 F3000 ; lift Z
G1 X0.2 Y25 Z0.2 F3000.0 ; move to start-line position
G92 E0 ; reset extruder
G1 X0.2 Y150.0 F1000.0 E15 ; draw 1st line
G1 X0.7 Y150.0 F3000.0 ; move to side 0.5mm
G1 X0.7 Y50 F1000.0 E30 ; draw 2nd line
G1 X0.7 Y25 F5000.0 ; quick wipe
M117 Printing!
; Default S3D CR-10 Startup
; G28 ; home all axes
; G1 Z5 F3000 ; lift
; G1 X20 Y2 F1500 ; avoid binder clips
; G1 Z0.2 F3000 ; get ready to prime
; G92 E0 ; reset extrusion distance
; G1 X120 E10 F600 ; prime nozzle
; G1 X150 F5000 ; quick wipe
G92 E0
G1 E-6.5000 F3600
G1 Z0.390 F1002
; layer 1, Z = 0.39
T0
; tool H0.390 W0.576
; skirt
G1 X111.784 Y111.856 F9000
G1 E-0.2000 F1080
G92 E0
G1 X111.819 Y111.822 E0.0045 F1800
G1 X111.867 Y111.779 E0.0105
G1 X111.904 Y111.748 E0.0150
G1 X112.202 Y111.523 E0.0494
G1 X112.250 Y111.490 E0.0549
G1 X112.318 Y111.449 E0.0621
G1 X112.369 Y111.421 E0.0676
G1 X112.790 Y111.217 E0.1108
G1 X112.836 Y111.197 E0.1155
G1 X112.899 Y111.173 E0.1217
G1 X112.947 Y111.157 E0.1264
G1 X113.227 Y111.076 E0.1533
G1 X113.270 Y111.065 E0.1575
G1 X113.328 Y111.053 E0.1629
G1 X113.372 Y111.045 E0.1670
G1 X113.921 Y110.971 E0.2183
G1 X113.965 Y110.967 E0.2223
G1 X114.024 Y110.963 E0.2278
G1 X114.069 Y110.962 E0.2320
G1 X114.562 Y110.969 E0.2776
G1 X114.593 Y110.970 E0.2804
G1 X114.633 Y110.973 E0.2842
G1 X114.663 Y110.976 E0.2870
G1 X115.014 Y111.016 E0.3196
G1 X115.566 Y110.964 E0.3708
G1 X115.602 Y110.961 E0.3742
G1 X115.650 Y110.959 E0.3787
G1 X115.686 Y110.959 E0.3820
G1 X116.063 Y110.969 E0.4169
G1 X116.108 Y110.972 E0.4210
G1 X116.167 Y110.978 E0.4265
G1 X116.211 Y110.984 E0.4306
G1 X116.830 Y111.093 E0.4887
G1 X116.895 Y111.108 E0.4949
G1 X116.980 Y111.133 E0.5031
G1 X117.043 Y111.155 E0.5093
G1 X117.457 Y111.328 E0.5508
G1 X117.501 Y111.349 E0.5553
G1 X117.559 Y111.379 E0.5613
G1 X117.602 Y111.403 E0.5658
G1 X117.839 Y111.551 E0.5917
G1 X117.882 Y111.581 E0.5965
G1 X117.938 Y111.623 E0.6030
G1 X117.978 Y111.656 E0.6078
G1 X118.337 Y111.979 E0.6524
G1 X118.381 Y112.024 E0.6582
G1 X118.437 Y112.086 E0.6659
G1 X118.476 Y112.134 E0.6717
G1 X118.762 Y112.527 E0.7167
G1 X118.794 Y112.575 E0.7219
G1 X118.832 Y112.641 E0.7290
G1 X118.859 Y112.691 E0.7343
G1 X119.093 Y113.191 E0.7853
G1 X119.113 Y113.239 E0.7901
G1 X119.137 Y113.303 E0.7964
G1 X119.153 Y113.351 E0.8011
G1 X119.361 Y114.112 E0.8741
G1 X119.371 Y114.157 E0.8783
G1 X119.383 Y114.216 E0.8838
G1 X119.390 Y114.260 E0.8880
G1 X119.574 Y115.831 E1.0342
G1 X119.576 Y115.851 E1.0361
G1 X119.578 Y115.878 E1.0386
G1 X119.579 Y115.897 E1.0404
G1 X119.602 Y116.353 E1.0826
G1 X119.603 Y116.382 E1.0853
G1 X119.603 Y116.421 E1.0889
G1 X119.602 Y116.451 E1.0916
G1 X119.581 Y116.897 E1.1329
G1 X119.577 Y116.944 E1.1373
G1 X119.569 Y117.005 E1.1430
G1 X119.562 Y117.050 E1.1472
G1 X119.409 Y117.796 E1.2176
G1 X119.392 Y117.862 E1.2239
G1 X119.363 Y117.948 E1.2323
G1 X119.338 Y118.012 E1.2386
G1 X119.052 Y118.636 E1.3021
G1 X119.021 Y118.695 E1.3083
G1 X118.975 Y118.772 E1.3166
G1 X118.938 Y118.827 E1.3227
G1 X118.607 Y119.259 E1.3730
G1 X118.566 Y119.308 E1.3790
G1 X118.506 Y119.370 E1.3869
G1 X118.460 Y119.415 E1.3929
G1 X117.996 Y119.808 E1.4491
G1 X117.935 Y119.853 E1.4561
G1 X117.851 Y119.908 E1.4654
G1 X117.784 Y119.946 E1.4725
G1 X117.127 Y120.264 E1.5400
G1 X117.065 Y120.289 E1.5461
G1 X116.982 Y120.319 E1.5543
G1 X116.918 Y120.337 E1.5604
G1 X116.236 Y120.497 E1.6252
G1 X116.189 Y120.506 E1.6297
G1 X116.125 Y120.515 E1.6357
G1 X116.076 Y120.521 E1.6402
G1 X115.543 Y120.557 E1.6896
G1 X115.505 Y120.558 E1.6931
G1 X115.455 Y120.559 E1.6977
G1 X115.417 Y120.558 E1.7012
G1 X114.992 Y120.533 E1.7407
G1 X114.475 Y120.557 E1.7885
G1 X114.437 Y120.558 E1.7920
G1 X114.386 Y120.557 E1.7967
G1 X114.348 Y120.555 E1.8002
G1 X113.908 Y120.519 E1.8410
G1 X113.864 Y120.514 E1.8451
G1 X113.806 Y120.505 E1.8505
G1 X113.763 Y120.497 E1.8546
G1 X113.094 Y120.342 E1.9181
G1 X113.031 Y120.324 E1.9242
G1 X112.947 Y120.294 E1.9324
G1 X112.885 Y120.269 E1.9386
G1 X112.224 Y119.950 E2.0065
G1 X112.167 Y119.919 E2.0125
G1 X112.093 Y119.873 E2.0205
G1 X112.040 Y119.836 E2.0265
G1 X111.713 Y119.579 E2.0649
G1 X111.681 Y119.552 E2.0688
G1 X111.638 Y119.514 E2.0741
G1 X111.608 Y119.484 E2.0780
G1 X111.361 Y119.226 E2.1110
G1 X111.333 Y119.195 E2.1149
G1 X111.298 Y119.152 E2.1200
G1 X111.272 Y119.119 E2.1239
G1 X111.052 Y118.814 E2.1587
G1 X111.027 Y118.777 E2.1628
G1 X110.996 Y118.725 E2.1684
G1 X110.974 Y118.686 E2.1725
G1 X110.791 Y118.330 E2.2096
G1 X110.774 Y118.295 E2.2131
G1 X110.754 Y118.248 E2.2179
G1 X110.740 Y118.213 E2.2214
G1 X110.589 Y117.794 E2.2625
G1 X110.576 Y117.756 E2.2663
G1 X110.561 Y117.704 E2.2713
G1 X110.551 Y117.665 E2.2750
G1 X110.470 Y117.287 E2.3108
G1 X110.464 Y117.254 E2.3138
G1 X110.457 Y117.211 E2.3179
G1 X110.453 Y117.178 E2.3209
G1 X110.404 Y116.708 E2.3646
G1 X110.402 Y116.670 E2.3682
G1 X110.400 Y116.617 E2.3730
G1 X110.400 Y116.578 E2.3767
G1 X110.418 Y115.928 E2.4368
G1 X110.419 Y115.903 E2.4391
G1 X110.422 Y115.869 E2.4422
G1 X110.424 Y115.844 E2.4446
G1 X110.593 Y114.358 E2.5829
G1 X110.599 Y114.318 E2.5866
G1 X110.608 Y114.266 E2.5915
G1 X110.617 Y114.227 E2.5952
G1 X110.810 Y113.458 E2.6685
G1 X110.823 Y113.414 E2.6727
G1 X110.842 Y113.357 E2.6783
G1 X110.858 Y113.314 E2.6825
G1 X111.038 Y112.885 E2.7255
G1 X111.061 Y112.837 E2.7305
G1 X111.094 Y112.774 E2.7370
G1 X111.121 Y112.728 E2.7419
G1 X111.429 Y112.254 E2.7942
G1 X111.461 Y112.208 E2.7994
G1 X111.507 Y112.150 E2.8063
G1 X111.544 Y112.107 E2.8115
G1 X111.646 Y112.000 E2.8251
G1 X111.784 Y111.856 F1800
G1 X112.125 Y112.194 F9000
G92 E0
G1 X112.145 Y112.174 E0.0027 F1800
G1 X112.179 Y112.144 E0.0069
G1 X112.202 Y112.125 E0.0096
G1 X112.482 Y111.913 E0.0420
G1 X112.511 Y111.893 E0.0453
G1 X112.558 Y111.865 E0.0504
G1 X112.589 Y111.848 E0.0537
G1 X112.990 Y111.654 E0.0948
G1 X113.018 Y111.642 E0.0977
G1 X113.062 Y111.625 E0.1020
G1 X113.091 Y111.615 E0.1048
G1 X113.352 Y111.539 E0.1300
G1 X113.378 Y111.533 E0.1325
G1 X113.419 Y111.524 E0.1363
G1 X113.445 Y111.519 E0.1388
G1 X113.976 Y111.448 E0.1884
G1 X114.003 Y111.445 E0.1908
G1 X114.044 Y111.443 E0.1947
G1 X114.071 Y111.442 E0.1972
G1 X114.549 Y111.449 E0.2414
G1 X114.568 Y111.450 E0.2431
G1 X114.596 Y111.451 E0.2457
G1 X114.614 Y111.453 E0.2474
G1 X115.009 Y111.499 E0.2841
G1 X115.604 Y111.442 E0.3394
G1 X115.626 Y111.441 E0.3414
G1 X115.660 Y111.439 E0.3445
G1 X115.681 Y111.439 E0.3465
G1 X116.042 Y111.449 E0.3799
G1 X116.069 Y111.450 E0.3824
G1 X116.110 Y111.454 E0.3862
G1 X116.137 Y111.458 E0.3887
G1 X116.734 Y111.563 E0.4448
G1 X116.773 Y111.572 E0.4485
G1 X116.832 Y111.590 E0.4542
G1 X116.870 Y111.603 E0.4579
G1 X117.263 Y111.767 E0.4973
G1 X117.289 Y111.780 E0.5000
G1 X117.330 Y111.801 E0.5042
G1 X117.355 Y111.815 E0.5069
G1 X117.576 Y111.953 E0.5309
G1 X117.602 Y111.971 E0.5338
G1 X117.641 Y112.000 E0.5383
G1 X117.665 Y112.020 E0.5412
G1 X118.006 Y112.328 E0.5837
G1 X118.033 Y112.354 E0.5872
G1 X118.072 Y112.398 E0.5926
G1 X118.096 Y112.427 E0.5961
G1 X118.367 Y112.800 E0.6388
G1 X118.386 Y112.829 E0.6420
G1 X118.413 Y112.875 E0.6469
G1 X118.429 Y112.905 E0.6501
G1 X118.654 Y113.385 E0.6991
G1 X118.666 Y113.414 E0.7020
G1 X118.683 Y113.459 E0.7064
G1 X118.692 Y113.488 E0.7092
G1 X118.895 Y114.231 E0.7804
G1 X118.902 Y114.257 E0.7829
G1 X118.910 Y114.298 E0.7868
G1 X118.914 Y114.325 E0.7893
G1 X119.096 Y115.883 E0.9343
G1 X119.098 Y115.895 E0.9355
G1 X119.099 Y115.913 E0.9372
G1 X119.100 Y115.925 E0.9383
G1 X119.122 Y116.372 E0.9796
G1 X119.123 Y116.389 E0.9812
G1 X119.123 Y116.416 E0.9837
G1 X119.123 Y116.434 E0.9854
G1 X119.102 Y116.865 E1.0253
G1 X119.100 Y116.893 E1.0278
G1 X119.094 Y116.936 E1.0318
G1 X119.090 Y116.963 E1.0344
G1 X118.942 Y117.686 E1.1026
G1 X118.931 Y117.726 E1.1064
G1 X118.911 Y117.786 E1.1123
G1 X118.896 Y117.824 E1.1161
G1 X118.621 Y118.424 E1.1771
G1 X118.603 Y118.460 E1.1808
G1 X118.571 Y118.513 E1.1866
G1 X118.548 Y118.546 E1.1903
G1 X118.234 Y118.957 E1.2381
G1 X118.209 Y118.987 E1.2417
G1 X118.167 Y119.030 E1.2473
G1 X118.139 Y119.057 E1.2509
G1 X117.697 Y119.432 E1.3044
G1 X117.661 Y119.459 E1.3086
G1 X117.601 Y119.498 E1.3152
G1 X117.562 Y119.520 E1.3194
G1 X116.930 Y119.826 E1.3843
G1 X116.893 Y119.841 E1.3880
G1 X116.835 Y119.862 E1.3937
G1 X116.796 Y119.873 E1.3974
G1 X116.136 Y120.027 E1.4601
G1 X116.108 Y120.033 E1.4628
G1 X116.063 Y120.039 E1.4669
G1 X116.034 Y120.042 E1.4696
G1 X115.518 Y120.078 E1.5175
G1 X115.495 Y120.078 E1.5196
G1 X115.460 Y120.079 E1.5228
G1 X115.437 Y120.078 E1.5249
G1 X114.994 Y120.052 E1.5660
G1 X114.460 Y120.077 E1.6154
G1 X114.437 Y120.077 E1.6175
G1 X114.402 Y120.077 E1.6208
G1 X114.379 Y120.076 E1.6229
G1 X113.955 Y120.042 E1.6622
G1 X113.929 Y120.038 E1.6646
G1 X113.889 Y120.032 E1.6684
G1 X113.863 Y120.027 E1.6709
G1 X113.215 Y119.877 E1.7323
G1 X113.177 Y119.866 E1.7360
G1 X113.119 Y119.846 E1.7417
G1 X113.082 Y119.830 E1.7454
G1 X112.443 Y119.523 E1.8109
G1 X112.409 Y119.504 E1.8145
G1 X112.358 Y119.472 E1.8201
G1 X112.326 Y119.450 E1.8237
G1 X112.016 Y119.207 E1.8601
G1 X111.997 Y119.191 E1.8625
G1 X111.967 Y119.164 E1.8662
G1 X111.949 Y119.146 E1.8685
G1 X111.714 Y118.900 E1.9000
G1 X111.697 Y118.882 E1.9023
G1 X111.672 Y118.852 E1.9059
G1 X111.657 Y118.832 E1.9082
G1 X111.447 Y118.541 E1.9414
G1 X111.432 Y118.518 E1.9439
G1 X111.410 Y118.482 E1.9478
G1 X111.397 Y118.459 E1.9503
G1 X111.221 Y118.117 E1.9858
G1 X111.211 Y118.097 E1.9879
G1 X111.197 Y118.064 E1.9912
G1 X111.189 Y118.043 E1.9933
G1 X111.043 Y117.639 E2.0330
G1 X111.035 Y117.616 E2.0353
G1 X111.025 Y117.579 E2.0388
G1 X111.019 Y117.556 E2.0410
G1 X110.941 Y117.192 E2.0754
G1 X110.937 Y117.173 E2.0772
G1 X110.932 Y117.142 E2.0801
G1 X110.930 Y117.123 E2.0819
G1 X110.883 Y116.667 E2.1242
G1 X110.881 Y116.644 E2.1264
G1 X110.880 Y116.607 E2.1298
G1 X110.880 Y116.583 E2.1320
