; G-Code generated by Simplify3D(R) Version 3.1.1
; Nov 14, 2018 at 5:26:30 AM
; Settings Summary
;   processName,Process2
;   applyToModels,Shorter NinjaStrap,Shorter NinjaStrap(2)
;   profileName,MK3 TPU (modified)
;   profileVersion,2018-10-28 17:57:46
;   baseProfile,Default
;   printMaterial,TPU
;   printQuality,0.2mm (Normal)
;   printExtruders,
;   extruderName,Primary Extruder
;   extruderToolheadNumber,0
;   extruderDiameter,0.4
;   extruderAutoWidth,0
;   extruderWidth,0.45
;   extrusionMultiplier,1
;   extruderUseRetract,1
;   extruderRetractionDistance,2.8
;   extruderExtraRestartDistance,0
;   extruderRetractionZLift,0
;   extruderRetractionSpeed,6000
;   extruderUseCoasting,1
;   extruderCoastingDistance,2
;   extruderUseWipe,1
;   extruderWipeDistance,2
;   primaryExtruder,0
;   layerHeight,0.2
;   topSolidLayers,4
;   bottomSolidLayers,4
;   perimeterOutlines,3
;   printPerimetersInsideOut,1
;   startPointOption,3
;   startPointOriginX,0
;   startPointOriginY,0
;   startPointOriginZ,0
;   sequentialIslands,0
;   spiralVaseMode,0
;   firstLayerHeightPercentage,100
;   firstLayerWidthPercentage,100
;   firstLayerUnderspeed,0.5
;   useRaft,0
;   raftExtruder,0
;   raftLayers,3
;   raftOffset,3
;   raftSeparationDistance,0.14
;   raftInfill,85
;   disableRaftBaseLayers,0
;   useSkirt,0
;   skirtExtruder,0
;   skirtLayers,1
;   skirtOutlines,3
;   skirtOffset,8
;   usePrimePillar,0
;   primePillarExtruder,999
;   primePillarWidth,12
;   primePillarLocation,7
;   primePillarSpeedMultiplier,1
;   useOozeShield,0
;   oozeShieldExtruder,999
;   oozeShieldOffset,2
;   oozeShieldOutlines,1
;   oozeShieldSidewallShape,1
;   oozeShieldSidewallAngle,30
;   oozeShieldSpeedMultiplier,1
;   infillExtruder,0
;   internalInfillPattern,Rectilinear
;   externalInfillPattern,Rectilinear
;   infillPercentage,25
;   outlineOverlapPercentage,20
;   infillExtrusionWidthPercentage,100
;   minInfillLength,1
;   infillLayerInterval,1
;   infillAngles,45,-45
;   overlapInfillAngles,1
;   generateSupport,0
;   supportExtruder,0
;   supportInfillPercentage,15
;   supportExtraInflation,0.2
;   denseSupportLayers,2
;   denseSupportInfillPercentage,50
;   supportLayerInterval,1
;   supportHorizontalPartOffset,0.1
;   supportUpperSeparationLayers,2
;   supportLowerSeparationLayers,1
;   supportType,0
;   supportGridSpacing,3
;   maxOverhangAngle,35
;   supportAngles,90,45
;   temperatureName,Primary Extruder,Heated Bed
;   temperatureNumber,0,1
;   temperatureSetpointCount,1,1
;   temperatureSetpointLayers,1,1
;   temperatureSetpointTemperatures,220,50
;   temperatureStabilizeAtStartup,1,1
;   temperatureHeatedBed,0,1
;   temperatureRelayBetweenLayers,0,0
;   temperatureRelayBetweenLoops,0,0
;   fanLayers,1,2
;   fanSpeeds,0,100
;   blipFanToFullPower,0
;   adjustSpeedForCooling,1
;   minSpeedLayerTime,15
;   minCoolingSpeedSlowdown,20
;   increaseFanForCooling,0
;   minFanLayerTime,45
;   maxCoolingFanSpeed,100
;   increaseFanForBridging,1
;   bridgingFanSpeed,100
;   use5D,1
;   relativeEdistances,1
;   allowEaxisZeroing,1
;   independentExtruderAxes,0
;   includeM10123,0
;   stickySupport,1
;   applyToolheadOffsets,0
;   gcodeXoffset,0
;   gcodeYoffset,0
;   gcodeZoffset,0
;   overrideMachineDefinition,1
;   machineTypeOverride,0
;   strokeXoverride,200
;   strokeYoverride,210
;   strokeZoverride,250
;   originOffsetXoverride,0
;   originOffsetYoverride,0
;   originOffsetZoverride,0
;   homeXdirOverride,-1
;   homeYdirOverride,-1
;   homeZdirOverride,-1
;   flipXoverride,1
;   flipYoverride,-1
;   flipZoverride,1
;   toolheadOffsets,0,0|0,0|0,0|0,0|0,0|0,0
;   overrideFirmwareConfiguration,0
;   firmwareTypeOverride,RepRap (Marlin/Repetier/Sprinter)
;   GPXconfigOverride,r2
;   baudRateOverride,115200
;   overridePrinterModels,1
;   printerModelsOverride,Prusa_MK3_Assy_STL_-_FULL.STL
;   startingGcode,M115 U3.1.0 ; tell printer latest fw version,G 28 W ;,G1 Z100 ;,M900 K32 ; k value,M104 S[extruder0_temperature] T0 ; this will take the layer 1 temperature for extruder 0,M140 S[bed1_temperature] ; this will take the layer 1 temperature for bed 0,M190 S[bed1_temperature] ; wait for bed temp,M109 S[extruder0_temperature] T0 ; wait for extruder temp,G28 W ; home all without mesh bed level,G80 ; mesh bed leveling,G1 Y-3.0 F1000.0 ; go outside print area,G92 E0.0
;   layerChangeGcode,
;   retractionGcode,
;   toolChangeGcode,
;   endingGcode,G4 ; wait,M104 S0 ; turn off temperature,M140 S0 ; turn off heatbed,M107 ; turn off fan,G1 X0 Y200; home X axis,G1 F1000.0 ; set feed rate,G1 E-3 ; retract,M84 ; disable motors,,
;   exportFileFormat,gcode
;   celebration,0
;   celebrationSong,Star Wars
;   postProcessing,{REPLACE "; outer perimeter\n" "; outer perimeter\nM204 P800\n"},{REPLACE "; inner perimeter\n" "; inner perimeter\nM204 P1000\n"},{REPLACE "; solid layer\n" "; solid layer\nM204 P1000\n"},{REPLACE "; infill\n" "; infill\nM204 P3500\n"}
;   defaultSpeed,780
;   outlineUnderspeed,1
;   solidInfillUnderspeed,1
;   supportUnderspeed,1
;   rapidXYspeed,7200
;   rapidZspeed,900
;   minBridgingArea,50
;   bridgingExtraInflation,0
;   bridgingExtrusionMultiplier,0.9
;   bridgingSpeedMultiplier,0.6
;   filamentDiameter,1.75
;   filamentPricePerKg,46
;   filamentDensity,1.25
;   useMinPrintHeight,0
;   minPrintHeight,0
;   useMaxPrintHeight,0
;   maxPrintHeight,0
;   useDiaphragm,0
;   diaphragmLayerInterval,20
;   robustSlicing,1
;   mergeAllIntoSolid,0
;   onlyRetractWhenCrossingOutline,0
;   retractBetweenLayers,0
;   useRetractionMinTravel,1
;   retractionMinTravel,3
;   retractWhileWiping,1
;   onlyWipeOutlines,0
;   avoidCrossingOutline,1
;   maxMovementDetourFactor,3
;   toolChangeRetractionDistance,12
;   toolChangeExtraRestartDistance,-0.5
;   toolChangeRetractionSpeed,600
;   allowThinWallGapFill,1
;   thinWallAllowedOverlapPercentage,25
;   horizontalSizeCompensation,0
G90
M83
M106 S0
M115 U3.1.0 ; tell printer latest fw version
G 28 W ;
G1 Z100 ;
M900 K32 ; k value
M104 S220 T0 ; this will take the layer 1 temperature for extruder 0
M140 S50 ; this will take the layer 1 temperature for bed 0
M190 S50 ; wait for bed temp
M109 S220 T0 ; wait for extruder temp
G28 W ; home all without mesh bed level
G80 ; mesh bed leveling
G1 Y-3.0 F1000.0 ; go outside print area
G92 E0.0
G1 E-2.8000 F6000
G1 Z0.200 F900
; layer 1, Z = 0.2
T0
; tool H0.200 W0.450
; inner perimeter
M204 P1000
G1 X78.625 Y3.876 F7200
G1 E2.8000 F1800
G1 X96.375 Y3.876 E0.6642 F390
G1 X96.375 Y206.124 E7.5676
G1 X78.625 Y206.124 E0.6642
G1 X78.625 Y5.876 E7.4928
G1 X78.625 Y3.876 F390
G1 X80.625 Y3.876 F780
; inner perimeter
M204 P1000
G1 X78.175 Y3.426 F7200
G1 X96.825 Y3.426 E0.6978 F390
G1 X96.825 Y206.574 E7.6013
G1 X78.175 Y206.574 E0.6978
G1 X78.175 Y5.426 E7.5265
G1 X78.175 Y3.426 F390
G1 X80.175 Y3.426 F780
; outer perimeter
M204 P800
G1 X77.725 Y2.976 F7200
G1 X97.275 Y2.976 E0.7315 F390
G1 X97.275 Y207.024 E7.6350
G1 X77.725 Y207.024 E0.7315
G1 X77.725 Y4.976 E7.5602
G1 X77.725 Y2.976 F390
G1 X78.089 Y2.976 E-2.8000 F780
G1 X79.725 Y2.976 F780
; inner perimeter
M204 P1000
G1 X79.975 Y6.626 F7200
G1 E2.8000 F6000
G1 X79.975 Y11.876 E0.1964 F390
G1 X95.025 Y11.876 E0.5631
G1 X95.025 Y6.626 E0.1964
G1 X81.975 Y6.626 E0.4883
G1 X79.975 Y6.626 F390
G1 X79.975 Y8.626 F780
; inner perimeter
M204 P1000
G1 X80.425 Y7.076 F7200
G1 X80.425 Y11.426 E0.1628 F390
G1 X94.575 Y11.426 E0.5295
G1 X94.575 Y7.076 E0.1628
G1 X82.425 Y7.076 E0.4546
G1 X80.425 Y7.076 F390
G1 X80.425 Y9.076 F780
; outer perimeter
M204 P800
G1 X80.875 Y7.526 F7200
G1 X80.875 Y10.976 E0.1291 F390
G1 X94.125 Y10.976 E0.4958
G1 X94.125 Y7.526 E0.1291
G1 X82.875 Y7.526 E0.4209
G1 X80.875 Y7.526 F390
G1 X80.875 Y7.890 E-2.8000 F780
G1 X80.875 Y9.526 F780
; inner perimeter
M204 P1000
G1 X79.975 Y15.626 F7200
G1 E2.8000 F6000
G1 X79.975 Y20.876 E0.1964 F390
G1 X95.025 Y20.876 E0.5631
G1 X95.025 Y15.626 E0.1964
G1 X81.975 Y15.626 E0.4883
G1 X79.975 Y15.626 F390
G1 X79.975 Y17.626 F780
; inner perimeter
M204 P1000
G1 X80.425 Y16.076 F7200
G1 X80.425 Y20.426 E0.1628 F390
G1 X94.575 Y20.426 E0.5295
G1 X94.575 Y16.076 E0.1628
G1 X82.425 Y16.076 E0.4546
G1 X80.425 Y16.076 F390
G1 X80.425 Y18.076 F780
; outer perimeter
M204 P800
G1 X80.875 Y16.526 F7200
G1 X80.875 Y19.976 E0.1291 F390
G1 X94.125 Y19.976 E0.4958
G1 X94.125 Y16.526 E0.1291
G1 X82.875 Y16.526 E0.4209
G1 X80.875 Y16.526 F390
G1 X80.875 Y16.890 E-2.8000 F780
G1 X80.875 Y18.526 F780
; inner perimeter
M204 P1000
G1 X79.975 Y24.626 F7200
G1 E2.8000 F6000
G1 X79.975 Y29.876 E0.1964 F390
G1 X95.025 Y29.876 E0.5631
G1 X95.025 Y24.626 E0.1964
G1 X81.975 Y24.626 E0.4883
G1 X79.975 Y24.626 F390
G1 X79.975 Y26.626 F780
; inner perimeter
M204 P1000
G1 X80.425 Y25.076 F7200
G1 X80.425 Y29.426 E0.1628 F390
G1 X94.575 Y29.426 E0.5295
G1 X94.575 Y25.076 E0.1628
G1 X82.425 Y25.076 E0.4546
G1 X80.425 Y25.076 F390
G1 X80.425 Y27.076 F780
; outer perimeter
M204 P800
G1 X80.875 Y25.526 F7200
G1 X80.875 Y28.976 E0.1291 F390
G1 X94.125 Y28.976 E0.4958
G1 X94.125 Y25.526 E0.1291
G1 X82.875 Y25.526 E0.4209
G1 X80.875 Y25.526 F390
G1 X80.875 Y25.890 E-2.8000 F780
G1 X80.875 Y27.526 F780
; inner perimeter
M204 P1000
G1 X79.975 Y33.626 F7200
G1 E2.8000 F6000
G1 X79.975 Y38.876 E0.1964 F390
G1 X95.025 Y38.876 E0.5631
G1 X95.025 Y33.626 E0.1964
G1 X81.975 Y33.626 E0.4883
G1 X79.975 Y33.626 F390
G1 X79.975 Y35.626 F780
; inner perimeter
M204 P1000
G1 X80.425 Y34.076 F7200
G1 X80.425 Y38.426 E0.1628 F390
G1 X94.575 Y38.426 E0.5295
G1 X94.575 Y34.076 E0.1628
G1 X82.425 Y34.076 E0.4546
G1 X80.425 Y34.076 F390
G1 X80.425 Y36.076 F780
; outer perimeter
M204 P800
G1 X80.875 Y34.526 F7200
G1 X80.875 Y37.976 E0.1291 F390
G1 X94.125 Y37.976 E0.4958
G1 X94.125 Y34.526 E0.1291
G1 X82.875 Y34.526 E0.4209
G1 X80.875 Y34.526 F390
G1 X80.875 Y34.890 E-2.8000 F780
G1 X80.875 Y36.526 F780
; inner perimeter
M204 P1000
G1 X79.975 Y42.626 F7200
G1 E2.8000 F6000
G1 X79.975 Y47.876 E0.1964 F390
G1 X95.025 Y47.876 E0.5631
G1 X95.025 Y42.626 E0.1964
G1 X81.975 Y42.626 E0.4883
G1 X79.975 Y42.626 F390
G1 X79.975 Y44.626 F780
; inner perimeter
M204 P1000
G1 X80.425 Y43.076 F7200
G1 X80.425 Y47.426 E0.1628 F390
G1 X94.575 Y47.426 E0.5295
G1 X94.575 Y43.076 E0.1628
G1 X82.425 Y43.076 E0.4546
G1 X80.425 Y43.076 F390
G1 X80.425 Y45.076 F780
; outer perimeter
M204 P800
G1 X80.875 Y43.526 F7200
G1 X80.875 Y46.976 E0.1291 F390
G1 X94.125 Y46.976 E0.4958
G1 X94.125 Y43.526 E0.1291
G1 X82.875 Y43.526 E0.4209
G1 X80.875 Y43.526 F390
G1 X80.875 Y43.890 E-2.8000 F780
G1 X80.875 Y45.526 F780
; inner perimeter
M204 P1000
G1 X79.975 Y51.626 F7200
G1 E2.8000 F6000
G1 X79.975 Y56.876 E0.1964 F390
G1 X95.025 Y56.876 E0.5631
G1 X95.025 Y51.626 E0.1964
G1 X81.975 Y51.626 E0.4883
G1 X79.975 Y51.626 F390
G1 X79.975 Y53.626 F780
; inner perimeter
M204 P1000
G1 X80.425 Y52.076 F7200
G1 X80.425 Y56.426 E0.1628 F390
G1 X94.575 Y56.426 E0.5295
G1 X94.575 Y52.076 E0.1628
G1 X82.425 Y52.076 E0.4546
G1 X80.425 Y52.076 F390
G1 X80.425 Y54.076 F780
; outer perimeter
M204 P800
G1 X80.875 Y52.526 F7200
G1 X80.875 Y55.976 E0.1291 F390
G1 X94.125 Y55.976 E0.4958
G1 X94.125 Y52.526 E0.1291
G1 X82.875 Y52.526 E0.4209
G1 X80.875 Y52.526 F390
G1 X80.875 Y52.890 E-2.8000 F780
G1 X80.875 Y54.526 F780
; inner perimeter
M204 P1000
G1 X79.975 Y60.626 F7200
G1 E2.8000 F6000
G1 X79.975 Y65.876 E0.1964 F390
G1 X95.025 Y65.876 E0.5631
G1 X95.025 Y60.626 E0.1964
G1 X81.975 Y60.626 E0.4883
G1 X79.975 Y60.626 F390
G1 X79.975 Y62.626 F780
; inner perimeter
M204 P1000
G1 X80.425 Y61.076 F7200
G1 X80.425 Y65.426 E0.1628 F390
G1 X94.575 Y65.426 E0.5295
G1 X94.575 Y61.076 E0.1628
G1 X82.425 Y61.076 E0.4546
G1 X80.425 Y61.076 F390
G1 X80.425 Y63.076 F780
; outer perimeter
M204 P800
G1 X80.875 Y61.526 F7200
G1 X80.875 Y64.976 E0.1291 F390
G1 X94.125 Y64.976 E0.4958
G1 X94.125 Y61.526 E0.1291
G1 X82.875 Y61.526 E0.4209
G1 X80.875 Y61.526 F390
G1 X80.875 Y61.890 E-2.8000 F780
G1 X80.875 Y63.526 F780
; inner perimeter
M204 P1000
G1 X79.975 Y69.626 F7200
G1 E2.8000 F6000
G1 X79.975 Y74.876 E0.1964 F390
G1 X95.025 Y74.876 E0.5631
G1 X95.025 Y69.626 E0.1964
G1 X81.975 Y69.626 E0.4883
G1 X79.975 Y69.626 F390
G1 X79.975 Y71.626 F780
; inner perimeter
M204 P1000
G1 X80.425 Y70.076 F7200
G1 X80.425 Y74.426 E0.1628 F390
G1 X94.575 Y74.426 E0.5295
G1 X94.575 Y70.076 E0.1628
G1 X82.425 Y70.076 E0.4546
G1 X80.425 Y70.076 F390
G1 X80.425 Y72.076 F780
; outer perimeter
M204 P800
G1 X80.875 Y70.526 F7200
G1 X80.875 Y73.976 E0.1291 F390
G1 X94.125 Y73.976 E0.4958
G1 X94.125 Y70.526 E0.1291
G1 X82.875 Y70.526 E0.4209
G1 X80.875 Y70.526 F390
G1 X80.875 Y70.890 E-2.8000 F780
G1 X80.875 Y72.526 F780
; inner perimeter
M204 P1000
G1 X79.975 Y78.626 F7200
G1 E2.8000 F6000
G1 X79.975 Y83.876 E0.1964 F390
G1 X95.025 Y83.876 E0.5631
G1 X95.025 Y78.626 E0.1964
G1 X81.975 Y78.626 E0.4883
G1 X79.975 Y78.626 F390
G1 X79.975 Y80.626 F780
; inner perimeter
M204 P1000
G1 X80.425 Y79.076 F7200
G1 X80.425 Y83.426 E0.1628 F390
G1 X94.575 Y83.426 E0.5295
G1 X94.575 Y79.076 E0.1628
G1 X82.425 Y79.076 E0.4546
G1 X80.425 Y79.076 F390
G1 X80.425 Y81.076 F780
; outer perimeter
M204 P800
G1 X80.875 Y79.526 F7200
G1 X80.875 Y82.976 E0.1291 F390
G1 X94.125 Y82.976 E0.4958
G1 X94.125 Y79.526 E0.1291
G1 X82.875 Y79.526 E0.4209
G1 X80.875 Y79.526 F390
G1 X80.875 Y81.526 F780
; solid layer
M204 P1000
G1 X79.872 Y84.236 F7200
G1 X96.015 Y100.379 E0.8542 F390
G1 X96.015 Y99.742 E0.0238
G1 X80.509 Y84.236 E0.8205
G1 X81.145 Y84.236 E0.0238
G1 X96.015 Y99.106 E0.7869
G1 X96.015 Y98.469 E0.0238
G1 X81.782 Y84.236 E0.7532
G1 X82.418 Y84.236 E0.0238
G1 X96.015 Y97.833 E0.7195
G1 X96.015 Y97.197 E0.0238
G1 X83.054 Y84.236 E0.6858
G1 X83.691 Y84.236 E0.0238
G1 X96.015 Y96.560 E0.6522
G1 X96.015 Y95.924 E0.0238
G1 X84.327 Y84.236 E0.6185
G1 X84.964 Y84.236 E0.0238
G1 X96.015 Y95.287 E0.5848
G1 X96.015 Y94.651 E0.0238
G1 X85.600 Y84.236 E0.5511
G1 X86.236 Y84.236 E0.0238
G1 X96.015 Y94.015 E0.5175
G1 X96.015 Y93.378 E0.0238
G1 X86.873 Y84.236 E0.4838
G1 X87.509 Y84.236 E0.0238
G1 X96.015 Y92.742 E0.4501
G1 X96.015 Y92.105 E0.0238
G1 X88.146 Y84.236 E0.4164
G1 X88.782 Y84.236 E0.0238
G1 X96.015 Y91.469 E0.3827
G1 X96.015 Y90.833 E0.0238
G1 X89.418 Y84.236 E0.3491
G1 X90.055 Y84.236 E0.0238
G1 X96.015 Y90.196 E0.3154
G1 X96.015 Y89.560 E0.0238
G1 X90.691 Y84.236 E0.2817
G1 X91.328 Y84.236 E0.0238
G1 X96.015 Y88.923 E0.2480
G1 X96.015 Y88.287 E0.0238
G1 X91.964 Y84.236 E0.2144
G1 X92.600 Y84.236 E0.0238
G1 X96.015 Y87.651 E0.1807
G1 X96.015 Y87.014 E0.0238
G1 X93.237 Y84.236 E0.1470
G1 X93.873 Y84.236 E0.0238
G1 X96.015 Y86.378 E0.1133
G1 X96.015 Y85.741 E0.0238
G1 X94.510 Y84.236 E0.0797
G1 X95.146 Y84.236 E0.0238
G1 X96.015 Y85.105 E0.0460
G1 X96.015 Y84.469 E0.0238
G1 X95.385 Y83.839 E0.0333
G1 X95.385 Y83.202 E0.0238
G1 X96.015 Y83.832 E0.0333
G1 X96.015 Y83.196 E0.0238
G1 X95.385 Y82.566 E0.0333
G1 X95.385 Y81.930 E0.0238
G1 X96.015 Y82.560 E0.0333
G1 X96.015 Y81.923 E0.0238
G1 X95.385 Y81.293 E0.0333
G1 X95.385 Y80.657 E0.0238
G1 X96.015 Y81.287 E0.0333
G1 X96.015 Y80.650 E0.0238
G1 X95.385 Y80.020 E0.0333
G1 X95.385 Y79.384 E0.0238
G1 X95.681 Y79.680 E0.0157
G1 X96.015 Y80.014 F390
G1 X96.015 Y79.378 F390
G1 X95.385 Y78.748 F390
G1 X95.642 Y79.005 E-2.8000 F780
G1 X96.015 Y79.378 F780
G1 X96.015 Y80.014 F780
G1 X95.681 Y79.680 F780
G1 X95.385 Y69.838 F7200
G1 E2.8000 F6000
G1 X96.015 Y70.468 E0.0333 F390
G1 X96.015 Y71.104 E0.0238
G1 X95.385 Y70.474 E0.0333
G1 X95.385 Y71.111 E0.0238
G1 X96.015 Y71.741 E0.0333
G1 X96.015 Y72.377 E0.0238
G1 X95.385 Y71.747 E0.0333
G1 X95.385 Y72.384 E0.0238
G1 X96.015 Y73.014 E0.0333
G1 X96.015 Y73.650 E0.0238
G1 X95.385 Y73.020 E0.0333
G1 X95.385 Y73.656 E0.0238
G1 X96.015 Y74.286 E0.0333
G1 X96.015 Y74.923 E0.0238
G1 X95.385 Y74.293 E0.0333
G1 X95.385 Y74.929 E0.0238
G1 X96.015 Y75.559 E0.0333
G1 X96.015 Y76.196 E0.0238
G1 X95.055 Y75.236 E0.0508
G1 X94.419 Y75.236 E0.0238
G1 X96.015 Y76.832 E0.0845
G1 X96.015 Y77.468 E0.0238
G1 X93.783 Y75.236 E0.1181
G1 X93.146 Y75.236 E0.0238
G1 X96.015 Y78.105 E0.1518
G1 X96.015 Y78.741 E0.0238
G1 X92.510 Y75.236 E0.1855
