; G-Code generated by Simplify3D(R) Version 4.0.0
; Nov 15, 2018 at 6:28:24 PM
; Settings Summary
;   processName,grill
;   applyToModels,strainer
;   profileName,Travis_Fletchers_Ultimate_PETG_Profile_v2 (modified)
;   profileVersion,2018-11-14 05:17:17
;   baseProfile,Creality CR-10
;   printMaterial,PETG
;   printQuality,Fast
;   printExtruders,
;   extruderName,Primary Extruder
;   extruderToolheadNumber,0
;   extruderDiameter,0.4
;   extruderAutoWidth,1
;   extruderWidth,0.48
;   extrusionMultiplier,0.99
;   extruderUseRetract,1
;   extruderRetractionDistance,6.5
;   extruderExtraRestartDistance,-0.2
;   extruderRetractionZLift,0
;   extruderRetractionSpeed,3600
;   extruderUseCoasting,1
;   extruderCoastingDistance,0.2
;   extruderUseWipe,0
;   extruderWipeDistance,4
;   primaryExtruder,0
;   layerHeight,0.3
;   topSolidLayers,0
;   bottomSolidLayers,0
;   perimeterOutlines,3
;   printPerimetersInsideOut,1
;   startPointOption,3
;   startPointOriginX,0
;   startPointOriginY,500
;   sequentialIslands,0
;   spiralVaseMode,0
;   firstLayerHeightPercentage,130
;   firstLayerWidthPercentage,120
;   firstLayerUnderspeed,0.6
;   useRaft,0
;   raftExtruder,0
;   raftTopLayers,3
;   raftBaseLayers,2
;   raftOffset,3
;   raftSeparationDistance,0.14
;   raftTopInfill,100
;   aboveRaftSpeedMultiplier,0.3
;   useSkirt,0
;   skirtExtruder,0
;   skirtLayers,1
;   skirtOutlines,2
;   skirtOffset,0.2
;   usePrimePillar,0
;   primePillarExtruder,999
;   primePillarWidth,12
;   primePillarLocation,7
;   primePillarSpeedMultiplier,1
;   useOozeShield,0
;   oozeShieldExtruder,999
;   oozeShieldOffset,2
;   oozeShieldOutlines,1
;   oozeShieldSidewallShape,1
;   oozeShieldSidewallAngle,30
;   oozeShieldSpeedMultiplier,1
;   infillExtruder,0
;   internalInfillPattern,Triangular
;   externalInfillPattern,Rectilinear
;   infillPercentage,40
;   outlineOverlapPercentage,35
;   infillExtrusionWidthPercentage,120
;   minInfillLength,4
;   infillLayerInterval,1
;   internalInfillAngles,0,60,-60
;   overlapInternalInfillAngles,1
;   externalInfillAngles,45,-45
;   generateSupport,1
;   supportExtruder,0
;   supportInfillPercentage,40
;   supportExtraInflation,1
;   supportBaseLayers,0
;   denseSupportExtruder,0
;   denseSupportLayers,0
;   denseSupportInfillPercentage,60
;   supportLayerInterval,1
;   supportHorizontalPartOffset,0.3
;   supportUpperSeparationLayers,2
;   supportLowerSeparationLayers,1
;   supportType,0
;   supportGridSpacing,3.5
;   maxOverhangAngle,45
;   supportAngles,0
;   temperatureName,Heated Bed,Primary Extruder
;   temperatureNumber,0,0
;   temperatureSetpointCount,1,1
;   temperatureSetpointLayers,1,1
;   temperatureSetpointTemperatures,85,240
;   temperatureStabilizeAtStartup,1,1
;   temperatureHeatedBed,1,0
;   temperatureRelayBetweenLayers,0,0
;   temperatureRelayBetweenLoops,0,0
;   fanLayers,1,2,3
;   fanSpeeds,0,25,35
;   blipFanToFullPower,0
;   adjustSpeedForCooling,1
;   minSpeedLayerTime,20
;   minCoolingSpeedSlowdown,30
;   increaseFanForCooling,1
;   minFanLayerTime,30
;   maxCoolingFanSpeed,50
;   increaseFanForBridging,1
;   bridgingFanSpeed,100
;   use5D,1
;   relativeEdistances,0
;   allowEaxisZeroing,1
;   independentExtruderAxes,0
;   includeM10123,0
;   stickySupport,1
;   applyToolheadOffsets,0
;   gcodeXoffset,0
;   gcodeYoffset,0
;   gcodeZoffset,0
;   overrideMachineDefinition,1
;   machineTypeOverride,0
;   strokeXoverride,230
;   strokeYoverride,230
;   strokeZoverride,255
;   originOffsetXoverride,0
;   originOffsetYoverride,0
;   originOffsetZoverride,0
;   homeXdirOverride,-1
;   homeYdirOverride,-1
;   homeZdirOverride,-1
;   flipXoverride,1
;   flipYoverride,-1
;   flipZoverride,1
;   toolheadOffsets,0,0|0,0|0,0|0,0|0,0|0,0
;   overrideFirmwareConfiguration,1
;   firmwareTypeOverride,RepRap (Marlin/Repetier/Sprinter)
;   GPXconfigOverride,r2
;   baudRateOverride,115200
;   overridePrinterModels,1
;   printerModelsOverride
;   startingGcode,G28 ; home all axes,M117 Purging Extruder...,M204 P500 T1000,M205 X10 Y10 ; set jerk x/y=10,G1 Z1.0 F3000 ; lift Z,G1 X0.2 Y25 Z0.2 F3000.0 ; move to start-line position,G92 E0 ; reset extruder,G1 X0.2 Y150.0 F1000.0 E15 ; draw 1st line,G1 X0.7 Y150.0 F3000.0 ; move to side 0.5mm,G1 X0.7 Y50 F1000.0 E30 ; draw 2nd line,G1 X0.7 Y25 F5000.0 ; quick wipe,M117 Printing!,,; Default S3D CR-10 Startup,; G28 ; home all axes,; G1 Z5 F3000 ; lift,; G1 X20 Y2 F1500 ; avoid binder clips,; G1 Z0.2 F3000 ; get ready to prime,; G92 E0 ; reset extrusion distance,; G1 X120 E10 F600 ; prime nozzle,; G1 X150 F5000 ; quick wipe,
;   layerChangeGcode,
;   retractionGcode,
;   toolChangeGcode,
;   endingGcode,M117 Print Complete!,M104 S0 ; turn off extruder,M140 S0 ; turn off bed,G1 X0 Y295 F1000 ; move finished print out front,M84 ; disable motors,M106 S0 ; turn off cooling fan,,; play song,M300 S294 P200 ;D4: 294,M300 S588 P200 ;D5: 588,M300 S440 P200 ;A4: 440,M300 S392 P200 ;G4: 392,M300 S784 P200 ;G5: 784,M300 S440 P200 ;A4: 440,M300 S740 P200 ;F#5: 740,M300 S440 P200 ;A4: 440,,; Default S3D CR-10 Ending Script,; G28 X0 ; home x axis,; M106 S0 ; turn off cooling fan,; M104 S0 ; turn off extruder,; M140 S0 ; turn off bed,; M84 ; disable motors,
;   exportFileFormat,gcode
;   celebration,0
;   celebrationSong,Star Wars
;   postProcessing,,
;   defaultSpeed,2000
;   outlineUnderspeed,0.8
;   solidInfillUnderspeed,0.9
;   supportUnderspeed,1
;   rapidXYspeed,9000
;   rapidZspeed,1002
;   minBridgingArea,50
;   bridgingExtraInflation,0
;   bridgingExtrusionMultiplier,0.9
;   bridgingSpeedMultiplier,1
;   useFixedBridgingAngle,0
;   fixedBridgingAngle,0
;   applyBridgingToPerimeters,0
;   filamentDiameters,1.75|1.75|1.75|1.75|1.75|1.75
;   filamentPricesPerKg,46|46|46|46|46|46
;   filamentDensities,1.25|1.25|1.25|1.25|1.25|1.25
;   useMinPrintHeight,0
;   minPrintHeight,0
;   useMaxPrintHeight,0
;   maxPrintHeight,0
;   useDiaphragm,0
;   diaphragmLayerInterval,20
;   robustSlicing,1
;   mergeAllIntoSolid,0
;   onlyRetractWhenCrossingOutline,0
;   retractBetweenLayers,1
;   useRetractionMinTravel,1
;   retractionMinTravel,3
;   retractWhileWiping,1
;   onlyWipeOutlines,1
;   avoidCrossingOutline,1
;   maxMovementDetourFactor,3
;   toolChangeRetractionDistance,12
;   toolChangeExtraRestartDistance,-0.5
;   toolChangeRetractionSpeed,600
;   externalThinWallType,0
;   internalThinWallType,2
;   thinWallAllowedOverlapPercentage,15
;   singleExtrusionMinLength,1
;   singleExtrusionMinPrintingWidthPercentage,50
;   singleExtrusionMaxPrintingWidthPercentage,200
;   singleExtrusionEndpointExtension,0.2
;   horizontalSizeCompensation,0
G90
M82
M106 S0
M140 S85
M190 S85
M104 S240 T0
M109 S240 T0
G28 ; home all axes
M117 Purging Extruder...
M204 P500 T1000
M205 X10 Y10 ; set jerk x/y=10
G1 Z1.0 F3000 ; lift Z
G1 X0.2 Y25 Z0.2 F3000.0 ; move to start-line position
G92 E0 ; reset extruder
G1 X0.2 Y150.0 F1000.0 E15 ; draw 1st line
G1 X0.7 Y150.0 F3000.0 ; move to side 0.5mm
G1 X0.7 Y50 F1000.0 E30 ; draw 2nd line
G1 X0.7 Y25 F5000.0 ; quick wipe
M117 Printing!
; Default S3D CR-10 Startup
; G28 ; home all axes
; G1 Z5 F3000 ; lift
; G1 X20 Y2 F1500 ; avoid binder clips
; G1 Z0.2 F3000 ; get ready to prime
; G92 E0 ; reset extrusion distance
; G1 X120 E10 F600 ; prime nozzle
; G1 X150 F5000 ; quick wipe
G92 E0
G1 E-6.5000 F3600
G1 Z0.390 F1002
; process grill
; layer 1, Z = 0.390
T0
; tool H0.390 W0.576
; inner perimeter
G1 X91.751 Y141.142 F9000
G1 E-0.2000 F1080
G92 E0
G1 X89.960 Y140.685 E0.1709 F1080
G1 X88.193 Y140.141 E0.3418
G1 X86.457 Y139.508 E0.5127
G1 X84.753 Y138.790 E0.6836
G1 X83.088 Y137.988 E0.8545
G1 X81.464 Y137.104 E1.0254
G1 X79.887 Y136.141 E1.1963
G1 X78.360 Y135.099 E1.3672
G1 X76.887 Y133.983 E1.5382
G1 X75.471 Y132.795 E1.7091
G1 X74.116 Y131.538 E1.8800
G1 X72.825 Y130.215 E2.0509
G1 X71.602 Y128.829 E2.2218
G1 X70.449 Y127.384 E2.3927
G1 X69.371 Y125.883 E2.5636
G1 X68.368 Y124.330 E2.7345
G1 X67.443 Y122.729 E2.9054
G1 X66.600 Y121.084 E3.0763
G1 X65.840 Y119.400 E3.2472
G1 X65.165 Y117.679 E3.4181
G1 X64.576 Y115.927 E3.5890
G1 X64.075 Y114.148 E3.7599
G1 X63.664 Y112.345 E3.9308
G1 X63.343 Y110.525 E4.1017
G1 X63.113 Y108.691 E4.2726
G1 X63.082 Y108.275 E4.3112
G1 X70.363 Y108.275 E4.9844
G1 X70.363 Y101.725 E5.5900
G1 X63.082 Y101.725 E6.2632
G1 X63.113 Y101.309 E6.3018
G1 X63.343 Y99.475 E6.4727
G1 X63.664 Y97.655 E6.6436
G1 X64.075 Y95.852 E6.8145
G1 X64.576 Y94.073 E6.9854
G1 X65.165 Y92.321 E7.1563
G1 X65.840 Y90.600 E7.3272
G1 X66.600 Y88.915 E7.4981
G1 X67.443 Y87.271 E7.6690
G1 X68.368 Y85.670 E7.8399
G1 X69.370 Y84.117 E8.0108
G1 X70.450 Y82.616 E8.1817
G1 X71.602 Y81.171 E8.3526
G1 X72.825 Y79.785 E8.5235
G1 X74.116 Y78.462 E8.6944
G1 X75.471 Y77.205 E8.8653
G1 X76.887 Y76.017 E9.0362
G1 X78.360 Y74.901 E9.2072
G1 X79.887 Y73.859 E9.3781
G1 X81.465 Y72.896 E9.5490
G1 X83.088 Y72.012 E9.7199
G1 X84.753 Y71.210 E9.8908
G1 X86.456 Y70.492 E10.0617
G1 X88.193 Y69.859 E10.2326
G1 X89.960 Y69.315 E10.4035
G1 X91.751 Y68.858 E10.5744
G1 X93.563 Y68.492 E10.7453
G1 X95.390 Y68.217 E10.9162
G1 X97.230 Y68.033 E11.0871
G1 X99.076 Y67.941 E11.2580
G1 X100.924 Y67.941 E11.4289
G1 X102.770 Y68.033 E11.5998
G1 X104.610 Y68.217 E11.7707
G1 X106.437 Y68.492 E11.9416
G1 X108.249 Y68.858 E12.1125
G1 X110.040 Y69.315 E12.2834
G1 X111.807 Y69.859 E12.4544
G1 X113.544 Y70.492 E12.6253
G1 X115.247 Y71.210 E12.7962
G1 X116.912 Y72.012 E12.9671
G1 X118.535 Y72.896 E13.1380
G1 X120.113 Y73.859 E13.3089
G1 X121.640 Y74.901 E13.4798
G1 X123.113 Y76.017 E13.6507
G1 X124.529 Y77.205 E13.8216
G1 X125.884 Y78.462 E13.9925
G1 X127.175 Y79.785 E14.1634
G1 X128.398 Y81.171 E14.3343
G1 X129.550 Y82.616 E14.5052
G1 X130.630 Y84.117 E14.6761
G1 X131.632 Y85.670 E14.8470
G1 X132.557 Y87.271 E15.0179
G1 X133.400 Y88.915 E15.1888
G1 X134.160 Y90.600 E15.3597
G1 X134.835 Y92.321 E15.5306
G1 X135.424 Y94.073 E15.7016
G1 X135.925 Y95.852 E15.8725
G1 X136.336 Y97.655 E16.0434
G1 X136.657 Y99.475 E16.2142
G1 X136.887 Y101.309 E16.3852
G1 X136.918 Y101.725 E16.4237
G1 X129.637 Y101.725 E17.0969
G1 X129.637 Y108.275 E17.7025
G1 X136.918 Y108.275 E18.3757
G1 X136.887 Y108.691 E18.4143
G1 X136.657 Y110.525 E18.5852
G1 X136.336 Y112.345 E18.7561
G1 X135.925 Y114.148 E18.9270
G1 X135.424 Y115.927 E19.0979
G1 X134.835 Y117.679 E19.2688
G1 X134.160 Y119.400 E19.4397
G1 X133.400 Y121.085 E19.6107
G1 X132.557 Y122.729 E19.7815
G1 X131.632 Y124.330 E19.9525
G1 X130.629 Y125.883 E20.1234
G1 X129.551 Y127.384 E20.2943
G1 X128.398 Y128.829 E20.4652
G1 X127.175 Y130.215 E20.6361
G1 X125.884 Y131.538 E20.8070
G1 X124.529 Y132.795 E20.9779
G1 X123.113 Y133.983 E21.1488
G1 X121.640 Y135.099 E21.3197
G1 X120.113 Y136.141 E21.4906
G1 X118.536 Y137.104 E21.6615
G1 X116.912 Y137.988 E21.8324
G1 X115.247 Y138.790 E22.0033
G1 X113.543 Y139.508 E22.1742
G1 X111.807 Y140.141 E22.3451
G1 X110.040 Y140.685 E22.5160
G1 X108.249 Y141.142 E22.6869
G1 X106.437 Y141.508 E22.8578
G1 X104.610 Y141.783 E23.0287
G1 X102.770 Y141.967 E23.1996
G1 X100.924 Y142.059 E23.3706
G1 X99.076 Y142.059 E23.5415
G1 X97.230 Y141.967 E23.7124
G1 X95.390 Y141.783 E23.8833
G1 X93.563 Y141.508 E24.0542
G1 X91.947 Y141.181 E24.2066
G1 X91.751 Y141.142 F1080
G1 X91.623 Y141.703 F9000
G92 E0
G1 X89.804 Y141.240 E0.1736 F1080
G1 X88.010 Y140.687 E0.3471
G1 X86.246 Y140.045 E0.5207
G1 X84.516 Y139.316 E0.6942
G1 X82.825 Y138.501 E0.8678
G1 X81.177 Y137.603 E1.0414
G1 X79.575 Y136.625 E1.2149
G1 X78.024 Y135.567 E1.3885
G1 X76.527 Y134.434 E1.5621
G1 X75.089 Y133.227 E1.7356
G1 X73.713 Y131.950 E1.9092
G1 X72.403 Y130.607 E2.0827
G1 X71.161 Y129.199 E2.2563
G1 X69.990 Y127.732 E2.4299
G1 X68.894 Y126.207 E2.6034
G1 X67.876 Y124.631 E2.7770
G1 X66.937 Y123.005 E2.9505
G1 X66.081 Y121.335 E3.1241
G1 X65.309 Y119.623 E3.2977
G1 X64.623 Y117.876 E3.4712
G1 X64.025 Y116.097 E3.6448
G1 X63.517 Y114.290 E3.8184
G1 X63.099 Y112.460 E3.9919
G1 X62.773 Y110.611 E4.1655
G1 X62.540 Y108.749 E4.3390
G1 X62.461 Y107.699 E4.4363
G1 X69.787 Y107.699 E5.1137
G1 X69.787 Y105.336 E5.3322
G1 X62.361 Y105.336 E6.0187
G1 X62.353 Y105.000 E6.0498
G1 X62.361 Y104.664 E6.0809
G1 X69.787 Y104.664 E6.7675
G1 X69.787 Y102.301 E6.9859
G1 X62.461 Y102.301 E7.6633
G1 X62.540 Y101.251 E7.7606
G1 X62.773 Y99.389 E7.9341
G1 X63.099 Y97.540 E8.1077
G1 X63.517 Y95.710 E8.2812
G1 X64.025 Y93.903 E8.4548
G1 X64.623 Y92.124 E8.6284
G1 X65.309 Y90.377 E8.8019
G1 X66.081 Y88.665 E8.9755
G1 X66.937 Y86.995 E9.1491
G1 X67.876 Y85.369 E9.3226
G1 X68.894 Y83.793 E9.4962
G1 X69.990 Y82.269 E9.6697
G1 X71.161 Y80.801 E9.8433
G1 X72.403 Y79.393 E10.0169
G1 X73.713 Y78.050 E10.1904
G1 X75.089 Y76.773 E10.3640
G1 X76.527 Y75.566 E10.5375
G1 X78.024 Y74.433 E10.7111
G1 X79.575 Y73.375 E10.8847
G1 X81.176 Y72.397 E11.0582
G1 X82.825 Y71.499 E11.2318
G1 X84.516 Y70.684 E11.4054
G1 X86.246 Y69.955 E11.5789
G1 X88.010 Y69.313 E11.7525
G1 X89.804 Y68.760 E11.9260
G1 X91.623 Y68.297 E12.0996
G1 X93.462 Y67.925 E12.2731
G1 X95.319 Y67.645 E12.4467
G1 X97.187 Y67.458 E12.6203
G1 X99.061 Y67.365 E12.7938
G1 X100.939 Y67.365 E12.9674
G1 X102.813 Y67.458 E13.1410
G1 X104.681 Y67.645 E13.3145
G1 X106.537 Y67.925 E13.4881
G1 X108.377 Y68.297 E13.6616
G1 X110.196 Y68.760 E13.8352
G1 X111.990 Y69.313 E14.0088
G1 X113.754 Y69.955 E14.1823
G1 X115.484 Y70.684 E14.3559
G1 X117.175 Y71.499 E14.5295
G1 X118.824 Y72.397 E14.7030
G1 X120.425 Y73.375 E14.8766
G1 X121.976 Y74.433 E15.0501
G1 X123.473 Y75.566 E15.2237
G1 X124.910 Y76.773 E15.3973
G1 X126.287 Y78.050 E15.5708
G1 X127.597 Y79.393 E15.7444
G1 X128.839 Y80.801 E15.9180
G1 X130.010 Y82.268 E16.0915
G1 X131.106 Y83.793 E16.2651
G1 X132.124 Y85.369 E16.4386
G1 X133.063 Y86.995 E16.6122
G1 X133.919 Y88.665 E16.7857
G1 X134.691 Y90.377 E16.9593
G1 X135.377 Y92.124 E17.1329
G1 X135.975 Y93.903 E17.3064
G1 X136.483 Y95.710 E17.4800
G1 X136.901 Y97.540 E17.6536
G1 X137.227 Y99.389 E17.8271
G1 X137.460 Y101.252 E18.0007
G1 X137.539 Y102.301 E18.0980
G1 X130.213 Y102.301 E18.7753
G1 X130.213 Y104.664 E18.9938
G1 X137.639 Y104.664 E19.6804
G1 X137.647 Y105.000 E19.7114
G1 X137.639 Y105.336 E19.7425
G1 X130.213 Y105.336 E20.4291
G1 X130.213 Y107.699 E20.6476
G1 X137.539 Y107.699 E21.3249
G1 X137.460 Y108.748 E21.4222
G1 X137.227 Y110.611 E21.5958
G1 X136.901 Y112.460 E21.7693
G1 X136.483 Y114.290 E21.9429
G1 X135.975 Y116.097 E22.1165
G1 X135.377 Y117.876 E22.2900
G1 X134.691 Y119.623 E22.4636
G1 X133.919 Y121.335 E22.6371
G1 X133.063 Y123.005 E22.8107
G1 X132.124 Y124.631 E22.9843
G1 X131.106 Y126.207 E23.1578
G1 X130.010 Y127.732 E23.3314
G1 X128.839 Y129.199 E23.5049
G1 X127.597 Y130.607 E23.6785
G1 X126.287 Y131.950 E23.8520
G1 X124.910 Y133.227 E24.0256
G1 X123.473 Y134.434 E24.1992
G1 X121.976 Y135.567 E24.3727
G1 X120.425 Y136.625 E24.5463
G1 X118.823 Y137.603 E24.7199
G1 X117.175 Y138.501 E24.8934
G1 X115.484 Y139.316 E25.0670
G1 X113.754 Y140.045 E25.2406
G1 X111.990 Y140.687 E25.4141
G1 X110.196 Y141.240 E25.5877
G1 X108.377 Y141.703 E25.7612
G1 X106.538 Y142.075 E25.9348
G1 X104.681 Y142.355 E26.1084
G1 X102.813 Y142.542 E26.2819
G1 X100.939 Y142.635 E26.4555
G1 X99.061 Y142.635 E26.6291
G1 X97.187 Y142.542 E26.8026
G1 X95.319 Y142.355 E26.9762
G1 X93.462 Y142.075 E27.1497
G1 X91.819 Y141.743 E27.3048
G1 X91.623 Y141.703 F1080
; outer perimeter
G1 X91.494 Y142.265 F9000
G92 E0
G1 X89.648 Y141.795 E0.1762 F960
G1 X87.826 Y141.233 E0.3524
G1 X86.035 Y140.581 E0.5286
G1 X84.279 Y139.841 E0.7049
G1 X82.562 Y139.014 E0.8811
G1 X80.888 Y138.102 E1.0573
G1 X79.262 Y137.109 E1.2335
G1 X77.687 Y136.035 E1.4097
G1 X76.168 Y134.884 E1.5860
G1 X74.708 Y133.659 E1.7622
G1 X73.311 Y132.363 E1.9384
G1 X71.980 Y130.998 E2.1146
G1 X70.719 Y129.570 E2.2908
G1 X69.531 Y128.079 E2.4670
G1 X68.418 Y126.532 E2.6433
G1 X67.384 Y124.931 E2.8195
G1 X66.431 Y123.280 E2.9957
G1 X65.562 Y121.584 E3.1719
G1 X64.778 Y119.847 E3.3481
G1 X64.082 Y118.073 E3.5244
G1 X63.475 Y116.267 E3.7005
G1 X62.959 Y114.432 E3.8768
G1 X62.534 Y112.574 E4.0530
G1 X62.204 Y110.697 E4.2292
G1 X61.967 Y108.806 E4.4054
G1 X61.824 Y106.905 E4.5816
G1 X61.777 Y105.000 E4.7579
