; G-Code generated by Simplify3D(R) Version 3.1.1
; Oct 17, 2018 at 4:37:17 PM
; Settings Summary
;   processName,Process1
;   applyToModels,08 - T Track x 6,08 - T Track x 6(2),08 - T Track x 6(3),08 - T Track x 6(4),08 - T Track x 6(4)(2),08 - T Track x 6(4)(3)
;   profileName,Travis_Fletchers_Ultimate_PETG_Profile_v2 (modified)
;   profileVersion,2017-10-07 13:44:38
;   baseProfile,Creality CR-10
;   printMaterial,PETG
;   printQuality,Fast
;   printExtruders,
;   extruderName,Primary Extruder
;   extruderToolheadNumber,0
;   extruderDiameter,0.4
;   extruderAutoWidth,0
;   extruderWidth,0.4
;   extrusionMultiplier,0.99
;   extruderUseRetract,1
;   extruderRetractionDistance,6.5
;   extruderExtraRestartDistance,-0.2
;   extruderRetractionZLift,0
;   extruderRetractionSpeed,3600
;   extruderUseCoasting,1
;   extruderCoastingDistance,0.2
;   extruderUseWipe,0
;   extruderWipeDistance,4
;   primaryExtruder,0
;   layerHeight,0.3
;   topSolidLayers,3
;   bottomSolidLayers,3
;   perimeterOutlines,3
;   printPerimetersInsideOut,1
;   startPointOption,3
;   startPointOriginX,0
;   startPointOriginY,500
;   startPointOriginZ,0
;   sequentialIslands,0
;   spiralVaseMode,0
;   firstLayerHeightPercentage,130
;   firstLayerWidthPercentage,120
;   firstLayerUnderspeed,0.6
;   useRaft,0
;   raftExtruder,0
;   raftLayers,3
;   raftOffset,3
;   raftSeparationDistance,0.14
;   raftInfill,85
;   disableRaftBaseLayers,0
;   useSkirt,0
;   skirtExtruder,0
;   skirtLayers,1
;   skirtOutlines,10
;   skirtOffset,0.2
;   usePrimePillar,0
;   primePillarExtruder,999
;   primePillarWidth,12
;   primePillarLocation,7
;   primePillarSpeedMultiplier,1
;   useOozeShield,0
;   oozeShieldExtruder,999
;   oozeShieldOffset,2
;   oozeShieldOutlines,1
;   oozeShieldSidewallShape,1
;   oozeShieldSidewallAngle,30
;   oozeShieldSpeedMultiplier,1
;   infillExtruder,0
;   internalInfillPattern,Grid
;   externalInfillPattern,Rectilinear
;   infillPercentage,15
;   outlineOverlapPercentage,35
;   infillExtrusionWidthPercentage,120
;   minInfillLength,4
;   infillLayerInterval,1
;   infillAngles,0
;   overlapInfillAngles,0
;   generateSupport,1
;   supportExtruder,0
;   supportInfillPercentage,25
;   supportExtraInflation,2
;   denseSupportLayers,0
;   denseSupportInfillPercentage,60
;   supportLayerInterval,1
;   supportHorizontalPartOffset,0.3
;   supportUpperSeparationLayers,2
;   supportLowerSeparationLayers,1
;   supportType,0
;   supportGridSpacing,3.5
;   maxOverhangAngle,45
;   supportAngles,0
;   temperatureName,Heated Bed,Primary Extruder
;   temperatureNumber,0,0
;   temperatureSetpointCount,1,1
;   temperatureSetpointLayers,1,1
;   temperatureSetpointTemperatures,85,240
;   temperatureStabilizeAtStartup,1,1
;   temperatureHeatedBed,1,0
;   temperatureRelayBetweenLayers,0,0
;   temperatureRelayBetweenLoops,0,0
;   fanLayers,1,2,3
;   fanSpeeds,0,25,35
;   blipFanToFullPower,0
;   adjustSpeedForCooling,1
;   minSpeedLayerTime,20
;   minCoolingSpeedSlowdown,30
;   increaseFanForCooling,1
;   minFanLayerTime,30
;   maxCoolingFanSpeed,50
;   increaseFanForBridging,1
;   bridgingFanSpeed,100
;   use5D,1
;   relativeEdistances,0
;   allowEaxisZeroing,1
;   independentExtruderAxes,0
;   includeM10123,0
;   stickySupport,1
;   applyToolheadOffsets,0
;   gcodeXoffset,0
;   gcodeYoffset,0
;   gcodeZoffset,0
;   overrideMachineDefinition,1
;   machineTypeOverride,0
;   strokeXoverride,200
;   strokeYoverride,200
;   strokeZoverride,250
;   originOffsetXoverride,0
;   originOffsetYoverride,0
;   originOffsetZoverride,0
;   homeXdirOverride,-1
;   homeYdirOverride,-1
;   homeZdirOverride,-1
;   flipXoverride,1
;   flipYoverride,-1
;   flipZoverride,1
;   toolheadOffsets,0,0|0,0|0,0|0,0|0,0|0,0
;   overrideFirmwareConfiguration,1
;   firmwareTypeOverride,RepRap (Marlin/Repetier/Sprinter)
;   GPXconfigOverride,r2
;   baudRateOverride,115200
;   overridePrinterModels,1
;   printerModelsOverride
;   startingGcode,G28 ; home all axes,M117 Purging Extruder...,G1 Z1.0 F3000 ; lift Z,G1 X0.2 Y25 Z0.2 F3000.0 ; move to start-line position,G92 E0 ; reset extruder,G1 X0.2 Y150.0 F1000.0 E15 ; draw 1st line,G1 X0.7 Y150.0 F3000.0 ; move to side 0.5mm,G1 X0.7 Y50 F1000.0 E30 ; draw 2nd line,G1 X0.7 Y25 F5000.0 ; quick wipe,M117 Printing!,,; Default S3D CR-10 Startup,; G28 ; home all axes,; G1 Z5 F3000 ; lift,; G1 X20 Y2 F1500 ; avoid binder clips,; G1 Z0.2 F3000 ; get ready to prime,; G92 E0 ; reset extrusion distance,; G1 X120 E10 F600 ; prime nozzle,; G1 X150 F5000 ; quick wipe,
;   layerChangeGcode,
;   retractionGcode,
;   toolChangeGcode,
;   endingGcode,M117 Print Complete!,M104 S0 ; turn off extruder,M140 S0 ; turn off bed,G1 X0 Y295 F1000 ; move finished print out front,M84 ; disable motors,M106 S0 ; turn off cooling fan,,; play song,M300 S294 P200 ;D4: 294,M300 S588 P200 ;D5: 588,M300 S440 P200 ;A4: 440,M300 S392 P200 ;G4: 392,M300 S784 P200 ;G5: 784,M300 S440 P200 ;A4: 440,M300 S740 P200 ;F#5: 740,M300 S440 P200 ;A4: 440,,; Default S3D CR-10 Ending Script,; G28 X0 ; home x axis,; M106 S0 ; turn off cooling fan,; M104 S0 ; turn off extruder,; M140 S0 ; turn off bed,; M84 ; disable motors,
;   exportFileFormat,gcode
;   celebration,0
;   celebrationSong,Star Wars
;   postProcessing,
;   defaultSpeed,1500
;   outlineUnderspeed,0.8
;   solidInfillUnderspeed,0.9
;   supportUnderspeed,1
;   rapidXYspeed,9000
;   rapidZspeed,1002
;   minBridgingArea,50
;   bridgingExtraInflation,0
;   bridgingExtrusionMultiplier,0.9
;   bridgingSpeedMultiplier,1
;   filamentDiameter,1.75
;   filamentPricePerKg,46
;   filamentDensity,1.25
;   useMinPrintHeight,0
;   minPrintHeight,0
;   useMaxPrintHeight,0
;   maxPrintHeight,0
;   useDiaphragm,0
;   diaphragmLayerInterval,20
;   robustSlicing,1
;   mergeAllIntoSolid,0
;   onlyRetractWhenCrossingOutline,0
;   retractBetweenLayers,1
;   useRetractionMinTravel,1
;   retractionMinTravel,3
;   retractWhileWiping,1
;   onlyWipeOutlines,1
;   avoidCrossingOutline,1
;   maxMovementDetourFactor,3
;   toolChangeRetractionDistance,12
;   toolChangeExtraRestartDistance,-0.5
;   toolChangeRetractionSpeed,600
;   allowThinWallGapFill,1
;   thinWallAllowedOverlapPercentage,15
;   horizontalSizeCompensation,0
G90
M82
M106 S0
M140 S85
M190 S85
M104 S240 T0
M109 S240 T0
G28 ; home all axes
M117 Purging Extruder...
G1 Z1.0 F3000 ; lift Z
G1 X0.2 Y25 Z0.2 F3000.0 ; move to start-line position
G92 E0 ; reset extruder
G1 X0.2 Y150.0 F1000.0 E15 ; draw 1st line
G1 X0.7 Y150.0 F3000.0 ; move to side 0.5mm
G1 X0.7 Y50 F1000.0 E30 ; draw 2nd line
G1 X0.7 Y25 F5000.0 ; quick wipe
M117 Printing!
; Default S3D CR-10 Startup
; G28 ; home all axes
; G1 Z5 F3000 ; lift
; G1 X20 Y2 F1500 ; avoid binder clips
; G1 Z0.2 F3000 ; get ready to prime
; G92 E0 ; reset extrusion distance
; G1 X120 E10 F600 ; prime nozzle
; G1 X150 F5000 ; quick wipe
G92 E0
G1 E-6.5000 F3600
G1 Z0.390 F1002
; layer 1, Z = 0.39
T0
; tool H0.390 W0.480
; inner perimeter
; inner perimeter
; outer perimeter
G1 X28.257 Y51.338 F9000
G1 E-0.2000 F1080
G92 E0
G1 X171.986 Y51.338 E11.0743 F720
G1 X171.986 Y52.458 E11.1606
G1 X28.257 Y52.458 E22.2349
G1 X28.257 Y51.538 E22.3058
G1 X28.257 Y51.338 F720
; gap fill
G1 X29.062 Y52.142 F9000
G92 E0
G1 X28.575 Y51.655 E0.0530 F810
G1 X29.254 Y51.655 E0.1053
G1 X29.740 Y52.142 E0.1583
G1 X30.419 Y52.142 E0.2106
G1 X29.933 Y51.655 E0.2636
G1 X30.612 Y51.655 E0.3159
G1 X31.098 Y52.142 E0.3689
G1 X31.777 Y52.142 E0.4212
G1 X31.291 Y51.655 E0.4742
G1 X31.969 Y51.655 E0.5265
G1 X32.456 Y52.142 E0.5795
G1 X33.135 Y52.142 E0.6318
G1 X32.648 Y51.655 E0.6848
G1 X33.327 Y51.655 E0.7371
G1 X33.813 Y52.142 E0.7901
G1 X34.492 Y52.142 E0.8424
G1 X34.006 Y51.655 E0.8954
G1 X34.685 Y51.655 E0.9478
G1 X35.171 Y52.142 E1.0008
G1 X35.850 Y52.142 E1.0531
G1 X35.363 Y51.655 E1.1061
G1 X36.042 Y51.655 E1.1584
G1 X36.529 Y52.142 E1.2114
G1 X37.208 Y52.142 E1.2637
G1 X36.721 Y51.655 E1.3167
G1 X37.400 Y51.655 E1.3690
G1 X37.886 Y52.142 E1.4220
G1 X38.565 Y52.142 E1.4743
G1 X38.079 Y51.655 E1.5273
G1 X38.758 Y51.655 E1.5796
G1 X39.244 Y52.142 E1.6326
G1 X39.923 Y52.142 E1.6849
G1 X39.436 Y51.655 E1.7379
G1 X40.115 Y51.655 E1.7902
G1 X40.602 Y52.142 E1.8432
G1 X41.280 Y52.142 E1.8955
G1 X40.794 Y51.655 E1.9485
G1 X41.473 Y51.655 E2.0008
G1 X41.959 Y52.142 E2.0538
G1 X42.638 Y52.142 E2.1061
G1 X42.152 Y51.655 E2.1591
G1 X42.831 Y51.655 E2.2114
G1 X43.317 Y52.142 E2.2644
G1 X43.996 Y52.142 E2.3167
G1 X43.509 Y51.655 E2.3697
G1 X44.188 Y51.655 E2.4220
G1 X44.675 Y52.142 E2.4750
G1 X45.353 Y52.142 E2.5273
G1 X44.867 Y51.655 E2.5803
G1 X45.546 Y51.655 E2.6326
G1 X46.032 Y52.142 E2.6856
G1 X46.711 Y52.142 E2.7379
G1 X46.225 Y51.655 E2.7909
G1 X46.903 Y51.655 E2.8433
G1 X47.390 Y52.142 E2.8963
G1 X48.069 Y52.142 E2.9486
G1 X47.582 Y51.655 E3.0016
G1 X48.261 Y51.655 E3.0539
G1 X48.748 Y52.142 E3.1069
G1 X49.426 Y52.142 E3.1592
G1 X48.940 Y51.655 E3.2122
G1 X49.619 Y51.655 E3.2645
G1 X50.105 Y52.142 E3.3175
G1 X50.784 Y52.142 E3.3698
G1 X50.298 Y51.655 E3.4228
G1 X50.976 Y51.655 E3.4751
G1 X51.463 Y52.142 E3.5281
G1 X52.142 Y52.142 E3.5804
G1 X51.655 Y51.655 E3.6334
G1 X52.334 Y51.655 E3.6857
G1 X52.820 Y52.142 E3.7387
G1 X53.499 Y52.142 E3.7910
G1 X53.013 Y51.655 E3.8440
G1 X53.692 Y51.655 E3.8963
G1 X54.178 Y52.142 E3.9493
G1 X54.857 Y52.142 E4.0016
G1 X54.371 Y51.655 E4.0546
G1 X55.049 Y51.655 E4.1069
G1 X55.536 Y52.142 E4.1599
G1 X56.215 Y52.142 E4.2122
G1 X55.728 Y51.655 E4.2652
G1 X56.407 Y51.655 E4.3175
G1 X56.893 Y52.142 E4.3705
G1 X57.572 Y52.142 E4.4228
G1 X57.086 Y51.655 E4.4758
G1 X57.765 Y51.655 E4.5281
G1 X58.251 Y52.142 E4.5811
G1 X58.930 Y52.142 E4.6334
G1 X58.443 Y51.655 E4.6864
G1 X59.122 Y51.655 E4.7388
G1 X59.609 Y52.142 E4.7918
G1 X60.288 Y52.142 E4.8441
G1 X59.801 Y51.655 E4.8971
G1 X60.480 Y51.655 E4.9494
G1 X60.966 Y52.142 E5.0024
G1 X61.645 Y52.142 E5.0547
G1 X61.159 Y51.655 E5.1077
G1 X61.838 Y51.655 E5.1600
G1 X62.324 Y52.142 E5.2130
G1 X63.003 Y52.142 E5.2653
G1 X62.516 Y51.655 E5.3183
G1 X63.195 Y51.655 E5.3706
G1 X63.682 Y52.142 E5.4236
G1 X64.360 Y52.142 E5.4759
G1 X63.874 Y51.655 E5.5289
G1 X64.553 Y51.655 E5.5812
G1 X65.039 Y52.142 E5.6342
G1 X65.718 Y52.142 E5.6865
G1 X65.232 Y51.655 E5.7395
G1 X65.910 Y51.655 E5.7918
G1 X66.397 Y52.142 E5.8448
G1 X67.076 Y52.142 E5.8971
G1 X66.589 Y51.655 E5.9501
G1 X67.268 Y51.655 E6.0024
G1 X67.755 Y52.142 E6.0554
G1 X68.433 Y52.142 E6.1077
G1 X67.947 Y51.655 E6.1607
G1 X68.626 Y51.655 E6.2130
G1 X69.112 Y52.142 E6.2660
G1 X69.791 Y52.142 E6.3183
G1 X69.305 Y51.655 E6.3713
G1 X69.983 Y51.655 E6.4236
G1 X70.470 Y52.142 E6.4766
G1 X71.149 Y52.142 E6.5289
G1 X70.662 Y51.655 E6.5819
G1 X71.341 Y51.655 E6.6343
G1 X71.827 Y52.142 E6.6873
G1 X72.506 Y52.142 E6.7396
G1 X72.020 Y51.655 E6.7926
G1 X72.699 Y51.655 E6.8449
G1 X73.185 Y52.142 E6.8979
G1 X73.864 Y52.142 E6.9502
G1 X73.378 Y51.655 E7.0032
G1 X74.056 Y51.655 E7.0555
G1 X74.543 Y52.142 E7.1085
G1 X75.222 Y52.142 E7.1608
G1 X74.735 Y51.655 E7.2138
G1 X75.414 Y51.655 E7.2661
G1 X75.900 Y52.142 E7.3191
G1 X76.579 Y52.142 E7.3714
G1 X76.093 Y51.655 E7.4244
G1 X76.772 Y51.655 E7.4767
G1 X77.258 Y52.142 E7.5297
G1 X77.937 Y52.142 E7.5820
G1 X77.450 Y51.655 E7.6350
G1 X78.129 Y51.655 E7.6873
G1 X78.616 Y52.142 E7.7403
G1 X79.295 Y52.142 E7.7926
G1 X78.808 Y51.655 E7.8456
G1 X79.487 Y51.655 E7.8979
G1 X79.973 Y52.142 E7.9509
G1 X80.652 Y52.142 E8.0032
G1 X80.166 Y51.655 E8.0562
G1 X80.845 Y51.655 E8.1085
G1 X81.331 Y52.142 E8.1615
G1 X82.010 Y52.142 E8.2138
G1 X81.523 Y51.655 E8.2668
G1 X82.202 Y51.655 E8.3191
G1 X82.689 Y52.142 E8.3721
G1 X83.367 Y52.142 E8.4244
G1 X82.881 Y51.655 E8.4775
G1 X83.560 Y51.655 E8.5298
G1 X84.046 Y52.142 E8.5828
G1 X84.725 Y52.142 E8.6351
G1 X84.239 Y51.655 E8.6881
G1 X84.918 Y51.655 E8.7404
G1 X85.404 Y52.142 E8.7934
G1 X86.083 Y52.142 E8.8457
G1 X85.596 Y51.655 E8.8987
G1 X86.275 Y51.655 E8.9510
G1 X86.762 Y52.142 E9.0040
G1 X87.440 Y52.142 E9.0563
G1 X86.954 Y51.655 E9.1093
G1 X87.633 Y51.655 E9.1616
G1 X88.119 Y52.142 E9.2146
G1 X88.798 Y52.142 E9.2669
G1 X88.312 Y51.655 E9.3199
G1 X88.990 Y51.655 E9.3722
G1 X89.477 Y52.142 E9.4252
G1 X90.156 Y52.142 E9.4775
G1 X89.669 Y51.655 E9.5305
G1 X90.348 Y51.655 E9.5828
G1 X90.835 Y52.142 E9.6358
G1 X91.513 Y52.142 E9.6881
G1 X91.027 Y51.655 E9.7411
G1 X91.706 Y51.655 E9.7934
G1 X92.192 Y52.142 E9.8464
G1 X92.871 Y52.142 E9.8987
G1 X92.385 Y51.655 E9.9517
G1 X93.063 Y51.655 E10.0040
G1 X93.550 Y52.142 E10.0570
G1 X94.229 Y52.142 E10.1093
G1 X93.742 Y51.655 E10.1623
G1 X94.421 Y51.655 E10.2146
G1 X94.907 Y52.142 E10.2676
G1 X95.586 Y52.142 E10.3199
G1 X95.100 Y51.655 E10.3730
G1 X95.779 Y51.655 E10.4253
G1 X96.265 Y52.142 E10.4783
G1 X96.944 Y52.142 E10.5306
G1 X96.458 Y51.655 E10.5836
G1 X97.136 Y51.655 E10.6359
G1 X97.623 Y52.142 E10.6889
G1 X98.302 Y52.142 E10.7412
G1 X97.815 Y51.655 E10.7942
G1 X98.494 Y51.655 E10.8465
G1 X98.980 Y52.142 E10.8995
G1 X99.659 Y52.142 E10.9518
G1 X99.173 Y51.655 E11.0048
G1 X99.852 Y51.655 E11.0571
G1 X100.338 Y52.142 E11.1101
G1 X101.017 Y52.142 E11.1624
G1 X100.530 Y51.655 E11.2154
G1 X101.209 Y51.655 E11.2677
G1 X101.696 Y52.142 E11.3207
G1 X102.374 Y52.142 E11.3730
G1 X101.888 Y51.655 E11.4260
G1 X102.567 Y51.655 E11.4783
G1 X103.053 Y52.142 E11.5313
G1 X103.732 Y52.142 E11.5836
G1 X103.246 Y51.655 E11.6366
G1 X103.925 Y51.655 E11.6889
G1 X104.411 Y52.142 E11.7419
G1 X105.090 Y52.142 E11.7942
G1 X104.603 Y51.655 E11.8472
G1 X105.282 Y51.655 E11.8995
G1 X105.769 Y52.142 E11.9525
G1 X106.447 Y52.142 E12.0048
G1 X105.961 Y51.655 E12.0578
G1 X106.640 Y51.655 E12.1101
G1 X107.126 Y52.142 E12.1631
G1 X107.805 Y52.142 E12.2154
G1 X107.319 Y51.655 E12.2685
G1 X107.997 Y51.655 E12.3208
G1 X108.484 Y52.142 E12.3738
G1 X109.163 Y52.142 E12.4261
G1 X108.676 Y51.655 E12.4791
G1 X109.355 Y51.655 E12.5314
G1 X109.842 Y52.142 E12.5844
G1 X110.520 Y52.142 E12.6367
G1 X110.034 Y51.655 E12.6897
G1 X110.713 Y51.655 E12.7420
G1 X111.199 Y52.142 E12.7950
G1 X111.878 Y52.142 E12.8473
G1 X111.392 Y51.655 E12.9003
G1 X112.070 Y51.655 E12.9526
G1 X112.557 Y52.142 E13.0056
G1 X113.236 Y52.142 E13.0579
G1 X112.749 Y51.655 E13.1109
G1 X113.428 Y51.655 E13.1632
G1 X113.914 Y52.142 E13.2162
G1 X114.593 Y52.142 E13.2685
G1 X114.107 Y51.655 E13.3215
G1 X114.786 Y51.655 E13.3738
G1 X115.272 Y52.142 E13.4268
G1 X115.951 Y52.142 E13.4791
G1 X115.465 Y51.655 E13.5321
G1 X116.143 Y51.655 E13.5844
G1 X116.630 Y52.142 E13.6374
G1 X117.309 Y52.142 E13.6897
G1 X116.822 Y51.655 E13.7427
G1 X117.501 Y51.655 E13.7950
G1 X117.987 Y52.142 E13.8480
G1 X118.666 Y52.142 E13.9003
G1 X118.180 Y51.655 E13.9533
G1 X118.859 Y51.655 E14.0056
G1 X119.345 Y52.142 E14.0586
G1 X120.024 Y52.142 E14.1110
G1 X119.537 Y51.655 E14.1640
G1 X120.216 Y51.655 E14.2163
G1 X120.703 Y52.142 E14.2693
G1 X121.382 Y52.142 E14.3216
G1 X120.895 Y51.655 E14.3746
G1 X121.574 Y51.655 E14.4269
G1 X122.060 Y52.142 E14.4799
G1 X122.739 Y52.142 E14.5322
G1 X122.253 Y51.655 E14.5852
G1 X122.932 Y51.655 E14.6375
G1 X123.418 Y52.142 E14.6905
G1 X124.097 Y52.142 E14.7428
G1 X123.610 Y51.655 E14.7958
G1 X124.289 Y51.655 E14.8481
G1 X124.776 Y52.142 E14.9011
G1 X125.454 Y52.142 E14.9534
G1 X124.968 Y51.655 E15.0064
G1 X125.647 Y51.655 E15.0587
G1 X126.133 Y52.142 E15.1117
G1 X126.812 Y52.142 E15.1640
G1 X126.326 Y51.655 E15.2170
G1 X127.005 Y51.655 E15.2693
G1 X127.491 Y52.142 E15.3223
G1 X128.170 Y52.142 E15.3746
G1 X127.683 Y51.655 E15.4276
G1 X128.362 Y51.655 E15.4799
G1 X128.849 Y52.142 E15.5329
G1 X129.527 Y52.142 E15.5852
G1 X129.041 Y51.655 E15.6382
G1 X129.720 Y51.655 E15.6905
G1 X130.206 Y52.142 E15.7435
G1 X130.885 Y52.142 E15.7958
G1 X130.399 Y51.655 E15.8488
G1 X131.077 Y51.655 E15.9011
G1 X131.564 Y52.142 E15.9541
G1 X132.243 Y52.142 E16.0065
G1 X131.756 Y51.655 E16.0595
G1 X132.435 Y51.655 E16.1118
G1 X132.922 Y52.142 E16.1648
G1 X133.600 Y52.142 E16.2171
G1 X133.114 Y51.655 E16.2701
G1 X133.793 Y51.655 E16.3224
G1 X134.279 Y52.142 E16.3754
G1 X134.958 Y52.142 E16.4277
G1 X134.472 Y51.655 E16.4807
G1 X135.150 Y51.655 E16.5330
G1 X135.637 Y52.142 E16.5860
G1 X136.316 Y52.142 E16.6383
G1 X135.829 Y51.655 E16.6913
