; G-Code generated by Simplify3D(R) Version 3.1.1
; Oct 15, 2018 at 10:37:09 AM
; Settings Summary
;   processName,Process2
;   applyToModels,Talos_-_Print_Ver_-_legmiddleR,Talos_-_Print_Ver_-_legmiddleL
;   profileName,Travis_Fletchers_Ultimate_PETG_Profile_v2 (modified)
;   profileVersion,2017-10-07 13:44:38
;   baseProfile,Creality CR-10
;   printMaterial,PETG
;   printQuality,Medium
;   printExtruders,
;   extruderName,Primary Extruder
;   extruderToolheadNumber,0
;   extruderDiameter,0.4
;   extruderAutoWidth,0
;   extruderWidth,0.4
;   extrusionMultiplier,0.99
;   extruderUseRetract,1
;   extruderRetractionDistance,6.5
;   extruderExtraRestartDistance,-0.2
;   extruderRetractionZLift,0
;   extruderRetractionSpeed,3600
;   extruderUseCoasting,1
;   extruderCoastingDistance,0.2
;   extruderUseWipe,0
;   extruderWipeDistance,4
;   primaryExtruder,0
;   layerHeight,0.2
;   topSolidLayers,5
;   bottomSolidLayers,5
;   perimeterOutlines,3
;   printPerimetersInsideOut,1
;   startPointOption,3
;   startPointOriginX,0
;   startPointOriginY,500
;   startPointOriginZ,0
;   sequentialIslands,0
;   spiralVaseMode,0
;   firstLayerHeightPercentage,130
;   firstLayerWidthPercentage,120
;   firstLayerUnderspeed,0.6
;   useRaft,0
;   raftExtruder,0
;   raftLayers,3
;   raftOffset,3
;   raftSeparationDistance,0.14
;   raftInfill,85
;   disableRaftBaseLayers,0
;   useSkirt,1
;   skirtExtruder,0
;   skirtLayers,1
;   skirtOutlines,10
;   skirtOffset,0.2
;   usePrimePillar,0
;   primePillarExtruder,999
;   primePillarWidth,12
;   primePillarLocation,7
;   primePillarSpeedMultiplier,1
;   useOozeShield,0
;   oozeShieldExtruder,999
;   oozeShieldOffset,2
;   oozeShieldOutlines,1
;   oozeShieldSidewallShape,1
;   oozeShieldSidewallAngle,30
;   oozeShieldSpeedMultiplier,1
;   infillExtruder,0
;   internalInfillPattern,Grid
;   externalInfillPattern,Rectilinear
;   infillPercentage,30
;   outlineOverlapPercentage,35
;   infillExtrusionWidthPercentage,120
;   minInfillLength,4
;   infillLayerInterval,1
;   infillAngles,0
;   overlapInfillAngles,0
;   generateSupport,1
;   supportExtruder,0
;   supportInfillPercentage,30
;   supportExtraInflation,2
;   denseSupportLayers,0
;   denseSupportInfillPercentage,60
;   supportLayerInterval,1
;   supportHorizontalPartOffset,0.3
;   supportUpperSeparationLayers,2
;   supportLowerSeparationLayers,1
;   supportType,0
;   supportGridSpacing,3.5
;   maxOverhangAngle,45
;   supportAngles,0
;   temperatureName,Heated Bed,Primary Extruder
;   temperatureNumber,0,0
;   temperatureSetpointCount,1,1
;   temperatureSetpointLayers,1,1
;   temperatureSetpointTemperatures,85,240
;   temperatureStabilizeAtStartup,1,1
;   temperatureHeatedBed,1,0
;   temperatureRelayBetweenLayers,0,0
;   temperatureRelayBetweenLoops,0,0
;   fanLayers,1,2,3
;   fanSpeeds,0,25,35
;   blipFanToFullPower,0
;   adjustSpeedForCooling,1
;   minSpeedLayerTime,20
;   minCoolingSpeedSlowdown,30
;   increaseFanForCooling,1
;   minFanLayerTime,30
;   maxCoolingFanSpeed,50
;   increaseFanForBridging,1
;   bridgingFanSpeed,100
;   use5D,1
;   relativeEdistances,0
;   allowEaxisZeroing,1
;   independentExtruderAxes,0
;   includeM10123,0
;   stickySupport,1
;   applyToolheadOffsets,0
;   gcodeXoffset,0
;   gcodeYoffset,0
;   gcodeZoffset,0
;   overrideMachineDefinition,1
;   machineTypeOverride,0
;   strokeXoverride,200
;   strokeYoverride,200
;   strokeZoverride,300
;   originOffsetXoverride,0
;   originOffsetYoverride,0
;   originOffsetZoverride,0
;   homeXdirOverride,-1
;   homeYdirOverride,-1
;   homeZdirOverride,-1
;   flipXoverride,1
;   flipYoverride,-1
;   flipZoverride,1
;   toolheadOffsets,0,0|0,0|0,0|0,0|0,0|0,0
;   overrideFirmwareConfiguration,1
;   firmwareTypeOverride,RepRap (Marlin/Repetier/Sprinter)
;   GPXconfigOverride,r2
;   baudRateOverride,115200
;   overridePrinterModels,1
;   printerModelsOverride
;   startingGcode,G28 ; home all axes,M117 Purging Extruder...,G1 Z1.0 F3000 ; lift Z,G1 X0.2 Y25 Z0.2 F3000.0 ; move to start-line position,G92 E0 ; reset extruder,G1 X0.2 Y150.0 F1000.0 E15 ; draw 1st line,G1 X0.7 Y150.0 F3000.0 ; move to side 0.5mm,G1 X0.7 Y50 F1000.0 E30 ; draw 2nd line,G1 X0.7 Y25 F5000.0 ; quick wipe,M117 Printing!,,; Default S3D CR-10 Startup,; G28 ; home all axes,; G1 Z5 F3000 ; lift,; G1 X20 Y2 F1500 ; avoid binder clips,; G1 Z0.2 F3000 ; get ready to prime,; G92 E0 ; reset extrusion distance,; G1 X120 E10 F600 ; prime nozzle,; G1 X150 F5000 ; quick wipe,
;   layerChangeGcode,
;   retractionGcode,
;   toolChangeGcode,
;   endingGcode,M117 Print Complete!,M104 S0 ; turn off extruder,M140 S0 ; turn off bed,G1 X0 Y295 F1000 ; move finished print out front,M84 ; disable motors,M106 S0 ; turn off cooling fan,,; play song,M300 S294 P200 ;D4: 294,M300 S588 P200 ;D5: 588,M300 S440 P200 ;A4: 440,M300 S392 P200 ;G4: 392,M300 S784 P200 ;G5: 784,M300 S440 P200 ;A4: 440,M300 S740 P200 ;F#5: 740,M300 S440 P200 ;A4: 440,,; Default S3D CR-10 Ending Script,; G28 X0 ; home x axis,; M106 S0 ; turn off cooling fan,; M104 S0 ; turn off extruder,; M140 S0 ; turn off bed,; M84 ; disable motors,
;   exportFileFormat,gcode
;   celebration,0
;   celebrationSong,Star Wars
;   postProcessing,
;   defaultSpeed,1500
;   outlineUnderspeed,0.8
;   solidInfillUnderspeed,0.9
;   supportUnderspeed,1
;   rapidXYspeed,9000
;   rapidZspeed,1002
;   minBridgingArea,50
;   bridgingExtraInflation,0
;   bridgingExtrusionMultiplier,0.9
;   bridgingSpeedMultiplier,1
;   filamentDiameter,1.75
;   filamentPricePerKg,46
;   filamentDensity,1.25
;   useMinPrintHeight,0
;   minPrintHeight,0
;   useMaxPrintHeight,0
;   maxPrintHeight,0
;   useDiaphragm,0
;   diaphragmLayerInterval,20
;   robustSlicing,1
;   mergeAllIntoSolid,0
;   onlyRetractWhenCrossingOutline,0
;   retractBetweenLayers,1
;   useRetractionMinTravel,1
;   retractionMinTravel,3
;   retractWhileWiping,1
;   onlyWipeOutlines,1
;   avoidCrossingOutline,1
;   maxMovementDetourFactor,3
;   toolChangeRetractionDistance,12
;   toolChangeExtraRestartDistance,-0.5
;   toolChangeRetractionSpeed,600
;   allowThinWallGapFill,1
;   thinWallAllowedOverlapPercentage,15
;   horizontalSizeCompensation,0
G90
M82
M106 S0
M140 S85
M190 S85
M104 S240 T0
M109 S240 T0
G28 ; home all axes
M117 Purging Extruder...
G1 Z1.0 F3000 ; lift Z
G1 X0.2 Y25 Z0.2 F3000.0 ; move to start-line position
G92 E0 ; reset extruder
G1 X0.2 Y150.0 F1000.0 E15 ; draw 1st line
G1 X0.7 Y150.0 F3000.0 ; move to side 0.5mm
G1 X0.7 Y50 F1000.0 E30 ; draw 2nd line
G1 X0.7 Y25 F5000.0 ; quick wipe
M117 Printing!
; Default S3D CR-10 Startup
; G28 ; home all axes
; G1 Z5 F3000 ; lift
; G1 X20 Y2 F1500 ; avoid binder clips
; G1 Z0.2 F3000 ; get ready to prime
; G92 E0 ; reset extrusion distance
; G1 X120 E10 F600 ; prime nozzle
; G1 X150 F5000 ; quick wipe
G92 E0
G1 E-6.5000 F3600
G1 Z0.260 F1002
; layer 1, Z = 0.26
T0
; tool H0.260 W0.480
; skirt
G1 X76.469 Y89.191 F9000
G1 E-0.2000 F1080
G92 E0
G1 X77.821 Y88.591 E0.0760 F900
G1 X87.375 Y88.275 E0.5670
G1 X88.826 Y88.839 E0.6470
G1 X90.061 Y90.049 E0.7358
G1 X90.655 Y91.489 E0.8158
G1 X90.583 Y97.052 E1.1016
G1 X90.554 Y101.123 E1.3107
G1 X90.017 Y102.460 E1.3847
G1 X88.919 Y103.623 E1.4669
G1 X87.614 Y104.236 E1.5409
G1 X78.157 Y104.844 E2.0277
G1 X76.674 Y104.312 E2.1086
G1 X75.399 Y103.116 E2.1984
G1 X74.773 Y101.671 E2.2794
G1 X74.773 Y91.741 E2.7894
G1 X75.328 Y90.370 E2.8654
G1 X76.329 Y89.334 E2.9394
G1 X76.469 Y89.191 F900
G92 E0
G1 E-6.5000 F3600
G1 X98.321 Y88.860 F9000
G1 E-0.2000 F3600
G92 E0
G1 X98.846 Y87.234 E0.0878 F900
G1 X99.852 Y86.068 E0.1669
G1 X110.501 Y80.808 E0.7770
G1 X111.972 Y80.697 E0.8528
G1 X113.532 Y81.193 E0.9369
G1 X114.668 Y82.134 E1.0127
G1 X119.390 Y90.865 E1.5225
G1 X119.528 Y92.431 E1.6033
G1 X118.979 Y94.087 E1.6929
G1 X117.933 Y95.261 E1.7736
G1 X107.081 Y100.302 E2.3883
G1 X105.623 Y100.382 E2.4633
G1 X104.088 Y99.866 E2.5465
G1 X102.975 Y98.922 E2.6214
G1 X98.455 Y90.394 E3.1172
G1 X98.338 Y89.060 E3.1860
G1 X98.321 Y88.860 F900
G1 X98.726 Y88.906 F9000
G92 E0
G1 X99.201 Y87.434 E0.0795 F900
G1 X100.102 Y86.391 E0.1502
G1 X110.609 Y81.201 E0.7522
G1 X111.925 Y81.101 E0.8200
G1 X113.337 Y81.551 E0.8961
G1 X114.353 Y82.392 E0.9639
G1 X118.999 Y90.983 E1.4656
G1 X119.122 Y92.384 E1.5378
G1 X118.625 Y93.883 E1.6189
G1 X117.689 Y94.933 E1.6912
G1 X106.982 Y99.906 E2.2976
G1 X105.678 Y99.979 E2.3647
G1 X104.288 Y99.512 E2.4400
G1 X103.293 Y98.666 E2.5071
G1 X98.847 Y90.279 E2.9947
G1 X98.744 Y89.105 E3.0552
G1 X98.726 Y88.906 F900
G92 E0
G1 E-6.5000 F3600
G1 X90.254 Y91.565 F9000
G1 E-0.2000 F3600
G92 E0
G1 X90.183 Y97.049 E0.2817 F900
G1 X90.155 Y101.044 E0.4869
G1 X89.674 Y102.241 E0.5532
G1 X88.680 Y103.293 E0.6275
G1 X87.513 Y103.841 E0.6937
G1 X78.214 Y104.440 E1.1724
G1 X76.888 Y103.964 E1.2448
G1 X75.733 Y102.881 E1.3261
G1 X75.173 Y101.588 E1.3985
G1 X75.173 Y91.819 E1.9003
G1 X75.669 Y90.592 E1.9683
G1 X76.702 Y89.525 E2.0446
G1 X77.912 Y88.988 E2.1125
G1 X87.307 Y88.677 E2.5954
G1 X88.605 Y89.182 E2.6670
G1 X89.722 Y90.277 E2.7473
G1 X90.177 Y91.381 E2.8086
G1 X90.254 Y91.566 F900
G1 X89.853 Y91.642 F9000
G92 E0
G1 X89.783 Y97.045 E0.2775 F900
G1 X89.755 Y100.966 E0.4789
G1 X89.331 Y102.021 E0.5374
G1 X88.442 Y102.963 E0.6039
G1 X87.412 Y103.447 E0.6624
G1 X78.271 Y104.035 E1.1329
G1 X77.101 Y103.615 E1.1967
G1 X76.067 Y102.646 E1.2695
G1 X75.573 Y101.505 E1.3334
G1 X75.573 Y91.897 E1.8270
G1 X76.011 Y90.814 E1.8869
G1 X76.935 Y89.859 E1.9552
G1 X78.003 Y89.385 E2.0152
G1 X87.238 Y89.080 E2.4899
G1 X88.384 Y89.526 E2.5530
G1 X89.384 Y90.506 E2.6249
G1 X89.776 Y91.457 E2.6778
G1 X89.853 Y91.642 F900
G92 E0
G1 E-6.5000 F3600
G1 X99.238 Y90.163 F9000
G1 E-0.2000 F3600
G92 E0
G1 X99.132 Y88.952 E0.0624 F900
G1 X99.557 Y87.634 E0.1336
G1 X100.352 Y86.714 E0.1960
G1 X110.716 Y81.594 E0.7899
G1 X111.878 Y81.506 E0.8497
G1 X113.141 Y81.908 E0.9178
G1 X114.039 Y82.651 E0.9776
G1 X118.608 Y91.100 E1.4710
G1 X118.716 Y92.336 E1.5348
G1 X118.271 Y93.678 E1.6074
G1 X117.446 Y94.605 E1.6711
G1 X106.883 Y99.511 E2.2694
G1 X105.733 Y99.575 E2.3286
G1 X104.489 Y99.157 E2.3960
G1 X103.610 Y98.411 E2.4552
G1 X99.332 Y90.340 E2.9244
G1 X99.238 Y90.163 F900
G1 X99.629 Y90.047 F9000
G92 E0
G1 X99.537 Y88.998 E0.0541 F900
G1 X99.913 Y87.834 E0.1169
G1 X100.601 Y87.036 E0.1711
G1 X110.824 Y81.987 E0.7567
G1 X111.830 Y81.911 E0.8086
G1 X112.946 Y82.266 E0.8687
G1 X113.724 Y82.910 E0.9206
G1 X118.216 Y91.218 E1.4057
G1 X118.311 Y92.289 E1.4610
G1 X117.918 Y93.474 E1.5251
G1 X117.202 Y94.277 E1.5803
G1 X106.785 Y99.116 E2.1704
G1 X105.787 Y99.171 E2.2217
G1 X104.689 Y98.802 E2.2812
G1 X103.928 Y98.156 E2.3325
G1 X99.723 Y90.224 E2.7937
G1 X99.629 Y90.047 F900
G92 E0
G1 E-6.5000 F3600
G1 X89.452 Y91.719 F9000
G1 E-0.2000 F3600
G92 E0
G1 X89.383 Y97.040 E0.2734 F900
G1 X89.356 Y100.887 E0.4709
G1 X88.988 Y101.802 E0.5216
G1 X88.203 Y102.633 E0.5804
G1 X87.310 Y103.053 E0.6310
G1 X78.328 Y103.631 E1.0933
G1 X77.314 Y103.267 E1.1487
G1 X76.401 Y102.411 E1.2130
G1 X75.973 Y101.422 E1.2683
G1 X75.973 Y91.975 E1.7536
G1 X76.352 Y91.036 E1.8056
G1 X77.169 Y90.193 E1.8659
G1 X78.094 Y89.783 E1.9179
G1 X87.169 Y89.482 E2.3843
G1 X88.162 Y89.869 E2.4391
G1 X89.045 Y90.734 E2.5026
G1 X89.375 Y91.534 E2.5470
G1 X89.452 Y91.719 F900
G1 X89.051 Y91.796 F9000
G92 E0
G1 X88.983 Y97.037 E0.2693 F900
G1 X88.956 Y100.808 E0.4630
G1 X88.645 Y101.583 E0.5058
G1 X87.964 Y102.304 E0.5568
G1 X87.209 Y102.659 E0.5996
G1 X78.385 Y103.226 E1.0538
G1 X77.527 Y102.918 E1.1007
G1 X76.735 Y102.176 E1.1564
G1 X76.373 Y101.339 E1.2033
G1 X76.373 Y92.052 E1.6803
G1 X76.694 Y91.259 E1.7243
G1 X77.402 Y90.527 E1.7766
G1 X78.185 Y90.180 E1.8206
G1 X87.100 Y89.885 E2.2788
G1 X87.941 Y90.212 E2.3251
G1 X88.707 Y90.962 E2.3802
G1 X88.974 Y91.611 E2.4162
G1 X89.051 Y91.796 F900
G92 E0
G1 E-6.5000 F3600
G1 X100.021 Y89.932 F9000
G1 E-0.2000 F3600
G92 E0
G1 X99.943 Y89.043 E0.0458 F900
G1 X100.269 Y88.034 E0.1003
G1 X100.851 Y87.359 E0.1461
G1 X110.931 Y82.380 E0.7236
G1 X111.783 Y82.315 E0.7675
G1 X112.751 Y82.623 E0.8196
G1 X113.409 Y83.168 E0.8635
G1 X117.825 Y91.335 E1.3404
G1 X117.905 Y92.242 E1.3872
G1 X117.564 Y93.270 E1.4428
G1 X116.959 Y93.949 E1.4895
G1 X106.686 Y98.721 E2.0714
G1 X105.842 Y98.768 E2.1148
G1 X104.889 Y98.448 E2.1664
G1 X104.245 Y97.901 E2.2098
G1 X100.115 Y90.108 E2.6629
G1 X100.021 Y89.932 F900
G1 X100.412 Y89.816 F9000
G92 E0
G1 X100.348 Y89.089 E0.0375 F900
G1 X100.624 Y88.234 E0.0836
G1 X101.101 Y87.682 E0.1211
G1 X111.039 Y82.773 E0.6905
G1 X111.736 Y82.720 E0.7264
G1 X112.556 Y82.981 E0.7705
G1 X113.094 Y83.427 E0.8064
G1 X117.434 Y91.453 E1.2751
G1 X117.499 Y92.194 E1.3134
G1 X117.210 Y93.065 E1.3605
G1 X116.715 Y93.621 E1.3987
G1 X106.587 Y98.326 E1.9724
G1 X105.896 Y98.364 E2.0079
G1 X105.090 Y98.093 E2.0516
G1 X104.562 Y97.645 E2.0872
G1 X100.506 Y89.993 E2.5321
G1 X100.412 Y89.816 F900
G92 E0
G1 E-6.5000 F3600
G1 X88.650 Y91.873 F9000
G1 E-0.2000 F3600
G92 E0
G1 X88.583 Y97.033 E0.2651 F900
G1 X88.557 Y100.729 E0.4550
G1 X88.302 Y101.363 E0.4900
G1 X87.725 Y101.974 E0.5332
G1 X87.107 Y102.264 E0.5683
G1 X78.442 Y102.822 E1.0143
G1 X77.740 Y102.570 E1.0526
G1 X77.069 Y101.941 E1.0999
G1 X76.773 Y101.256 E1.1382
G1 X76.773 Y92.130 E1.6069
G1 X77.036 Y91.481 E1.6429
G1 X77.635 Y90.861 E1.6872
G1 X78.276 Y90.577 E1.7232
G1 X87.032 Y90.287 E2.1732
G1 X87.719 Y90.555 E2.2111
G1 X88.368 Y91.191 E2.2578
G1 X88.573 Y91.688 E2.2854
G1 X88.650 Y91.873 F900
G1 X88.248 Y91.949 F9000
G92 E0
G1 X88.183 Y97.028 E0.2609 F900
G1 X88.157 Y100.651 E0.4470
G1 X87.959 Y101.144 E0.4743
G1 X87.487 Y101.644 E0.5096
G1 X87.006 Y101.870 E0.5369
G1 X78.499 Y102.417 E0.9748
G1 X77.953 Y102.221 E1.0046
G1 X77.403 Y101.706 E1.0433
G1 X77.173 Y101.173 E1.0731
G1 X77.173 Y92.208 E1.5336
G1 X77.377 Y91.703 E1.5616
G1 X77.869 Y91.195 E1.5979
G1 X78.367 Y90.974 E1.6259
G1 X86.963 Y90.690 E2.0677
G1 X87.498 Y90.898 E2.0972
G1 X88.030 Y91.419 E2.1354
G1 X88.172 Y91.765 E2.1546
G1 X88.249 Y91.949 F900
G92 E0
G1 E-6.5000 F3600
G1 X100.804 Y89.700 F9000
G1 E-0.2000 F3600
G92 E0
G1 X100.754 Y89.135 E0.0291 F900
G1 X100.980 Y88.434 E0.0670
G1 X101.351 Y88.005 E0.0961
G1 X111.147 Y83.166 E0.6573
G1 X111.689 Y83.125 E0.6852
G1 X112.360 Y83.339 E0.7215
G1 X112.779 Y83.685 E0.7494
G1 X117.043 Y91.570 E1.2098
G1 X117.093 Y92.147 E1.2396
G1 X116.857 Y92.861 E1.2782
G1 X116.471 Y93.293 E1.3079
G1 X106.488 Y97.931 E1.8734
G1 X105.951 Y97.961 E1.9010
G1 X105.290 Y97.738 E1.9368
G1 X104.880 Y97.390 E1.9645
G1 X100.897 Y89.877 E2.4013
G1 X100.804 Y89.700 F900
G1 X101.195 Y89.584 F9000
G92 E0
G1 X101.160 Y89.181 E0.0208 F900
G1 X101.336 Y88.634 E0.0503
G1 X101.601 Y88.327 E0.0711
G1 X111.254 Y83.559 E0.6242
G1 X111.641 Y83.530 E0.6441
G1 X112.165 Y83.696 E0.6724
G1 X112.464 Y83.944 E0.6923
G1 X116.651 Y91.688 E1.1445
G1 X116.688 Y92.100 E1.1658
G1 X116.503 Y92.656 E1.1959
G1 X116.228 Y92.965 E1.2171
G1 X106.389 Y97.536 E1.7744
G1 X106.006 Y97.557 E1.7941
G1 X105.490 Y97.384 E1.8221
G1 X105.197 Y97.135 E1.8418
G1 X101.289 Y89.761 E2.2705
G1 X101.195 Y89.584 F900
G92 E0
G1 E-6.5000 F3600
G1 X87.847 Y92.026 F9000
G1 E-0.2000 F3600
G92 E0
G1 X87.783 Y97.025 E0.2568 F900
G1 X87.758 Y100.572 E0.4390
G1 X87.617 Y100.924 E0.4585
G1 X87.248 Y101.314 E0.4861
G1 X86.905 Y101.476 E0.5055
G1 X78.557 Y102.013 E0.9352
G1 X78.166 Y101.873 E0.9565
G1 X77.738 Y101.471 E0.9867
G1 X77.573 Y101.090 E1.0080
G1 X77.573 Y92.286 E1.4603
G1 X77.719 Y91.925 E1.4803
G1 X78.102 Y91.529 E1.5086
G1 X78.458 Y91.371 E1.5286
G1 X86.894 Y91.092 E1.9622
G1 X87.276 Y91.241 E1.9832
G1 X87.691 Y91.647 E2.0131
G1 X87.771 Y91.841 E2.0238
G1 X87.847 Y92.026 F900
G1 X87.446 Y92.103 F9000
G92 E0
G1 X87.383 Y97.021 E0.2526 F900
G1 X87.358 Y100.493 E0.4310
G1 X87.274 Y100.705 E0.4427
G1 X87.009 Y100.985 E0.4625
G1 X86.803 Y101.081 E0.4742
G1 X78.614 Y101.608 E0.8957
G1 X78.379 Y101.524 E0.9085
G1 X78.072 Y101.236 E0.9302
G1 X77.973 Y101.007 E0.9430
G1 X77.973 Y92.364 E1.3869
G1 X78.060 Y92.147 E1.3989
G1 X78.335 Y91.863 E1.4193
G1 X78.549 Y91.769 E1.4312
G1 X86.826 Y91.495 E1.8566
G1 X87.055 Y91.584 E1.8693
G1 X87.353 Y91.876 E1.8907
