; G-Code generated by Simplify3D(R) Version 3.1.1
; Oct 12, 2018 at 11:22:10 PM
; Settings Summary
;   processName,Process1
;   applyToModels,Talos_-_Print_Ver_-_legupperL,Talos_-_Print_Ver_-_legupperR
;   profileName,PriestsProfileV4 (modified)
;   profileVersion,2018-04-01 22:18:39
;   baseProfile,Creality CR-10
;   printMaterial,
;   printQuality,
;   printExtruders,
;   extruderName,Primary Extruder
;   extruderToolheadNumber,0
;   extruderDiameter,0.4
;   extruderAutoWidth,0
;   extruderWidth,0.4
;   extrusionMultiplier,0.95
;   extruderUseRetract,1
;   extruderRetractionDistance,6
;   extruderExtraRestartDistance,-0.1
;   extruderRetractionZLift,0.12
;   extruderRetractionSpeed,3600
;   extruderUseCoasting,1
;   extruderCoastingDistance,0.12
;   extruderUseWipe,0
;   extruderWipeDistance,3
;   primaryExtruder,0
;   layerHeight,0.2
;   topSolidLayers,5
;   bottomSolidLayers,5
;   perimeterOutlines,3
;   printPerimetersInsideOut,1
;   startPointOption,3
;   startPointOriginX,0
;   startPointOriginY,300
;   startPointOriginZ,0
;   sequentialIslands,0
;   spiralVaseMode,0
;   firstLayerHeightPercentage,90
;   firstLayerWidthPercentage,120
;   firstLayerUnderspeed,0.5
;   useRaft,0
;   raftExtruder,0
;   raftLayers,3
;   raftOffset,3
;   raftSeparationDistance,0.14
;   raftInfill,85
;   disableRaftBaseLayers,0
;   useSkirt,1
;   skirtExtruder,0
;   skirtLayers,1
;   skirtOutlines,2
;   skirtOffset,5
;   usePrimePillar,0
;   primePillarExtruder,999
;   primePillarWidth,12
;   primePillarLocation,7
;   primePillarSpeedMultiplier,1
;   useOozeShield,0
;   oozeShieldExtruder,999
;   oozeShieldOffset,2
;   oozeShieldOutlines,1
;   oozeShieldSidewallShape,1
;   oozeShieldSidewallAngle,30
;   oozeShieldSpeedMultiplier,1
;   infillExtruder,0
;   internalInfillPattern,Triangular
;   externalInfillPattern,Rectilinear
;   infillPercentage,25
;   outlineOverlapPercentage,20
;   infillExtrusionWidthPercentage,100
;   minInfillLength,5
;   infillLayerInterval,1
;   infillAngles,0
;   overlapInfillAngles,0
;   generateSupport,1
;   supportExtruder,0
;   supportInfillPercentage,30
;   supportExtraInflation,0
;   denseSupportLayers,0
;   denseSupportInfillPercentage,70
;   supportLayerInterval,1
;   supportHorizontalPartOffset,0.4
;   supportUpperSeparationLayers,3
;   supportLowerSeparationLayers,3
;   supportType,0
;   supportGridSpacing,3.5
;   maxOverhangAngle,45
;   supportAngles,0
;   temperatureName,Heated Bed,Primary Extruder
;   temperatureNumber,0,0
;   temperatureSetpointCount,1,2
;   temperatureSetpointLayers,1,1,2
;   temperatureSetpointTemperatures,65,210,200
;   temperatureStabilizeAtStartup,1,1
;   temperatureHeatedBed,1,0
;   temperatureRelayBetweenLayers,0,0
;   temperatureRelayBetweenLoops,0,0
;   fanLayers,1,2,3,4,5
;   fanSpeeds,0,0,30,60,100
;   blipFanToFullPower,0
;   adjustSpeedForCooling,1
;   minSpeedLayerTime,15
;   minCoolingSpeedSlowdown,20
;   increaseFanForCooling,1
;   minFanLayerTime,30
;   maxCoolingFanSpeed,80
;   increaseFanForBridging,1
;   bridgingFanSpeed,100
;   use5D,1
;   relativeEdistances,0
;   allowEaxisZeroing,1
;   independentExtruderAxes,0
;   includeM10123,0
;   stickySupport,1
;   applyToolheadOffsets,0
;   gcodeXoffset,0
;   gcodeYoffset,0
;   gcodeZoffset,0
;   overrideMachineDefinition,1
;   machineTypeOverride,0
;   strokeXoverride,200
;   strokeYoverride,200
;   strokeZoverride,300
;   originOffsetXoverride,0
;   originOffsetYoverride,0
;   originOffsetZoverride,0
;   homeXdirOverride,-1
;   homeYdirOverride,-1
;   homeZdirOverride,-1
;   flipXoverride,1
;   flipYoverride,-1
;   flipZoverride,1
;   toolheadOffsets,0,0|0,0|0,0|0,0|0,0|0,0
;   overrideFirmwareConfiguration,1
;   firmwareTypeOverride,RepRap (Marlin/Repetier/Sprinter)
;   GPXconfigOverride,r2
;   baudRateOverride,115200
;   overridePrinterModels,1
;   printerModelsOverride
;   startingGcode,M117 Here We Go!!!,G28 ; home all axes,M204 P500 S700  T1000,M205 X10 Y10 ; set jerk x/y=10,M117 Purging Extruder...,G1 Z1.0 F3000 ; lift Z,G1 X0.2 Y25 Z0.2 F3000.0 ; move to start-line position,G92 E0 ; reset extruder,G1 X0.2 Y150.0 F1000.0 E15 ; draw 1st line,G1 X0.7 Y150.0 F3000.0 ; move to side 0.5mm,G1 X0.7 Y50 F1000.0 E30 ; draw 2nd line,G1 X0.7 Y25 F5000.0 ; quick wipe,M117 Printing...,,; Default S3D CR-10 Startup,; G28 ; home all axes,; G1 Z5 F3000 ; lift,; G1 X20 Y2 F1500 ; avoid binder clips,; G1 Z0.2 F3000 ; get ready to prime,; G92 E0 ; reset extrusion distance,; G1 X120 E10 F600 ; prime nozzle,; G1 X150 F5000 ; quick wipe,
;   layerChangeGcode,
;   retractionGcode,
;   toolChangeGcode,
;   endingGcode,M104 S0 ; turn off extruder,M140 S0 ; turn off bed,G1 X0 Y295 F1000 ; move finished print out front,M84 ; disable motors,M106 S0 ; turn off cooling fan,,; play song,M300 S294 P200 ;D4: 294,M300 S588 P200 ;D5: 588,M300 S440 P200 ;A4: 440,M300 S392 P200 ;G4: 392,M300 S784 P200 ;G5: 784,M300 S440 P200 ;A4: 440,M300 S740 P200 ;F#5: 740,M300 S440 P200 ;A4: 440,M117 Print Complete!!,,; Default S3D CR-10 Ending Script,; G28 X0 ; home x axis,; M106 S0 ; turn off cooling fan,; M104 S0 ; turn off extruder,; M140 S0 ; turn off bed,; M84 ; disable motors,
;   exportFileFormat,gcode
;   celebration,0
;   celebrationSong,Star Wars
;   postProcessing,
;   defaultSpeed,2700
;   outlineUnderspeed,0.8
;   solidInfillUnderspeed,0.8
;   supportUnderspeed,0.8
;   rapidXYspeed,3400
;   rapidZspeed,800
;   minBridgingArea,50
;   bridgingExtraInflation,0
;   bridgingExtrusionMultiplier,0.9
;   bridgingSpeedMultiplier,1.4
;   filamentDiameter,1.75
;   filamentPricePerKg,46
;   filamentDensity,1.25
;   useMinPrintHeight,0
;   minPrintHeight,0
;   useMaxPrintHeight,0
;   maxPrintHeight,0
;   useDiaphragm,0
;   diaphragmLayerInterval,25
;   robustSlicing,1
;   mergeAllIntoSolid,0
;   onlyRetractWhenCrossingOutline,0
;   retractBetweenLayers,0
;   useRetractionMinTravel,1
;   retractionMinTravel,2
;   retractWhileWiping,1
;   onlyWipeOutlines,1
;   avoidCrossingOutline,1
;   maxMovementDetourFactor,3
;   toolChangeRetractionDistance,12
;   toolChangeExtraRestartDistance,-0.5
;   toolChangeRetractionSpeed,600
;   allowThinWallGapFill,1
;   thinWallAllowedOverlapPercentage,15
;   horizontalSizeCompensation,0
G90
M82
M106 S0
M140 S65
M190 S65
M104 S210 T0
M109 S210 T0
M117 Here We Go!!!
G28 ; home all axes
M204 P500 S700  T1000
M205 X10 Y10 ; set jerk x/y=10
M117 Purging Extruder...
G1 Z1.0 F3000 ; lift Z
G1 X0.2 Y25 Z0.2 F3000.0 ; move to start-line position
G92 E0 ; reset extruder
G1 X0.2 Y150.0 F1000.0 E15 ; draw 1st line
G1 X0.7 Y150.0 F3000.0 ; move to side 0.5mm
G1 X0.7 Y50 F1000.0 E30 ; draw 2nd line
G1 X0.7 Y25 F5000.0 ; quick wipe
M117 Printing...
; Default S3D CR-10 Startup
; G28 ; home all axes
; G1 Z5 F3000 ; lift
; G1 X20 Y2 F1500 ; avoid binder clips
; G1 Z0.2 F3000 ; get ready to prime
; G92 E0 ; reset extrusion distance
; G1 X120 E10 F600 ; prime nozzle
; G1 X150 F5000 ; quick wipe
G92 E0
G1 E-6.0000 F3600
G1 Z0.300 F800
; layer 1, Z = 0.18
T0
; tool H0.200 W0.480
; skirt
G1 X86.098 Y107.613 F3400
G1 Z0.180 F800
G1 E-0.1000 F1080
G92 E0
G1 X86.378 Y107.501 E0.0114 F1350
G1 X89.740 Y107.877 E0.1397
G1 X89.779 Y107.884 E0.1412
G1 X90.453 Y108.050 E0.1675
G1 X90.491 Y108.062 E0.1690
G1 X92.439 Y108.824 E0.2483
G1 X92.474 Y108.841 E0.2498
G1 X93.082 Y109.176 E0.2762
G1 X93.116 Y109.197 E0.2777
G1 X94.800 Y110.438 E0.3570
G1 X94.830 Y110.463 E0.3585
G1 X95.331 Y110.945 E0.3848
G1 X95.357 Y110.974 E0.3863
G1 X96.663 Y112.608 E0.4656
G1 X96.686 Y112.640 E0.4671
G1 X97.045 Y113.235 E0.4935
G1 X97.063 Y113.270 E0.4950
G1 X97.901 Y115.187 E0.5743
G1 X97.914 Y115.224 E0.5758
G1 X98.107 Y115.891 E0.6021
G1 X98.115 Y115.929 E0.6036
G1 X98.429 Y117.997 E0.6829
G1 X98.432 Y118.036 E0.6844
G1 X98.445 Y118.731 E0.7107
G1 X98.444 Y118.770 E0.7122
G1 X98.211 Y120.849 E0.7915
G1 X98.204 Y120.888 E0.7930
G1 X98.037 Y121.562 E0.8194
G1 X98.025 Y121.600 E0.8209
G1 X97.262 Y123.548 E0.9002
G1 X97.245 Y123.583 E0.9017
G1 X96.909 Y124.192 E0.9280
G1 X96.888 Y124.225 E0.9295
G1 X95.646 Y125.909 E1.0089
G1 X95.620 Y125.939 E1.0104
G1 X95.139 Y126.439 E1.0367
G1 X95.110 Y126.466 E1.0382
G1 X92.529 Y128.527 E1.1634
G1 X92.235 Y128.581 E1.1748
G1 X86.868 Y126.891 E1.3881
G1 X86.658 Y126.677 E1.3995
G1 X84.643 Y119.843 E1.6696
G1 X84.632 Y119.784 E1.6719
G1 X84.603 Y119.452 E1.6845
G1 X84.436 Y119.133 E1.6982
G1 X84.415 Y119.079 E1.7004
G1 X82.398 Y112.251 E1.9703
G1 X82.460 Y111.955 E1.9818
G1 X86.021 Y107.705 E2.1920
G1 X86.098 Y107.613 F1350
G92 E0
G1 E-6.0000 F3600
G1 Z0.300 F800
G1 X100.898 Y114.973 F3400
G1 Z0.180 F800
G1 E-0.1000 F3600
G92 E0
G1 X101.785 Y113.079 E0.0793 F1350
G1 X101.804 Y113.044 E0.0808
G1 X102.178 Y112.459 E0.1071
G1 X102.202 Y112.427 E0.1086
G1 X103.549 Y110.828 E0.1879
G1 X103.576 Y110.799 E0.1894
G1 X104.089 Y110.331 E0.2158
G1 X104.120 Y110.306 E0.2173
G1 X105.835 Y109.109 E0.2966
G1 X105.869 Y109.089 E0.2981
G1 X106.486 Y108.769 E0.3244
G1 X106.522 Y108.754 E0.3259
G1 X108.488 Y108.042 E0.4052
G1 X108.526 Y108.031 E0.4067
G1 X109.205 Y107.882 E0.4330
G1 X109.244 Y107.876 E0.4345
G1 X111.328 Y107.697 E0.5138
G1 X111.367 Y107.697 E0.5153
G1 X112.061 Y107.728 E0.5417
G1 X112.100 Y107.733 E0.5432
G1 X114.159 Y108.100 E0.6225
G1 X114.198 Y108.109 E0.6240
G1 X114.859 Y108.319 E0.6503
G1 X114.896 Y108.333 E0.6518
G1 X118.317 Y109.936 E0.7950
G1 X118.496 Y110.172 E0.8062
G1 X119.416 Y115.633 E1.0162
G1 X119.324 Y115.914 E1.0274
G1 X114.493 Y120.616 E1.2831
G1 X114.408 Y120.674 E1.2870
G1 X113.564 Y121.060 E1.3221
G1 X113.114 Y121.937 E1.3595
G1 X113.056 Y122.016 E1.3632
G1 X108.181 Y126.765 E1.6213
G1 X107.886 Y126.848 E1.6329
G1 X102.277 Y125.561 E1.8511
G1 X102.048 Y125.358 E1.8627
G1 X100.608 Y121.381 E2.0231
G1 X100.597 Y121.343 E2.0246
G1 X100.448 Y120.665 E2.0509
G1 X100.442 Y120.626 E2.0524
G1 X100.263 Y118.542 E2.1317
G1 X100.262 Y118.503 E2.1332
G1 X100.293 Y117.809 E2.1595
G1 X100.298 Y117.770 E2.1610
G1 X100.664 Y115.710 E2.2403
G1 X100.674 Y115.672 E2.2418
G1 X100.859 Y115.087 E2.2651
G1 X100.884 Y115.010 F1350
G1 X100.898 Y114.973 F1350
G1 X101.266 Y115.131 F3400
G92 E0
G1 X102.142 Y113.260 E0.0783 F1350
G1 X102.148 Y113.249 E0.0788
G1 X102.508 Y112.686 E0.1042
G1 X102.516 Y112.675 E0.1047
G1 X103.846 Y111.095 E0.1830
G1 X103.855 Y111.086 E0.1835
G1 X104.349 Y110.635 E0.2088
G1 X104.359 Y110.627 E0.2093
G1 X106.053 Y109.445 E0.2876
G1 X106.064 Y109.438 E0.2881
G1 X106.658 Y109.130 E0.3135
G1 X106.670 Y109.125 E0.3140
G1 X108.612 Y108.422 E0.3923
G1 X108.625 Y108.419 E0.3928
G1 X109.278 Y108.275 E0.4181
G1 X109.291 Y108.273 E0.4186
G1 X111.349 Y108.097 E0.4969
G1 X111.362 Y108.097 E0.4974
G1 X112.030 Y108.127 E0.5228
G1 X112.043 Y108.129 E0.5233
G1 X114.076 Y108.491 E0.6016
G1 X114.089 Y108.494 E0.6021
G1 X114.726 Y108.696 E0.6274
G1 X114.738 Y108.701 E0.6279
G1 X118.058 Y110.257 E0.7670
G1 X118.118 Y110.335 E0.7707
G1 X119.005 Y115.603 E0.9732
G1 X118.974 Y115.696 E0.9770
G1 X114.238 Y120.305 E1.2275
G1 X114.210 Y120.325 E1.2288
G1 X113.271 Y120.754 E1.2680
G1 X112.773 Y121.726 E1.3094
G1 X112.753 Y121.752 E1.3106
G1 X107.975 Y126.408 E1.5636
G1 X107.877 Y126.435 E1.5675
G1 X102.466 Y125.194 E1.7779
G1 X102.390 Y125.126 E1.7818
G1 X100.989 Y121.257 E1.9378
G1 X100.985 Y121.244 E1.9383
G1 X100.841 Y120.592 E1.9637
G1 X100.839 Y120.579 E1.9642
G1 X100.663 Y118.521 E2.0425
G1 X100.662 Y118.508 E2.0430
G1 X100.692 Y117.840 E2.0683
G1 X100.694 Y117.827 E2.0688
G1 X101.056 Y115.793 E2.1471
G1 X101.059 Y115.781 E2.1476
G1 X101.229 Y115.245 E2.1689
G1 X101.261 Y115.143 F1350
G1 X101.266 Y115.131 F1350
G92 E0
G1 E-6.0000 F3600
G1 Z0.300 F800
G1 X97.719 Y115.989 F3400
G1 Z0.180 F800
G1 E-0.1000 F3600
G92 E0
G1 X97.722 Y116.002 E0.0005 F1350
G1 X98.031 Y118.044 E0.0788
G1 X98.032 Y118.057 E0.0793
G1 X98.045 Y118.726 E0.1046
G1 X98.045 Y118.739 E0.1051
G1 X97.815 Y120.791 E0.1835
G1 X97.812 Y120.804 E0.1840
G1 X97.652 Y121.454 E0.2093
G1 X97.648 Y121.466 E0.2098
G1 X96.894 Y123.390 E0.2882
G1 X96.889 Y123.401 E0.2886
G1 X96.565 Y123.987 E0.3140
G1 X96.558 Y123.998 E0.3145
G1 X95.331 Y125.661 E0.3929
G1 X95.323 Y125.671 E0.3934
G1 X94.860 Y126.153 E0.4187
G1 X94.850 Y126.161 E0.4192
G1 X92.358 Y128.152 E0.5401
G1 X92.259 Y128.170 E0.5439
G1 X87.083 Y126.539 E0.7497
G1 X87.013 Y126.468 E0.7535
G1 X85.032 Y119.749 E1.0191
G1 X85.029 Y119.729 E1.0199
G1 X84.994 Y119.338 E1.0347
G1 X84.800 Y118.965 E1.0507
G1 X84.793 Y118.947 E1.0514
G1 X82.810 Y112.234 E1.3168
G1 X82.831 Y112.135 E1.3206
G1 X86.340 Y107.947 E1.5278
G1 X86.433 Y107.910 E1.5316
G1 X89.683 Y108.273 E1.6556
G1 X89.696 Y108.275 E1.6561
G1 X90.345 Y108.435 E1.6814
G1 X90.357 Y108.439 E1.6819
G1 X92.281 Y109.192 E1.7603
G1 X92.292 Y109.197 E1.7608
G1 X92.878 Y109.520 E1.7861
G1 X92.889 Y109.527 E1.7866
G1 X94.552 Y110.752 E1.8649
G1 X94.562 Y110.760 E1.8654
G1 X95.044 Y111.224 E1.8908
G1 X95.053 Y111.234 E1.8913
G1 X96.342 Y112.847 E1.9696
G1 X96.350 Y112.858 E1.9701
G1 X96.696 Y113.431 E1.9955
G1 X96.702 Y113.443 E1.9960
G1 X97.529 Y115.335 E2.0743
G1 X97.533 Y115.347 E2.0748
G1 X97.686 Y115.874 E2.0956
G1 X97.719 Y115.989 F1350
G92 E0
G1 E-6.0000 F3600
G1 Z0.300 F800
; inner perimeter
; inner perimeter
G1 X89.658 Y114.500 F3400
G1 Z0.180 F800
G1 E-0.1000 F3600
G92 E0
G1 X90.696 Y115.264 E0.0489 F1170
G1 X91.449 Y116.207 E0.0946
G1 X91.933 Y117.313 E0.1404
G1 X92.114 Y118.506 E0.1861
G1 X91.979 Y119.706 E0.2319
G1 X91.530 Y120.853 E0.2786
G1 X90.896 Y118.703 E0.3636
G1 X90.915 Y118.530 E0.3702
G1 X90.781 Y117.646 E0.4041
G1 X90.423 Y116.826 E0.4380
G1 X90.290 Y116.661 E0.4461
G1 X89.850 Y115.167 E0.5051
G1 X89.692 Y114.616 E0.5269
G1 X89.658 Y114.500 F1170
; outer perimeter
G1 X88.922 Y113.719 F3400
G92 E0
G1 X89.958 Y114.125 E0.0422 F1080
G1 X91.032 Y114.915 E0.0927
G1 X91.864 Y115.957 E0.1433
G1 X92.398 Y117.179 E0.1938
G1 X92.598 Y118.497 E0.2444
G1 X92.449 Y119.822 E0.2950
G1 X91.963 Y121.064 E0.3455
G1 X91.340 Y121.908 E0.3853
G1 X90.408 Y118.745 E0.5103
G1 X90.431 Y118.539 E0.5182
G1 X90.316 Y117.780 E0.5473
G1 X90.008 Y117.077 E0.5764
G1 X89.857 Y116.887 E0.5856
G1 X89.390 Y115.302 E0.6483
G1 X89.302 Y114.996 E0.6603
G1 X88.956 Y113.834 E0.7063
G1 X88.922 Y113.719 F1080
G92 E0
G1 E-6.0000 F3600
G1 Z0.300 F800
; gap fill
G1 X90.625 Y116.420 F3400
G1 Z0.180 F800
G1 E-0.1000 F3600
G92 E0
G1 X91.501 Y117.297 E0.0470 F1080
G1 X91.556 Y117.422 E0.0522
G1 X91.665 Y118.139 E0.0797
G1 X91.175 Y117.649 E0.1059
G1 X91.296 Y118.449 E0.1366
G1 X91.685 Y118.838 E0.1575
G1 X91.617 Y119.449 E0.1808
G1 X91.566 Y119.398 E0.1835
G1 X91.481 Y119.313 F1080
G92 E0
G1 E-6.0000 F3600
G1 Z0.300 F800
; inner perimeter
; inner perimeter
G1 X108.098 Y115.236 F3400
G1 Z0.180 F800
G1 E-0.1000 F3600
G92 E0
G1 X109.088 Y114.546 E0.0458 F1170
G1 X110.223 Y114.135 E0.0915
G1 X111.426 Y114.032 E0.1373
G1 X112.077 Y114.148 E0.1624
G1 X110.927 Y115.267 E0.2232
G1 X110.481 Y115.306 E0.2402
G1 X109.639 Y115.611 E0.2741
G1 X108.905 Y116.123 E0.3081
G1 X108.330 Y116.807 E0.3420
G1 X107.951 Y117.617 E0.3759
G1 X107.833 Y118.281 E0.4014
G1 X106.680 Y119.404 E0.4625
G1 X106.598 Y118.442 E0.4991
G1 X106.809 Y117.253 E0.5448
G1 X107.321 Y116.160 E0.5906
G1 X108.021 Y115.328 E0.6318
G1 X108.098 Y115.236 F1170
; outer perimeter
G1 X107.772 Y114.879 F3400
G92 E0
G1 X108.866 Y114.116 E0.0506 F1080
G1 X110.119 Y113.662 E0.1011
G1 X111.448 Y113.548 E0.1517
G1 X112.761 Y113.783 E0.2023
G1 X113.017 Y113.903 E0.2130
G1 X111.139 Y115.731 E0.3124
G1 X110.585 Y115.778 E0.3335
G1 X109.862 Y116.040 E0.3626
G1 X109.232 Y116.480 E0.3917
G1 X108.738 Y117.068 E0.4209
G1 X108.413 Y117.763 E0.4500
G1 X108.278 Y118.517 E0.4790
G1 X106.433 Y120.315 E0.5767
G1 X106.228 Y119.749 E0.5995
G1 X106.114 Y118.420 E0.6501
G1 X106.347 Y117.107 E0.7006
G1 X106.913 Y115.899 E0.7512
G1 X107.695 Y114.971 E0.7972
G1 X107.772 Y114.879 F1080
G92 E0
G1 E-6.0000 F3600
G1 Z0.300 F800
; gap fill
G1 X111.060 Y114.454 F3400
G1 Z0.180 F800
G1 E-0.1000 F3600
G92 E0
G1 X111.132 Y114.526 E0.0039 F1080
G1 X110.788 Y114.860 E0.0221
G1 X110.434 Y114.507 E0.0410
G1 X110.308 Y114.518 E0.0458
G1 X109.910 Y114.662 E0.0618
G1 X110.231 Y114.983 E0.0790
