; G-Code generated by Simplify3D(R) Version 3.1.1
; Oct 12, 2018 at 6:30:42 PM
; Settings Summary
;   processName,Process1
;   applyToModels,Talos_-_Print_Ver_-_footL,Talos_-_Print_Ver_-_footR,Talos_-_Print_Ver_-_leglowerL,Talos_-_Print_Ver_-_leglowerR
;   profileName,PriestsProfileV4 (modified)
;   profileVersion,2018-04-01 22:18:39
;   baseProfile,Creality CR-10
;   printMaterial,
;   printQuality,
;   printExtruders,
;   extruderName,Primary Extruder
;   extruderToolheadNumber,0
;   extruderDiameter,0.4
;   extruderAutoWidth,0
;   extruderWidth,0.4
;   extrusionMultiplier,0.95
;   extruderUseRetract,1
;   extruderRetractionDistance,6
;   extruderExtraRestartDistance,-0.1
;   extruderRetractionZLift,0.12
;   extruderRetractionSpeed,3600
;   extruderUseCoasting,1
;   extruderCoastingDistance,0.12
;   extruderUseWipe,0
;   extruderWipeDistance,3
;   primaryExtruder,0
;   layerHeight,0.2
;   topSolidLayers,5
;   bottomSolidLayers,5
;   perimeterOutlines,3
;   printPerimetersInsideOut,1
;   startPointOption,3
;   startPointOriginX,0
;   startPointOriginY,300
;   startPointOriginZ,0
;   sequentialIslands,0
;   spiralVaseMode,0
;   firstLayerHeightPercentage,90
;   firstLayerWidthPercentage,120
;   firstLayerUnderspeed,0.5
;   useRaft,0
;   raftExtruder,0
;   raftLayers,3
;   raftOffset,3
;   raftSeparationDistance,0.14
;   raftInfill,85
;   disableRaftBaseLayers,0
;   useSkirt,1
;   skirtExtruder,0
;   skirtLayers,1
;   skirtOutlines,2
;   skirtOffset,5
;   usePrimePillar,0
;   primePillarExtruder,999
;   primePillarWidth,12
;   primePillarLocation,7
;   primePillarSpeedMultiplier,1
;   useOozeShield,0
;   oozeShieldExtruder,999
;   oozeShieldOffset,2
;   oozeShieldOutlines,1
;   oozeShieldSidewallShape,1
;   oozeShieldSidewallAngle,30
;   oozeShieldSpeedMultiplier,1
;   infillExtruder,0
;   internalInfillPattern,Triangular
;   externalInfillPattern,Rectilinear
;   infillPercentage,25
;   outlineOverlapPercentage,20
;   infillExtrusionWidthPercentage,100
;   minInfillLength,5
;   infillLayerInterval,1
;   infillAngles,0
;   overlapInfillAngles,0
;   generateSupport,0
;   supportExtruder,0
;   supportInfillPercentage,30
;   supportExtraInflation,0
;   denseSupportLayers,0
;   denseSupportInfillPercentage,70
;   supportLayerInterval,1
;   supportHorizontalPartOffset,0.4
;   supportUpperSeparationLayers,3
;   supportLowerSeparationLayers,3
;   supportType,0
;   supportGridSpacing,3.5
;   maxOverhangAngle,45
;   supportAngles,0
;   temperatureName,Heated Bed,Primary Extruder
;   temperatureNumber,0,0
;   temperatureSetpointCount,1,2
;   temperatureSetpointLayers,1,1,2
;   temperatureSetpointTemperatures,65,210,200
;   temperatureStabilizeAtStartup,1,1
;   temperatureHeatedBed,1,0
;   temperatureRelayBetweenLayers,0,0
;   temperatureRelayBetweenLoops,0,0
;   fanLayers,1,2,3,4,5
;   fanSpeeds,0,0,30,60,100
;   blipFanToFullPower,0
;   adjustSpeedForCooling,1
;   minSpeedLayerTime,15
;   minCoolingSpeedSlowdown,20
;   increaseFanForCooling,1
;   minFanLayerTime,30
;   maxCoolingFanSpeed,80
;   increaseFanForBridging,1
;   bridgingFanSpeed,100
;   use5D,1
;   relativeEdistances,0
;   allowEaxisZeroing,1
;   independentExtruderAxes,0
;   includeM10123,0
;   stickySupport,1
;   applyToolheadOffsets,0
;   gcodeXoffset,0
;   gcodeYoffset,0
;   gcodeZoffset,0
;   overrideMachineDefinition,1
;   machineTypeOverride,0
;   strokeXoverride,200
;   strokeYoverride,200
;   strokeZoverride,300
;   originOffsetXoverride,0
;   originOffsetYoverride,0
;   originOffsetZoverride,0
;   homeXdirOverride,-1
;   homeYdirOverride,-1
;   homeZdirOverride,-1
;   flipXoverride,1
;   flipYoverride,-1
;   flipZoverride,1
;   toolheadOffsets,0,0|0,0|0,0|0,0|0,0|0,0
;   overrideFirmwareConfiguration,1
;   firmwareTypeOverride,RepRap (Marlin/Repetier/Sprinter)
;   GPXconfigOverride,r2
;   baudRateOverride,115200
;   overridePrinterModels,1
;   printerModelsOverride
;   startingGcode,M117 Here We Go!!!,G28 ; home all axes,M204 P500 S700  T1000,M205 X10 Y10 ; set jerk x/y=10,M117 Purging Extruder...,G1 Z1.0 F3000 ; lift Z,G1 X0.2 Y25 Z0.2 F3000.0 ; move to start-line position,G92 E0 ; reset extruder,G1 X0.2 Y150.0 F1000.0 E15 ; draw 1st line,G1 X0.7 Y150.0 F3000.0 ; move to side 0.5mm,G1 X0.7 Y50 F1000.0 E30 ; draw 2nd line,G1 X0.7 Y25 F5000.0 ; quick wipe,M117 Printing...,,; Default S3D CR-10 Startup,; G28 ; home all axes,; G1 Z5 F3000 ; lift,; G1 X20 Y2 F1500 ; avoid binder clips,; G1 Z0.2 F3000 ; get ready to prime,; G92 E0 ; reset extrusion distance,; G1 X120 E10 F600 ; prime nozzle,; G1 X150 F5000 ; quick wipe,
;   layerChangeGcode,
;   retractionGcode,
;   toolChangeGcode,
;   endingGcode,M104 S0 ; turn off extruder,M140 S0 ; turn off bed,G1 X0 Y295 F1000 ; move finished print out front,M84 ; disable motors,M106 S0 ; turn off cooling fan,,; play song,M300 S294 P200 ;D4: 294,M300 S588 P200 ;D5: 588,M300 S440 P200 ;A4: 440,M300 S392 P200 ;G4: 392,M300 S784 P200 ;G5: 784,M300 S440 P200 ;A4: 440,M300 S740 P200 ;F#5: 740,M300 S440 P200 ;A4: 440,M117 Print Complete!!,,; Default S3D CR-10 Ending Script,; G28 X0 ; home x axis,; M106 S0 ; turn off cooling fan,; M104 S0 ; turn off extruder,; M140 S0 ; turn off bed,; M84 ; disable motors,
;   exportFileFormat,gcode
;   celebration,0
;   celebrationSong,Star Wars
;   postProcessing,
;   defaultSpeed,2700
;   outlineUnderspeed,0.8
;   solidInfillUnderspeed,0.8
;   supportUnderspeed,0.8
;   rapidXYspeed,3400
;   rapidZspeed,800
;   minBridgingArea,50
;   bridgingExtraInflation,0
;   bridgingExtrusionMultiplier,0.9
;   bridgingSpeedMultiplier,1.4
;   filamentDiameter,1.75
;   filamentPricePerKg,46
;   filamentDensity,1.25
;   useMinPrintHeight,0
;   minPrintHeight,0
;   useMaxPrintHeight,0
;   maxPrintHeight,0
;   useDiaphragm,0
;   diaphragmLayerInterval,25
;   robustSlicing,1
;   mergeAllIntoSolid,0
;   onlyRetractWhenCrossingOutline,0
;   retractBetweenLayers,0
;   useRetractionMinTravel,1
;   retractionMinTravel,2
;   retractWhileWiping,1
;   onlyWipeOutlines,1
;   avoidCrossingOutline,1
;   maxMovementDetourFactor,3
;   toolChangeRetractionDistance,12
;   toolChangeExtraRestartDistance,-0.5
;   toolChangeRetractionSpeed,600
;   allowThinWallGapFill,1
;   thinWallAllowedOverlapPercentage,15
;   horizontalSizeCompensation,0
G90
M82
M106 S0
M140 S65
M190 S65
M104 S210 T0
M109 S210 T0
M117 Here We Go!!!
G28 ; home all axes
M204 P500 S700  T1000
M205 X10 Y10 ; set jerk x/y=10
M117 Purging Extruder...
G1 Z1.0 F3000 ; lift Z
G1 X0.2 Y25 Z0.2 F3000.0 ; move to start-line position
G92 E0 ; reset extruder
G1 X0.2 Y150.0 F1000.0 E15 ; draw 1st line
G1 X0.7 Y150.0 F3000.0 ; move to side 0.5mm
G1 X0.7 Y50 F1000.0 E30 ; draw 2nd line
G1 X0.7 Y25 F5000.0 ; quick wipe
M117 Printing...
; Default S3D CR-10 Startup
; G28 ; home all axes
; G1 Z5 F3000 ; lift
; G1 X20 Y2 F1500 ; avoid binder clips
; G1 Z0.2 F3000 ; get ready to prime
; G92 E0 ; reset extrusion distance
; G1 X120 E10 F600 ; prime nozzle
; G1 X150 F5000 ; quick wipe
G92 E0
G1 E-6.0000 F3600
G1 Z0.300 F800
; layer 1, Z = 0.18
T0
; tool H0.200 W0.480
; skirt
G1 X56.508 Y48.101 F3400
G1 Z0.180 F800
G1 E-0.1000 F1080
G92 E0
G1 X56.674 Y47.910 E0.0096 F1350
G1 X64.026 Y44.455 E0.3176
G1 X64.250 Y44.439 E0.3261
G1 X68.169 Y45.655 E0.4817
G1 X68.345 Y45.794 E0.4902
G1 X75.427 Y57.879 E1.0213
G1 X76.846 Y43.964 E1.5517
G1 X76.946 Y43.765 E1.5601
G1 X79.943 Y41.040 E1.7137
G1 X80.150 Y40.960 E1.7221
G1 X88.257 Y40.907 E2.0295
G1 X88.491 Y41.010 E2.0392
G1 X89.611 Y42.242 E2.1023
G1 X90.233 Y41.449 E2.1405
G1 X90.456 Y41.330 E2.1501
G1 X98.556 Y40.718 E2.4581
G1 X98.770 Y40.783 E2.4666
G1 X102.001 Y43.314 E2.6222
G1 X102.115 Y43.507 E2.6307
G1 X104.432 Y57.321 E3.1618
G1 X110.711 Y44.822 E3.6922
G1 X110.875 Y44.673 E3.7006
G1 X114.646 Y43.193 E3.8542
G1 X114.867 Y43.191 E3.8626
G1 X122.463 Y46.028 E4.1700
G1 X122.645 Y46.207 E4.1797
G1 X124.368 Y50.599 E4.3586
G1 X124.356 Y50.854 E4.3683
G1 X116.440 Y66.613 E5.0369
G1 X116.276 Y66.762 E5.0454
G1 X115.291 Y67.149 E5.0855
G1 X115.625 Y68.001 E5.1202
G1 X115.614 Y68.257 E5.1299
G1 X112.152 Y75.148 E5.4223
G1 X111.988 Y75.297 E5.4307
G1 X108.217 Y76.777 E5.5843
G1 X107.995 Y76.779 E5.5927
G1 X101.527 Y74.362 E5.8545
G1 X95.327 Y74.831 E6.0903
G1 X95.112 Y74.766 E6.0988
G1 X91.882 Y72.235 E6.2544
G1 X91.768 Y72.042 E6.2629
G1 X90.496 Y64.457 E6.5545
G1 X90.558 Y64.212 E6.5641
G1 X91.116 Y63.501 E6.5983
G1 X90.312 Y62.871 E6.6370
G1 X90.197 Y62.678 E6.6456
G1 X90.023 Y61.636 E6.6856
G1 X89.956 Y62.288 E6.7104
G1 X89.856 Y62.486 E6.7188
G1 X89.074 Y63.197 E6.7589
G1 X89.690 Y63.875 E6.7937
G1 X89.770 Y64.118 E6.8034
G1 X88.988 Y71.790 E7.0958
G1 X88.888 Y71.988 E7.1042
G1 X85.890 Y74.713 E7.2578
G1 X85.684 Y74.794 E7.2662
G1 X78.779 Y74.838 E7.5280
G1 X73.152 Y77.483 E7.7637
G1 X72.928 Y77.498 E7.7722
G1 X69.009 Y76.283 E7.9278
G1 X68.833 Y76.144 E7.9363
G1 X64.944 Y69.508 E8.2279
G1 X64.915 Y69.257 E8.2375
G1 X65.183 Y68.394 E8.2718
G1 X64.208 Y68.092 E8.3105
G1 X64.032 Y67.952 E8.3190
G1 X55.156 Y52.806 E8.9846
G1 X55.127 Y52.555 E8.9942
G1 X56.473 Y48.216 E9.1665
G1 X56.508 Y48.101 F1350
G92 E0
G1 E-6.0000 F3600
G1 Z0.300 F800
G1 X74.454 Y81.276 F3400
G1 Z0.180 F800
G1 E-0.1000 F3600
G92 E0
G1 X82.405 Y79.469 E0.3092 F1350
G1 X82.642 Y79.511 E0.3183
G1 X86.364 Y81.881 E0.4856
G1 X86.501 Y82.078 E0.4947
G1 X88.118 Y89.550 E0.7846
G1 X88.077 Y89.784 E0.7936
G1 X87.585 Y90.555 E0.8282
G1 X88.346 Y91.039 E0.8624
G1 X88.484 Y91.236 E0.8715
G1 X89.318 Y95.090 E1.0210
G1 X89.945 Y90.962 E1.1793
G1 X90.067 Y90.758 E1.1883
G1 X90.801 Y90.212 E1.2230
G1 X90.263 Y89.489 E1.2572
G1 X90.205 Y89.256 E1.2663
G1 X91.352 Y81.698 E1.5562
G1 X91.474 Y81.494 E1.5652
G1 X94.964 Y78.897 E1.7301
G1 X95.193 Y78.839 E1.7391
G1 X103.267 Y79.981 E2.0483
G1 X103.474 Y80.104 E2.0574
G1 X106.108 Y83.644 E2.2247
G1 X106.166 Y83.877 E2.2338
G1 X105.018 Y91.435 E2.5237
G1 X104.896 Y91.638 E2.5327
G1 X104.162 Y92.184 E2.5673
G1 X104.701 Y92.908 E2.6015
G1 X104.759 Y93.141 E2.6106
G1 X102.149 Y110.325 E3.2697
G1 X102.026 Y110.528 E3.2786
G1 X98.537 Y113.125 E3.4436
G1 X98.307 Y113.183 E3.4526
G1 X90.234 Y112.041 E3.7617
G1 X90.027 Y111.918 E3.7708
G1 X89.967 Y111.837 E3.7747
G1 X89.783 Y112.126 E3.7876
G1 X89.589 Y112.262 E3.7966
G1 X85.137 Y113.273 E3.9697
G1 X99.647 Y113.275 E4.5199
G1 X99.868 Y113.366 E4.5290
G1 X102.964 Y116.457 E4.6949
G1 X103.056 Y116.677 E4.7039
G1 X103.089 Y135.892 E5.4325
G1 X103.024 Y136.082 E5.4401
G1 X100.780 Y138.960 E5.5785
G1 X100.612 Y139.069 E5.5861
G1 X77.043 Y144.947 E6.5071
G1 X74.381 Y156.593 E6.9601
G1 X74.273 Y156.766 E6.9678
G1 X71.378 Y159.074 E7.1082
G1 X71.185 Y159.141 E7.1159
G1 X61.174 Y159.141 E7.4955
G1 X60.954 Y159.049 E7.5046
G1 X57.858 Y155.958 E7.6705
G1 X57.766 Y155.738 E7.6795
G1 X57.697 Y116.688 E9.1601
G1 X57.788 Y116.467 E9.1692
G1 X60.887 Y113.363 E9.3355
G1 X61.108 Y113.271 E9.3446
G1 X70.625 Y113.272 E9.7055
G1 X72.827 Y110.039 E9.8538
G1 X73.090 Y109.900 E9.8651
G1 X77.205 Y109.900 E10.0211
G1 X73.865 Y94.473 E10.6196
G1 X73.907 Y94.239 E10.6286
G1 X74.398 Y93.468 E10.6632
G1 X73.637 Y92.983 E10.6975
G1 X73.499 Y92.786 E10.7066
G1 X71.882 Y85.314 E10.9964
G1 X71.924 Y85.081 E11.0054
G1 X74.260 Y81.412 E11.1703
G1 X74.356 Y81.345 E11.1748
G1 X74.454 Y81.276 F1350
G92 E0
G1 E-6.0000 F3600
G1 Z0.300 F800
G1 X81.129 Y85.743 F3400
G1 X81.315 Y85.701 F3400
G1 X81.357 Y85.896 F3400
G1 X118.691 Y110.884 F3400
G1 Z0.180 F800
G1 E-0.1000 F3600
G92 E0
G1 X118.968 Y110.723 E0.0122 F1350
G1 X127.498 Y110.690 E0.3356
G1 X127.784 Y110.860 E0.3482
G1 X130.785 Y116.437 E0.5883
G1 X130.769 Y116.769 E0.6009
G1 X127.918 Y121.054 E0.7961
G1 X127.797 Y121.160 E0.8022
G1 X125.213 Y122.419 E0.9112
G1 X125.056 Y122.449 E0.9172
G1 X120.472 Y122.096 E1.0916
G1 X120.333 Y122.051 E1.0971
G1 X118.117 Y120.656 E1.1964
G1 X118.015 Y120.551 E1.2019
G1 X115.661 Y116.482 E1.3802
G1 X115.661 Y116.161 E1.3923
G1 X118.631 Y110.988 E1.6185
G1 X118.691 Y110.884 F1350
G1 X118.984 Y111.176 F3400
G92 E0
G1 X119.077 Y111.122 E0.0041 F1350
G1 X127.389 Y111.091 E0.3192
G1 X127.484 Y111.147 E0.3234
G1 X130.380 Y116.529 E0.5551
G1 X130.375 Y116.639 E0.5593
G1 X127.614 Y120.788 E0.7483
G1 X127.574 Y120.823 E0.7503
G1 X125.085 Y122.036 E0.8553
G1 X125.033 Y122.046 E0.8573
G1 X120.551 Y121.701 E1.0277
G1 X120.505 Y121.686 E1.0296
G1 X118.371 Y120.344 E1.1252
G1 X118.337 Y120.309 E1.1270
G1 X116.061 Y116.375 E1.2994
G1 X116.061 Y116.268 E1.3034
G1 X118.924 Y111.280 E1.5215
G1 X118.984 Y111.176 F1350
G92 E0
G1 E-6.0000 F3600
G1 Z0.300 F800
G1 X101.765 Y110.187 F3400
G1 Z0.180 F800
G1 E-0.1000 F3600
G92 E0
G1 X101.724 Y110.254 E0.0030 F1350
G1 X98.362 Y112.756 E0.1619
G1 X98.285 Y112.776 E0.1649
G1 X90.369 Y111.656 E0.4681
G1 X90.300 Y111.615 E0.4711
G1 X89.941 Y111.132 E0.4939
G1 X89.488 Y111.844 E0.5259
G1 X89.423 Y111.890 E0.5289
G1 X83.128 Y113.320 E0.7737
G1 X83.357 Y113.673 E0.7897
G1 X99.568 Y113.675 E1.4043
G1 X99.641 Y113.705 E1.4073
G1 X102.625 Y116.684 E1.5672
G1 X102.656 Y116.757 E1.5702
G1 X102.689 Y135.825 E2.2932
G1 X102.668 Y135.889 E2.2958
G1 X100.506 Y138.661 E2.4290
G1 X100.450 Y138.697 E2.4316
G1 X76.707 Y144.618 E3.3594
G1 X74.007 Y156.438 E3.8191
G1 X73.970 Y156.496 E3.8217
G1 X71.181 Y158.719 E3.9569
G1 X71.117 Y158.741 E3.9595
G1 X61.254 Y158.741 E4.3335
G1 X61.180 Y158.710 E4.3365
G1 X58.196 Y155.731 E4.4964
G1 X58.166 Y155.658 E4.4994
G1 X58.097 Y116.767 E5.9740
G1 X58.127 Y116.694 E5.9770
G1 X61.114 Y113.702 E6.1373
G1 X61.188 Y113.671 E6.1403
G1 X70.837 Y113.672 E6.5062
G1 X73.101 Y110.346 E6.6588
G1 X73.189 Y110.300 E6.6625
G1 X77.701 Y110.300 E6.8336
G1 X74.272 Y94.465 E7.4479
G1 X74.286 Y94.387 E7.4509
G1 X74.950 Y93.346 E7.4977
G1 X73.919 Y92.689 E7.5441
G1 X73.873 Y92.623 E7.5471
G1 X72.290 Y85.307 E7.8310
G1 X72.304 Y85.229 E7.8339
G1 X74.555 Y81.694 E7.9929
G1 X74.620 Y81.648 E7.9959
G1 X82.416 Y79.877 E8.2990
G1 X82.495 Y79.891 E8.3020
G1 X86.081 Y82.175 E8.4633
G1 X86.127 Y82.241 E8.4663
G1 X87.711 Y89.558 E8.7501
G1 X87.697 Y89.635 E8.7531
G1 X87.033 Y90.677 E8.8000
G1 X88.064 Y91.334 E8.8463
G1 X88.110 Y91.399 E8.8493
G1 X89.387 Y97.299 E9.0782
G1 X90.329 Y91.100 E9.3160
G1 X90.369 Y91.032 E9.3190
G1 X91.361 Y90.294 E9.3658
G1 X90.632 Y89.315 E9.4121
G1 X90.612 Y89.237 E9.4152
G1 X91.736 Y81.836 E9.6990
G1 X91.776 Y81.768 E9.7020
G1 X95.139 Y79.266 E9.8609
G1 X95.216 Y79.246 E9.8639
G1 X103.132 Y80.366 E10.1671
G1 X103.201 Y80.407 E10.1701
G1 X105.739 Y83.818 E10.3313
G1 X105.758 Y83.896 E10.3344
G1 X104.634 Y91.297 E10.6182
G1 X104.593 Y91.365 E10.6212
G1 X103.602 Y92.102 E10.6681
G1 X104.332 Y93.083 E10.7144
G1 X104.351 Y93.160 E10.7174
G1 X101.783 Y110.068 E11.3659
G1 X101.765 Y110.187 F1350
G92 E0
G1 E-6.0000 F3600
G1 Z0.300 F800
G1 X108.065 Y76.378 F3400
G1 Z0.180 F800
G1 E-0.1000 F3600
G92 E0
G1 X101.584 Y73.957 E0.2623 F1350
G1 X95.372 Y74.427 E0.4986
G1 X95.300 Y74.405 E0.5014
G1 X92.188 Y71.966 E0.6513
G1 X92.150 Y71.902 E0.6541
G1 X90.904 Y64.474 E0.9397
G1 X90.925 Y64.392 E0.9429
G1 X91.677 Y63.433 E0.9891
G1 X90.618 Y62.603 E1.0402
G1 X90.579 Y62.538 E1.0430
G1 X89.926 Y58.641 E1.1928
G1 X89.566 Y62.173 E1.3275
G1 X89.533 Y62.239 E1.3303
G1 X88.508 Y63.170 E1.3828
G1 X89.336 Y64.081 E1.4294
G1 X89.363 Y64.162 E1.4327
G1 X88.597 Y71.676 E1.7190
G1 X88.564 Y71.742 E1.7218
G1 X85.676 Y74.367 E1.8698
G1 X85.607 Y74.394 E1.8726
G1 X78.688 Y74.439 E2.1350
G1 X73.050 Y77.089 E2.3712
G1 X72.975 Y77.094 E2.3740
G1 X69.199 Y75.923 E2.5239
G1 X69.140 Y75.877 E2.5268
G1 X65.332 Y69.379 E2.8123
G1 X65.322 Y69.295 E2.8155
G1 X65.684 Y68.130 E2.8618
G1 X64.398 Y67.732 E2.9128
G1 X64.340 Y67.685 E2.9156
G1 X55.544 Y52.677 E3.5752
G1 X55.534 Y52.593 E3.5784
G1 X56.866 Y48.300 E3.7488
G1 X56.921 Y48.236 E3.7520
G1 X64.128 Y44.849 E4.0540
G1 X64.203 Y44.844 E4.0568
G1 X67.979 Y46.015 E4.2067
G1 X68.038 Y46.061 E4.2096
G1 X75.701 Y59.138 E4.7843
G1 X77.236 Y44.078 E5.3582
G1 X77.270 Y44.012 E5.3610
G1 X80.158 Y41.386 E5.5090
G1 X80.226 Y41.359 E5.5118
G1 X88.174 Y41.308 E5.8132
G1 X88.252 Y41.342 E5.8164
G1 X89.634 Y42.862 E5.8943
G1 X90.496 Y41.762 E5.9473
G1 X90.570 Y41.723 E5.9505
