; G-Code generated by Simplify3D(R) Version 3.1.1
; Oct 22, 2018 at 11:05:06 AM
; Settings Summary
;   processName,Process1
;   applyToModels,Modified Tensioner Bushing,Modified Tensioner Bushing(2),puller_nut,tensioner_puller_R15,Y_tensioner_case
;   profileName,Travis_Fletchers_Ultimate_PETG_Profile_v2 (modified)
;   profileVersion,2017-10-07 13:44:38
;   baseProfile,Creality CR-10
;   printMaterial,PETG
;   printQuality,Fast
;   printExtruders,
;   extruderName,Primary Extruder
;   extruderToolheadNumber,0
;   extruderDiameter,0.4
;   extruderAutoWidth,0
;   extruderWidth,0.4
;   extrusionMultiplier,0.99
;   extruderUseRetract,1
;   extruderRetractionDistance,6.5
;   extruderExtraRestartDistance,-0.2
;   extruderRetractionZLift,0
;   extruderRetractionSpeed,3600
;   extruderUseCoasting,1
;   extruderCoastingDistance,0.2
;   extruderUseWipe,0
;   extruderWipeDistance,4
;   primaryExtruder,0
;   layerHeight,0.3
;   topSolidLayers,3
;   bottomSolidLayers,3
;   perimeterOutlines,3
;   printPerimetersInsideOut,1
;   startPointOption,3
;   startPointOriginX,0
;   startPointOriginY,500
;   startPointOriginZ,0
;   sequentialIslands,0
;   spiralVaseMode,0
;   firstLayerHeightPercentage,130
;   firstLayerWidthPercentage,120
;   firstLayerUnderspeed,0.6
;   useRaft,0
;   raftExtruder,0
;   raftLayers,3
;   raftOffset,3
;   raftSeparationDistance,0.14
;   raftInfill,85
;   disableRaftBaseLayers,0
;   useSkirt,0
;   skirtExtruder,0
;   skirtLayers,1
;   skirtOutlines,10
;   skirtOffset,0.2
;   usePrimePillar,0
;   primePillarExtruder,999
;   primePillarWidth,12
;   primePillarLocation,7
;   primePillarSpeedMultiplier,1
;   useOozeShield,0
;   oozeShieldExtruder,999
;   oozeShieldOffset,2
;   oozeShieldOutlines,1
;   oozeShieldSidewallShape,1
;   oozeShieldSidewallAngle,30
;   oozeShieldSpeedMultiplier,1
;   infillExtruder,0
;   internalInfillPattern,Grid
;   externalInfillPattern,Rectilinear
;   infillPercentage,15
;   outlineOverlapPercentage,35
;   infillExtrusionWidthPercentage,120
;   minInfillLength,4
;   infillLayerInterval,1
;   infillAngles,45,-45
;   overlapInfillAngles,1
;   generateSupport,1
;   supportExtruder,0
;   supportInfillPercentage,25
;   supportExtraInflation,2
;   denseSupportLayers,0
;   denseSupportInfillPercentage,60
;   supportLayerInterval,1
;   supportHorizontalPartOffset,0.3
;   supportUpperSeparationLayers,2
;   supportLowerSeparationLayers,1
;   supportType,0
;   supportGridSpacing,3.5
;   maxOverhangAngle,45
;   supportAngles,0
;   temperatureName,Heated Bed,Primary Extruder
;   temperatureNumber,0,0
;   temperatureSetpointCount,1,1
;   temperatureSetpointLayers,1,1
;   temperatureSetpointTemperatures,85,240
;   temperatureStabilizeAtStartup,1,1
;   temperatureHeatedBed,1,0
;   temperatureRelayBetweenLayers,0,0
;   temperatureRelayBetweenLoops,0,0
;   fanLayers,1,2,3
;   fanSpeeds,0,25,35
;   blipFanToFullPower,0
;   adjustSpeedForCooling,1
;   minSpeedLayerTime,20
;   minCoolingSpeedSlowdown,30
;   increaseFanForCooling,1
;   minFanLayerTime,30
;   maxCoolingFanSpeed,50
;   increaseFanForBridging,1
;   bridgingFanSpeed,100
;   use5D,1
;   relativeEdistances,0
;   allowEaxisZeroing,1
;   independentExtruderAxes,0
;   includeM10123,0
;   stickySupport,1
;   applyToolheadOffsets,0
;   gcodeXoffset,0
;   gcodeYoffset,0
;   gcodeZoffset,0
;   overrideMachineDefinition,1
;   machineTypeOverride,0
;   strokeXoverride,230
;   strokeYoverride,230
;   strokeZoverride,250
;   originOffsetXoverride,0
;   originOffsetYoverride,0
;   originOffsetZoverride,0
;   homeXdirOverride,-1
;   homeYdirOverride,-1
;   homeZdirOverride,-1
;   flipXoverride,1
;   flipYoverride,-1
;   flipZoverride,1
;   toolheadOffsets,0,0|0,0|0,0|0,0|0,0|0,0
;   overrideFirmwareConfiguration,1
;   firmwareTypeOverride,RepRap (Marlin/Repetier/Sprinter)
;   GPXconfigOverride,r2
;   baudRateOverride,115200
;   overridePrinterModels,1
;   printerModelsOverride
;   startingGcode,G28 ; home all axes,M117 Purging Extruder...,;M204 P800 T3000 R9000 ; printing =800ms, travel 3000 retract 9000,M205 T0 X1 Y1 ; Set Jerk ; T0 = Extruder (adjust as needed for multi-extruder mahcines) ; X1/Y1 = Jerk of 1 (lowest value) with a rate of up to 20 (which I believe is the highest value and default),G1 Z1.0 F3000 ; lift Z,G1 X0.2 Y25 Z0.2 F3000.0 ; move to start-line position,G92 E0 ; reset extruder,G1 X0.2 Y150.0 F1000.0 E15 ; draw 1st line,G1 X0.7 Y150.0 F3000.0 ; move to side 0.5mm,G1 X0.7 Y50 F1000.0 E30 ; draw 2nd line,G1 X0.7 Y25 F5000.0 ; quick wipe,M117 Printing!,,; Default S3D CR-10 Startup,; G28 ; home all axes,; G1 Z5 F3000 ; lift,; G1 X20 Y2 F1500 ; avoid binder clips,; G1 Z0.2 F3000 ; get ready to prime,; G92 E0 ; reset extrusion distance,; G1 X120 E10 F600 ; prime nozzle,; G1 X150 F5000 ; quick wipe,
;   layerChangeGcode,
;   retractionGcode,
;   toolChangeGcode,
;   endingGcode,M117 Print Complete!,M104 S0 ; turn off extruder,M140 S0 ; turn off bed,G1 X0 Y295 F1000 ; move finished print out front,M84 ; disable motors,M106 S0 ; turn off cooling fan,,; play song,M300 S294 P200 ;D4: 294,M300 S588 P200 ;D5: 588,M300 S440 P200 ;A4: 440,M300 S392 P200 ;G4: 392,M300 S784 P200 ;G5: 784,M300 S440 P200 ;A4: 440,M300 S740 P200 ;F#5: 740,M300 S440 P200 ;A4: 440,,; Default S3D CR-10 Ending Script,; G28 X0 ; home x axis,; M106 S0 ; turn off cooling fan,; M104 S0 ; turn off extruder,; M140 S0 ; turn off bed,; M84 ; disable motors,
;   exportFileFormat,gcode
;   celebration,0
;   celebrationSong,Star Wars
;   postProcessing,{REPLACE "; outer perimeter\n" "; outer perimeter\nM204 S600\n"},{REPLACE "; inner perimeter\n" "; inner perimeter\nM204 S1200\n"},{REPLACE "; solid layer\n" "; solid layer\nM204 S1000\n"},{REPLACE "; infill\n" "; infill\nM204 S2000\n"}
;   defaultSpeed,1500
;   outlineUnderspeed,0.8
;   solidInfillUnderspeed,0.9
;   supportUnderspeed,1
;   rapidXYspeed,9000
;   rapidZspeed,1002
;   minBridgingArea,50
;   bridgingExtraInflation,0
;   bridgingExtrusionMultiplier,0.9
;   bridgingSpeedMultiplier,1
;   filamentDiameter,1.75
;   filamentPricePerKg,46
;   filamentDensity,1.25
;   useMinPrintHeight,0
;   minPrintHeight,0
;   useMaxPrintHeight,0
;   maxPrintHeight,0
;   useDiaphragm,0
;   diaphragmLayerInterval,20
;   robustSlicing,1
;   mergeAllIntoSolid,0
;   onlyRetractWhenCrossingOutline,0
;   retractBetweenLayers,1
;   useRetractionMinTravel,1
;   retractionMinTravel,3
;   retractWhileWiping,1
;   onlyWipeOutlines,1
;   avoidCrossingOutline,1
;   maxMovementDetourFactor,3
;   toolChangeRetractionDistance,12
;   toolChangeExtraRestartDistance,-0.5
;   toolChangeRetractionSpeed,600
;   allowThinWallGapFill,1
;   thinWallAllowedOverlapPercentage,15
;   horizontalSizeCompensation,0
G90
M82
M106 S0
M140 S85
M190 S85
M104 S240 T0
M109 S240 T0
G28 ; home all axes
M117 Purging Extruder...
;M204 P800 T3000 R9000 ; printing =800ms, travel 3000 retract 9000
M205 T0 X1 Y1 ; Set Jerk ; T0 = Extruder (adjust as needed for multi-extruder mahcines) ; X1/Y1 = Jerk of 1 (lowest value) with a rate of up to 20 (which I believe is the highest value and default)
G1 Z1.0 F3000 ; lift Z
G1 X0.2 Y25 Z0.2 F3000.0 ; move to start-line position
G92 E0 ; reset extruder
G1 X0.2 Y150.0 F1000.0 E15 ; draw 1st line
G1 X0.7 Y150.0 F3000.0 ; move to side 0.5mm
G1 X0.7 Y50 F1000.0 E30 ; draw 2nd line
G1 X0.7 Y25 F5000.0 ; quick wipe
M117 Printing!
; Default S3D CR-10 Startup
; G28 ; home all axes
; G1 Z5 F3000 ; lift
; G1 X20 Y2 F1500 ; avoid binder clips
; G1 Z0.2 F3000 ; get ready to prime
; G92 E0 ; reset extrusion distance
; G1 X120 E10 F600 ; prime nozzle
; G1 X150 F5000 ; quick wipe
G92 E0
G1 E-6.5000 F3600
G1 Z0.390 F1002
; layer 1, Z = 0.39
T0
; tool H0.390 W0.480
; inner perimeter
M204 S1200
G1 X89.378 Y79.354 F9000
G1 E-0.2000 F1080
G92 E0
G1 X89.800 Y78.885 E0.0486 F840
G1 X90.241 Y78.435 E0.0972
G1 X90.701 Y78.004 E0.1457
G1 X91.204 Y77.573 E0.1967
G1 X91.699 Y77.185 E0.2452
G1 X92.212 Y76.818 E0.2938
G1 X92.740 Y76.473 E0.3424
G1 X93.335 Y76.121 E0.3957
G1 X93.335 Y79.411 E0.6493
G1 X90.738 Y79.411 E0.8494
G1 X89.983 Y80.289 E0.9387
G1 X89.587 Y80.796 E0.9882
G1 X89.215 Y81.321 E1.0377
G1 X88.868 Y81.863 E1.0873
G1 X88.546 Y82.424 E1.1372
G1 X88.253 Y82.996 E1.1867
G1 X87.987 Y83.582 E1.2363
G1 X87.749 Y84.179 E1.2858
G1 X87.539 Y84.787 E1.3354
G1 X87.359 Y85.404 E1.3849
G1 X87.208 Y86.030 E1.4345
G1 X87.086 Y86.661 E1.4841
G1 X86.995 Y87.298 E1.5336
G1 X86.934 Y87.939 E1.5832
G1 X86.904 Y88.581 E1.6327
G1 X86.904 Y89.224 E1.6823
G1 X86.934 Y89.866 E1.7319
G1 X86.995 Y90.507 E1.7814
G1 X87.086 Y91.144 E1.8310
G1 X87.208 Y91.775 E1.8805
G1 X87.359 Y92.401 E1.9301
G1 X87.539 Y93.018 E1.9797
G1 X87.748 Y93.626 E2.0292
G1 X87.986 Y94.223 E2.0788
G1 X88.252 Y94.809 E2.1283
G1 X88.546 Y95.381 E2.1779
G1 X88.851 Y95.913 E2.2251
G1 X89.205 Y96.470 E2.2760
G1 X89.577 Y96.996 E2.3256
G1 X89.972 Y97.503 E2.3752
G1 X90.738 Y98.394 E2.4656
G1 X93.335 Y98.394 E2.6658
G1 X93.335 Y101.685 E2.9194
G1 X92.738 Y101.331 E2.9729
G1 X92.210 Y100.986 E3.0215
G1 X91.696 Y100.618 E3.0701
G1 X91.200 Y100.229 E3.1188
G1 X90.720 Y99.818 E3.1674
G1 X90.259 Y99.388 E3.2160
G1 X89.816 Y98.938 E3.2647
G1 X89.394 Y98.469 E3.3133
G1 X88.992 Y97.983 E3.3619
G1 X88.614 Y97.483 E3.4101
G1 X88.249 Y96.955 E3.4596
G1 X87.914 Y96.422 E3.5081
G1 X87.603 Y95.876 E3.5565
G1 X87.316 Y95.317 E3.6050
G1 X87.052 Y94.746 E3.6534
G1 X86.814 Y94.163 E3.7019
G1 X86.600 Y93.570 E3.7505
G1 X86.411 Y92.967 E3.7992
G1 X86.249 Y92.357 E3.8478
G1 X86.114 Y91.741 E3.8964
G1 X86.005 Y91.119 E3.9451
G1 X85.922 Y90.493 E3.9937
G1 X85.867 Y89.864 E4.0424
G1 X85.840 Y89.234 E4.0910
G1 X85.839 Y88.603 E4.1396
G1 X85.865 Y87.972 E4.1883
G1 X85.919 Y87.343 E4.2369
G1 X86.000 Y86.717 E4.2855
G1 X86.108 Y86.095 E4.3342
G1 X86.242 Y85.478 E4.3828
G1 X86.403 Y84.868 E4.4314
G1 X86.590 Y84.265 E4.4801
G1 X86.803 Y83.671 E4.5287
G1 X87.041 Y83.086 E4.5774
G1 X87.303 Y82.515 E4.6258
G1 X87.604 Y81.928 E4.6766
G1 X87.915 Y81.383 E4.7249
G1 X88.249 Y80.850 E4.7734
G1 X88.606 Y80.332 E4.8219
G1 X88.977 Y79.841 E4.8693
G1 X89.251 Y79.509 E4.9025
G1 X89.378 Y79.354 F840
; inner perimeter
M204 S1200
G1 X89.015 Y79.041 F9000
G92 E0
G1 X89.450 Y78.557 E0.0502 F780
G1 X89.905 Y78.092 E0.1003
G1 X90.381 Y77.647 E0.1505
G1 X90.899 Y77.202 E0.2031
G1 X91.411 Y76.801 E0.2533
G1 X91.941 Y76.422 E0.3034
G1 X92.486 Y76.066 E0.3536
G1 X93.046 Y75.734 E0.4038
G1 X93.815 Y75.322 E0.4710
G1 X93.815 Y79.891 E0.8231
G1 X90.959 Y79.891 E1.0432
G1 X90.354 Y80.594 E1.1147
G1 X89.972 Y81.082 E1.1624
G1 X89.613 Y81.589 E1.2103
G1 X89.279 Y82.112 E1.2581
G1 X88.968 Y82.653 E1.3062
G1 X88.685 Y83.205 E1.3540
G1 X88.428 Y83.770 E1.4018
G1 X88.199 Y84.346 E1.4496
G1 X87.997 Y84.933 E1.4974
G1 X87.823 Y85.528 E1.5452
G1 X87.677 Y86.132 E1.5930
G1 X87.560 Y86.741 E1.6408
G1 X87.472 Y87.355 E1.6886
G1 X87.413 Y87.973 E1.7364
G1 X87.384 Y88.592 E1.7842
G1 X87.384 Y89.213 E1.8320
G1 X87.413 Y89.832 E1.8798
G1 X87.472 Y90.450 E1.9276
G1 X87.560 Y91.064 E1.9754
G1 X87.677 Y91.674 E2.0232
G1 X87.822 Y92.277 E2.0710
G1 X87.997 Y92.873 E2.1189
G1 X88.198 Y93.459 E2.1667
G1 X88.428 Y94.035 E2.2144
G1 X88.685 Y94.600 E2.2623
G1 X88.968 Y95.152 E2.3101
G1 X89.262 Y95.664 E2.3556
G1 X89.604 Y96.203 E2.4047
G1 X89.962 Y96.710 E2.4526
G1 X90.344 Y97.199 E2.5004
G1 X90.958 Y97.914 E2.5730
G1 X93.815 Y97.914 E2.7931
G1 X93.815 Y102.484 E3.1453
G1 X93.045 Y102.071 E3.2126
G1 X92.484 Y101.738 E3.2628
G1 X91.938 Y101.382 E3.3131
G1 X91.408 Y101.002 E3.3633
G1 X90.895 Y100.600 E3.4135
G1 X90.400 Y100.176 E3.4637
G1 X89.924 Y99.732 E3.5140
G1 X89.467 Y99.267 E3.5642
G1 X89.030 Y98.783 E3.6144
G1 X88.615 Y98.280 E3.6646
G1 X88.225 Y97.765 E3.7144
G1 X87.848 Y97.219 E3.7655
G1 X87.503 Y96.669 E3.8156
G1 X87.181 Y96.105 E3.8656
G1 X86.884 Y95.527 E3.9157
G1 X86.612 Y94.937 E3.9657
G1 X86.366 Y94.336 E4.0158
G1 X86.145 Y93.723 E4.0660
G1 X85.950 Y93.101 E4.1162
G1 X85.783 Y92.470 E4.1665
G1 X85.643 Y91.834 E4.2167
G1 X85.530 Y91.192 E4.2669
G1 X85.445 Y90.545 E4.3172
G1 X85.388 Y89.896 E4.3674
G1 X85.360 Y89.245 E4.4176
G1 X85.359 Y88.593 E4.4679
G1 X85.386 Y87.941 E4.5181
G1 X85.442 Y87.292 E4.5683
G1 X85.525 Y86.645 E4.6186
G1 X85.636 Y86.003 E4.6688
G1 X85.775 Y85.366 E4.7190
G1 X85.941 Y84.736 E4.7692
G1 X86.135 Y84.113 E4.8195
G1 X86.354 Y83.499 E4.8697
G1 X86.600 Y82.896 E4.9199
G1 X86.871 Y82.305 E4.9700
G1 X87.181 Y81.700 E5.0223
G1 X87.503 Y81.136 E5.0724
G1 X87.848 Y80.586 E5.1224
G1 X88.217 Y80.051 E5.1725
G1 X88.600 Y79.544 E5.2215
G1 X88.887 Y79.196 E5.2563
G1 X89.015 Y79.041 F780
; outer perimeter
M204 S600
G1 X88.651 Y78.728 F9000
G92 E0
G1 X89.100 Y78.228 E0.0518 F720
G1 X89.570 Y77.748 E0.1035
G1 X90.060 Y77.289 E0.1553
G1 X90.595 Y76.831 E0.2096
G1 X91.124 Y76.417 E0.2613
G1 X91.670 Y76.026 E0.3131
G1 X92.233 Y75.658 E0.3649
G1 X92.811 Y75.316 E0.4166
G1 X93.403 Y74.998 E0.4684
G1 X94.008 Y74.707 E0.5202
G1 X94.295 Y74.583 E0.5443
G1 X94.295 Y82.351 E1.1428
G1 X93.167 Y82.351 E1.2298
G1 X93.167 Y80.371 E1.3823
G1 X91.179 Y80.371 E1.5355
G1 X90.725 Y80.898 E1.5891
G1 X90.357 Y81.369 E1.6351
G1 X90.011 Y81.857 E1.6812
G1 X89.689 Y82.361 E1.7273
G1 X89.390 Y82.882 E1.7736
G1 X89.117 Y83.414 E1.8196
G1 X88.870 Y83.958 E1.8657
G1 X88.649 Y84.513 E1.9117
G1 X88.454 Y85.078 E1.9578
G1 X88.286 Y85.652 E2.0038
G1 X88.146 Y86.233 E2.0499
G1 X88.034 Y86.820 E2.0959
G1 X87.949 Y87.412 E2.1420
G1 X87.892 Y88.007 E2.1881
G1 X87.864 Y88.604 E2.2341
G1 X87.864 Y89.201 E2.2802
G1 X87.892 Y89.798 E2.3262
G1 X87.949 Y90.393 E2.3723
G1 X88.034 Y90.985 E2.4183
G1 X88.146 Y91.572 E2.4644
G1 X88.286 Y92.153 E2.5104
G1 X88.454 Y92.727 E2.5565
G1 X88.649 Y93.292 E2.6025
G1 X88.870 Y93.847 E2.6486
G1 X89.117 Y94.391 E2.6946
G1 X89.390 Y94.923 E2.7407
G1 X89.673 Y95.416 E2.7845
G1 X90.003 Y95.935 E2.8319
G1 X90.348 Y96.424 E2.8779
G1 X90.715 Y96.895 E2.9240
G1 X91.179 Y97.434 E2.9788
G1 X93.167 Y97.434 E3.1319
G1 X93.167 Y95.454 E3.2845
G1 X94.295 Y95.454 E3.3715
G1 X94.295 Y103.222 E3.9700
G1 X94.008 Y103.099 E3.9942
G1 X93.401 Y102.807 E4.0460
G1 X92.809 Y102.489 E4.0978
G1 X92.230 Y102.146 E4.1496
G1 X91.667 Y101.778 E4.2015
G1 X91.120 Y101.386 E4.2533
G1 X90.591 Y100.972 E4.3051
G1 X90.080 Y100.534 E4.3569
G1 X89.588 Y100.076 E4.4087
G1 X89.117 Y99.596 E4.4606
G1 X88.667 Y99.096 E4.5124
G1 X88.238 Y98.578 E4.5642
G1 X87.836 Y98.046 E4.6156
G1 X87.447 Y97.483 E4.6683
G1 X87.091 Y96.916 E4.7199
G1 X86.759 Y96.333 E4.7716
G1 X86.452 Y95.738 E4.8232
G1 X86.172 Y95.129 E4.8749
G1 X85.918 Y94.509 E4.9265
G1 X85.689 Y93.876 E4.9783
G1 X85.489 Y93.234 E5.0301
G1 X85.316 Y92.584 E5.0820
G1 X85.172 Y91.927 E5.1338
G1 X85.055 Y91.264 E5.1856
G1 X84.968 Y90.598 E5.2374
G1 X84.909 Y89.927 E5.2893
G1 X84.880 Y89.255 E5.3411
G1 X84.879 Y88.583 E5.3929
G1 X84.907 Y87.911 E5.4448
G1 X84.964 Y87.241 E5.4966
G1 X85.051 Y86.573 E5.5484
G1 X85.165 Y85.911 E5.6002
G1 X85.309 Y85.253 E5.6521
G1 X85.480 Y84.603 E5.7039
G1 X85.679 Y83.961 E5.7557
G1 X85.906 Y83.328 E5.8075
G1 X86.160 Y82.704 E5.8594
G1 X86.439 Y82.096 E5.9110
G1 X86.759 Y81.472 E5.9650
G1 X87.091 Y80.890 E6.0166
G1 X87.447 Y80.322 E6.0683
G1 X87.828 Y79.770 E6.1199
G1 X88.223 Y79.247 E6.1705
G1 X88.523 Y78.882 E6.2068
G1 X88.651 Y78.728 F720
G92 E0
G1 E-6.5000 F3600
; gap fill
G1 X93.780 Y80.203 F9000
G1 E-0.2000 F3600
G92 E0
G1 X93.979 Y80.402 E0.0216 F810
G1 X93.979 Y81.081 E0.0740
G1 X93.483 Y80.586 E0.1279
G1 X93.483 Y81.265 E0.1802
G1 X93.979 Y81.760 E0.2342
G1 X93.979 Y82.035 E0.2553
G1 X93.646 Y82.035 E0.2810
G1 X93.575 Y82.035 F810
G1 X93.483 Y81.943 F810
G92 E0
G1 E-6.5000 F3600
G1 X93.491 Y82.356 F9000
G1 X93.162 Y82.356 F9000
G1 X93.162 Y80.376 F9000
G1 X91.181 Y80.376 F9000
G1 X90.729 Y80.901 F9000
G1 X90.361 Y81.372 F9000
G1 X90.015 Y81.860 F9000
G1 X89.694 Y82.363 F9000
G1 X89.394 Y82.884 F9000
G1 X89.122 Y83.416 F9000
G1 X88.874 Y83.960 F9000
G1 X88.653 Y84.515 F9000
G1 X88.459 Y85.080 F9000
G1 X88.291 Y85.653 F9000
G1 X88.151 Y86.234 F9000
G1 X88.038 Y86.821 F9000
G1 X87.954 Y87.412 F9000
G1 X87.897 Y88.007 F9000
G1 X87.869 Y88.604 F9000
G1 X87.869 Y89.201 F9000
G1 X87.897 Y89.798 F9000
G1 X87.954 Y90.393 F9000
