; G-Code generated by Simplify3D(R) Version 4.0.0
; Nov 3, 2018 at 4:18:30 PM
; Settings Summary
;   processName,Process1
;   applyToModels,tool_holder_wScrapper
;   profileName,Travis_Fletchers_Ultimate_PETG_Profile_v2 (modified)
;   profileVersion,2018-10-27 09:00:55
;   baseProfile,Creality CR-10
;   printMaterial,PETG
;   printQuality,Fast
;   printExtruders,
;   extruderName,Primary Extruder
;   extruderToolheadNumber,0
;   extruderDiameter,0.4
;   extruderAutoWidth,1
;   extruderWidth,0.48
;   extrusionMultiplier,0.99
;   extruderUseRetract,1
;   extruderRetractionDistance,6.5
;   extruderExtraRestartDistance,-0.2
;   extruderRetractionZLift,0
;   extruderRetractionSpeed,3600
;   extruderUseCoasting,1
;   extruderCoastingDistance,0.2
;   extruderUseWipe,0
;   extruderWipeDistance,4
;   primaryExtruder,0
;   layerHeight,0.3
;   topSolidLayers,3
;   bottomSolidLayers,3
;   perimeterOutlines,3
;   printPerimetersInsideOut,1
;   startPointOption,3
;   startPointOriginX,0
;   startPointOriginY,500
;   sequentialIslands,0
;   spiralVaseMode,0
;   firstLayerHeightPercentage,130
;   firstLayerWidthPercentage,120
;   firstLayerUnderspeed,0.6
;   useRaft,0
;   raftExtruder,0
;   raftTopLayers,3
;   raftBaseLayers,2
;   raftOffset,3
;   raftSeparationDistance,0.14
;   raftTopInfill,100
;   aboveRaftSpeedMultiplier,0.3
;   useSkirt,1
;   skirtExtruder,0
;   skirtLayers,1
;   skirtOutlines,2
;   skirtOffset,0.2
;   usePrimePillar,0
;   primePillarExtruder,999
;   primePillarWidth,12
;   primePillarLocation,7
;   primePillarSpeedMultiplier,1
;   useOozeShield,0
;   oozeShieldExtruder,999
;   oozeShieldOffset,2
;   oozeShieldOutlines,1
;   oozeShieldSidewallShape,1
;   oozeShieldSidewallAngle,30
;   oozeShieldSpeedMultiplier,1
;   infillExtruder,0
;   internalInfillPattern,Grid
;   externalInfillPattern,Rectilinear
;   infillPercentage,15
;   outlineOverlapPercentage,35
;   infillExtrusionWidthPercentage,120
;   minInfillLength,4
;   infillLayerInterval,1
;   internalInfillAngles,45,-45
;   overlapInternalInfillAngles,1
;   externalInfillAngles,45,-45
;   generateSupport,1
;   supportExtruder,0
;   supportInfillPercentage,25
;   supportExtraInflation,2
;   supportBaseLayers,0
;   denseSupportExtruder,0
;   denseSupportLayers,0
;   denseSupportInfillPercentage,60
;   supportLayerInterval,1
;   supportHorizontalPartOffset,0.3
;   supportUpperSeparationLayers,2
;   supportLowerSeparationLayers,1
;   supportType,0
;   supportGridSpacing,3.5
;   maxOverhangAngle,45
;   supportAngles,0
;   temperatureName,Heated Bed,Primary Extruder
;   temperatureNumber,0,0
;   temperatureSetpointCount,1,1
;   temperatureSetpointLayers,1,1
;   temperatureSetpointTemperatures,85,240
;   temperatureStabilizeAtStartup,1,1
;   temperatureHeatedBed,1,0
;   temperatureRelayBetweenLayers,0,0
;   temperatureRelayBetweenLoops,0,0
;   fanLayers,1,2,3
;   fanSpeeds,0,25,35
;   blipFanToFullPower,0
;   adjustSpeedForCooling,1
;   minSpeedLayerTime,20
;   minCoolingSpeedSlowdown,30
;   increaseFanForCooling,1
;   minFanLayerTime,30
;   maxCoolingFanSpeed,50
;   increaseFanForBridging,1
;   bridgingFanSpeed,100
;   use5D,1
;   relativeEdistances,0
;   allowEaxisZeroing,1
;   independentExtruderAxes,0
;   includeM10123,0
;   stickySupport,1
;   applyToolheadOffsets,0
;   gcodeXoffset,0
;   gcodeYoffset,0
;   gcodeZoffset,0
;   overrideMachineDefinition,1
;   machineTypeOverride,0
;   strokeXoverride,230
;   strokeYoverride,230
;   strokeZoverride,250
;   originOffsetXoverride,0
;   originOffsetYoverride,0
;   originOffsetZoverride,0
;   homeXdirOverride,-1
;   homeYdirOverride,-1
;   homeZdirOverride,-1
;   flipXoverride,1
;   flipYoverride,-1
;   flipZoverride,1
;   toolheadOffsets,0,0|0,0|0,0|0,0|0,0|0,0
;   overrideFirmwareConfiguration,1
;   firmwareTypeOverride,RepRap (Marlin/Repetier/Sprinter)
;   GPXconfigOverride,r2
;   baudRateOverride,115200
;   overridePrinterModels,1
;   printerModelsOverride
;   startingGcode,G28 ; home all axes,M117 Purging Extruder...,M204 P500 T1000,M205 X10 Y10 ; set jerk x/y=10,G1 Z1.0 F3000 ; lift Z,G1 X0.2 Y25 Z0.2 F3000.0 ; move to start-line position,G92 E0 ; reset extruder,G1 X0.2 Y150.0 F1000.0 E15 ; draw 1st line,G1 X0.7 Y150.0 F3000.0 ; move to side 0.5mm,G1 X0.7 Y50 F1000.0 E30 ; draw 2nd line,G1 X0.7 Y25 F5000.0 ; quick wipe,M117 Printing!,,; Default S3D CR-10 Startup,; G28 ; home all axes,; G1 Z5 F3000 ; lift,; G1 X20 Y2 F1500 ; avoid binder clips,; G1 Z0.2 F3000 ; get ready to prime,; G92 E0 ; reset extrusion distance,; G1 X120 E10 F600 ; prime nozzle,; G1 X150 F5000 ; quick wipe,
;   layerChangeGcode,
;   retractionGcode,
;   toolChangeGcode,
;   endingGcode,M117 Print Complete!,M104 S0 ; turn off extruder,M140 S0 ; turn off bed,G1 X0 Y295 F1000 ; move finished print out front,M84 ; disable motors,M106 S0 ; turn off cooling fan,,; play song,M300 S294 P200 ;D4: 294,M300 S588 P200 ;D5: 588,M300 S440 P200 ;A4: 440,M300 S392 P200 ;G4: 392,M300 S784 P200 ;G5: 784,M300 S440 P200 ;A4: 440,M300 S740 P200 ;F#5: 740,M300 S440 P200 ;A4: 440,,; Default S3D CR-10 Ending Script,; G28 X0 ; home x axis,; M106 S0 ; turn off cooling fan,; M104 S0 ; turn off extruder,; M140 S0 ; turn off bed,; M84 ; disable motors,
;   exportFileFormat,gcode
;   celebration,0
;   celebrationSong,Star Wars
;   postProcessing,,
;   defaultSpeed,2000
;   outlineUnderspeed,0.8
;   solidInfillUnderspeed,0.9
;   supportUnderspeed,1
;   rapidXYspeed,9000
;   rapidZspeed,1002
;   minBridgingArea,50
;   bridgingExtraInflation,0
;   bridgingExtrusionMultiplier,0.9
;   bridgingSpeedMultiplier,1
;   useFixedBridgingAngle,0
;   fixedBridgingAngle,0
;   applyBridgingToPerimeters,0
;   filamentDiameters,1.75|1.75|1.75|1.75|1.75|1.75
;   filamentPricesPerKg,46|46|46|46|46|46
;   filamentDensities,1.25|1.25|1.25|1.25|1.25|1.25
;   useMinPrintHeight,0
;   minPrintHeight,0
;   useMaxPrintHeight,0
;   maxPrintHeight,0
;   useDiaphragm,0
;   diaphragmLayerInterval,20
;   robustSlicing,1
;   mergeAllIntoSolid,0
;   onlyRetractWhenCrossingOutline,0
;   retractBetweenLayers,1
;   useRetractionMinTravel,1
;   retractionMinTravel,3
;   retractWhileWiping,1
;   onlyWipeOutlines,1
;   avoidCrossingOutline,1
;   maxMovementDetourFactor,3
;   toolChangeRetractionDistance,12
;   toolChangeExtraRestartDistance,-0.5
;   toolChangeRetractionSpeed,600
;   externalThinWallType,0
;   internalThinWallType,2
;   thinWallAllowedOverlapPercentage,15
;   singleExtrusionMinLength,1
;   singleExtrusionMinPrintingWidthPercentage,50
;   singleExtrusionMaxPrintingWidthPercentage,200
;   singleExtrusionEndpointExtension,0.2
;   horizontalSizeCompensation,0
G90
M82
M106 S0
M140 S85
M190 S85
M104 S240 T0
M109 S240 T0
G28 ; home all axes
M117 Purging Extruder...
M204 P500 T1000
M205 X10 Y10 ; set jerk x/y=10
G1 Z1.0 F3000 ; lift Z
G1 X0.2 Y25 Z0.2 F3000.0 ; move to start-line position
G92 E0 ; reset extruder
G1 X0.2 Y150.0 F1000.0 E15 ; draw 1st line
G1 X0.7 Y150.0 F3000.0 ; move to side 0.5mm
G1 X0.7 Y50 F1000.0 E30 ; draw 2nd line
G1 X0.7 Y25 F5000.0 ; quick wipe
M117 Printing!
; Default S3D CR-10 Startup
; G28 ; home all axes
; G1 Z5 F3000 ; lift
; G1 X20 Y2 F1500 ; avoid binder clips
; G1 Z0.2 F3000 ; get ready to prime
; G92 E0 ; reset extrusion distance
; G1 X120 E10 F600 ; prime nozzle
; G1 X150 F5000 ; quick wipe
G92 E0
G1 E-6.5000 F3600
G1 Z0.390 F1002
; process Process1
; layer 1, Z = 0.390
T0
; tool H0.390 W0.576
; skirt
G1 X80.928 Y100.321 F9000
G1 E-0.2000 F1080
G92 E0
G1 X81.046 Y100.242 E0.0131 F1200
G1 X81.250 Y100.158 E0.0336
G1 X81.389 Y100.130 E0.0467
G1 X139.611 Y100.130 E5.4299
G1 X139.750 Y100.158 E5.4430
G1 X139.954 Y100.242 E5.4635
G1 X140.072 Y100.321 E5.4766
G1 X141.229 Y101.478 E5.6278
G1 X141.308 Y101.596 E5.6409
G1 X141.392 Y101.800 E5.6614
G1 X141.420 Y101.939 E5.6745
G1 X141.420 Y106.610 E6.1064
G1 X150.696 Y106.610 E6.9640
G1 X150.961 Y106.720 E6.9905
G1 X151.280 Y107.039 E7.0323
G1 X151.390 Y107.304 E7.0588
G1 X151.390 Y115.696 E7.8347
G1 X151.280 Y115.961 E7.8612
G1 X150.961 Y116.280 E7.9030
G1 X150.696 Y116.390 E7.9295
G1 X140.461 Y116.390 E8.8758
G1 X140.072 Y116.779 E8.9267
G1 X139.954 Y116.858 E8.9398
G1 X139.750 Y116.942 E8.9603
G1 X139.611 Y116.970 E8.9734
G1 X137.881 Y116.970 E9.1333
G1 X137.420 Y117.431 E9.1936
G1 X137.420 Y128.061 E10.1764
G1 X137.392 Y128.200 E10.1895
G1 X137.308 Y128.404 E10.2100
G1 X137.229 Y128.522 E10.2231
G1 X136.072 Y129.679 E10.3743
G1 X135.954 Y129.758 E10.3874
G1 X135.750 Y129.842 E10.4079
G1 X135.611 Y129.870 E10.4210
G1 X81.389 Y129.870 E15.4344
G1 X81.250 Y129.842 E15.4475
G1 X81.046 Y129.758 E15.4680
G1 X80.928 Y129.679 E15.4811
G1 X79.771 Y128.522 E15.6323
G1 X79.692 Y128.404 E15.6454
G1 X79.608 Y128.200 E15.6659
G1 X79.580 Y128.061 E15.6790
G1 X79.580 Y101.939 E18.0942
G1 X79.608 Y101.800 E18.1073
G1 X79.692 Y101.596 E18.1278
G1 X79.771 Y101.478 E18.1409
G1 X80.786 Y100.463 E18.2736
G1 X80.928 Y100.321 F1200
G1 X81.234 Y100.694 F9000
G92 E0
G1 X81.273 Y100.668 E0.0044 F1200
G1 X81.390 Y100.619 E0.0161
G1 X81.437 Y100.610 E0.0205
G1 X139.563 Y100.610 E5.3949
G1 X139.610 Y100.619 E5.3993
G1 X139.727 Y100.668 E5.4110
G1 X139.766 Y100.694 E5.4154
G1 X140.856 Y101.784 E5.5579
G1 X140.882 Y101.823 E5.5622
G1 X140.931 Y101.940 E5.5740
G1 X140.940 Y101.987 E5.5783
G1 X140.940 Y107.090 E6.0502
G1 X150.601 Y107.090 E6.9434
G1 X150.689 Y107.127 E6.9523
G1 X150.873 Y107.311 E6.9764
G1 X150.910 Y107.399 E6.9852
G1 X150.910 Y115.601 E7.7435
G1 X150.873 Y115.689 E7.7523
G1 X150.689 Y115.873 E7.7765
G1 X150.601 Y115.910 E7.7853
G1 X140.298 Y115.910 E8.7379
G1 X140.276 Y115.896 E8.7403
G1 X139.766 Y116.406 E8.8070
G1 X139.727 Y116.432 E8.8114
G1 X139.610 Y116.481 E8.8231
G1 X139.563 Y116.490 E8.8275
G1 X137.682 Y116.490 E9.0014
G1 X136.940 Y117.232 E9.0985
G1 X136.940 Y128.013 E10.0953
G1 X136.931 Y128.060 E10.0997
G1 X136.882 Y128.177 E10.1114
G1 X136.856 Y128.216 E10.1158
G1 X135.766 Y129.306 E10.2582
G1 X135.727 Y129.332 E10.2626
G1 X135.610 Y129.381 E10.2743
G1 X135.563 Y129.390 E10.2787
G1 X81.437 Y129.390 E15.2833
G1 X81.390 Y129.381 E15.2877
G1 X81.273 Y129.332 E15.2994
G1 X81.234 Y129.306 E15.3038
G1 X80.144 Y128.216 E15.4463
G1 X80.118 Y128.177 E15.4506
G1 X80.069 Y128.060 E15.4624
G1 X80.060 Y128.013 E15.4667
G1 X80.060 Y101.987 E17.8732
G1 X80.069 Y101.940 E17.8776
G1 X80.118 Y101.823 E17.8893
G1 X80.144 Y101.784 E17.8937
G1 X81.092 Y100.835 E18.0177
G1 X81.234 Y100.694 F1200
G92 E0
G1 E-6.5000 F3600
; inner perimeter
G1 X81.617 Y101.332 F9000
G1 X81.266 Y101.684 F9000
G1 X81.552 Y110.579 F9000
G1 X81.518 Y110.660 F9000
G1 X81.472 Y110.921 F9000
G1 X81.472 Y111.179 F9000
G1 X81.517 Y111.434 F9000
G1 X81.585 Y111.621 F9000
G1 X82.096 Y127.510 F9000
G1 E-0.2000 F3600
G92 E0
G1 X81.940 Y127.353 E0.0205 F1080
G1 X81.940 Y113.548 E1.2969
G1 X82.719 Y113.685 E1.3701
G1 X83.181 Y113.685 E1.4127
G1 X83.666 Y113.600 E1.4583
G1 X84.247 Y113.359 E1.5164
G1 X84.789 Y112.979 E1.5777
G1 X85.244 Y113.361 E1.6325
G1 X85.506 Y113.528 E1.6612
G1 X85.927 Y113.724 E1.7042
G1 X86.406 Y113.852 E1.7501
G1 X86.900 Y113.895 E1.7959
G1 X87.394 Y113.852 E1.8418
G1 X87.843 Y113.732 E1.8847
G1 X88.130 Y113.613 E1.9135
G1 X88.532 Y113.381 E1.9564
G1 X88.971 Y113.012 E2.0094
G1 X89.164 Y113.241 E2.0371
G1 X89.577 Y113.588 E2.0869
G1 X90.045 Y113.857 E2.1368
G1 X90.523 Y114.030 E2.1838
G1 X90.848 Y114.102 E2.2146
G1 X91.354 Y114.145 E2.2615
G1 X91.891 Y114.098 E2.3114
G1 X92.412 Y113.958 E2.3613
G1 X92.872 Y113.742 E2.4083
G1 X93.153 Y113.563 E2.4390
G1 X93.667 Y113.131 E2.5012
G1 X94.130 Y113.593 E2.5617
G1 X94.412 Y113.808 E2.5945
G1 X94.890 Y114.084 E2.6455
G1 X95.438 Y114.282 E2.6994
G1 X96.012 Y114.383 E2.7533
G1 X96.595 Y114.382 E2.8072
G1 X97.138 Y114.286 E2.8582
G1 X97.477 Y114.179 E2.8910
G1 X97.976 Y113.945 E2.9420
G1 X98.453 Y113.610 E2.9959
G1 X98.722 Y113.341 E3.0311
G1 X99.382 Y113.999 E3.1172
G1 X99.931 Y114.382 E3.1792
G1 X100.510 Y114.652 E3.2382
G1 X100.890 Y114.771 E3.2751
G1 X101.519 Y114.881 E3.3341
G1 X102.190 Y114.880 E3.3961
G1 X102.850 Y114.763 E3.4581
G1 X103.450 Y114.544 E3.5171
G1 X103.802 Y114.360 E3.5539
G1 X104.325 Y113.993 E3.6130
G1 X104.799 Y113.518 E3.6750
G1 X105.182 Y112.969 E3.7369
G1 X105.465 Y112.361 E3.7989
G1 X105.617 Y111.790 E3.8536
G1 X111.660 Y111.790 E4.4123
G1 X111.660 Y115.890 E4.7914
G1 X124.040 Y115.890 E5.9360
G1 X124.040 Y111.790 E6.3151
G1 X129.790 Y111.790 E6.8467
G1 X129.790 Y106.210 E7.3627
G1 X105.910 Y106.210 E9.5706
G1 X105.910 Y109.822 E9.9046
G1 X105.506 Y109.893 E9.9425
G1 X105.344 Y109.451 E9.9861
G1 X105.160 Y109.098 E10.0228
G1 X104.795 Y108.577 E10.0816
G1 X104.318 Y108.102 E10.1439
G1 X103.769 Y107.718 E10.2059
G1 X103.190 Y107.448 E10.2649
G1 X102.810 Y107.329 E10.3018
G1 X102.181 Y107.219 E10.3608
G1 X101.510 Y107.220 E10.4228
G1 X100.850 Y107.337 E10.4848
G1 X100.251 Y107.556 E10.5438
G1 X99.898 Y107.740 E10.5806
G1 X99.404 Y108.086 E10.6364
G1 X99.110 Y108.355 E10.6732
G1 X98.765 Y108.767 E10.7229
G1 X98.219 Y108.309 E10.7888
G1 X97.713 Y108.018 E10.8428
G1 X97.162 Y107.818 E10.8970
G1 X96.588 Y107.717 E10.9509
G1 X96.036 Y107.718 E11.0019
G1 X95.685 Y107.764 E11.0347
G1 X95.152 Y107.908 E11.0857
G1 X94.653 Y108.141 E11.1366
G1 X94.356 Y108.330 E11.1692
G1 X93.932 Y108.687 E11.2204
G1 X93.684 Y108.983 E11.2561
G1 X93.147 Y108.533 E11.3209
G1 X92.866 Y108.354 E11.3517
G1 X92.406 Y108.140 E11.3986
G1 X91.887 Y108.001 E11.4483
G1 X91.379 Y107.957 E11.4954
G1 X91.048 Y107.972 E11.5260
G1 X90.546 Y108.061 E11.5732
G1 X90.039 Y108.246 E11.6231
G1 X89.572 Y108.516 E11.6730
G1 X89.159 Y108.864 E11.7229
G1 X88.971 Y109.088 E11.7499
G1 X88.532 Y108.719 E11.8030
G1 X88.128 Y108.486 E11.8460
G1 X87.872 Y108.380 E11.8717
G1 X87.605 Y108.296 E11.8975
G1 X87.148 Y108.215 E11.9404
G1 X86.652 Y108.215 E11.9863
G1 X86.164 Y108.301 E12.0322
G1 X85.697 Y108.471 E12.0780
G1 X85.268 Y108.719 E12.1239
G1 X84.789 Y109.121 E12.1816
G1 X84.273 Y108.759 E12.2400
G1 X83.855 Y108.564 E12.2826
G1 X83.409 Y108.445 E12.3253
G1 X82.979 Y108.407 E12.3651
G1 X82.688 Y108.420 E12.3921
G1 X82.265 Y108.495 E12.4318
G1 X81.940 Y108.613 E12.4638
G1 X81.940 Y102.646 E13.0155
G1 X82.096 Y102.490 E13.0359
G1 X90.060 Y102.490 E13.7722
G1 X90.060 Y105.590 E14.0589
G1 X130.940 Y105.590 E17.8386
G1 X130.940 Y102.490 E18.1253
G1 X138.904 Y102.490 E18.8616
G1 X139.060 Y102.646 E18.8820
G1 X139.060 Y108.877 E19.4581
G1 X138.737 Y108.994 E19.4899
G1 X138.641 Y108.879 E19.5038
G1 X138.255 Y108.555 E19.5503
G1 X137.977 Y108.378 E19.5809
G1 X137.520 Y108.165 E19.6274
G1 X137.003 Y108.026 E19.6769
G1 X136.470 Y107.980 E19.7264
G1 X135.968 Y108.023 E19.7730
G1 X135.646 Y108.095 E19.8035
G1 X135.172 Y108.267 E19.8501
G1 X134.709 Y108.535 E19.8996
G1 X134.323 Y108.859 E19.9462
G1 X134.100 Y109.102 E19.9767
G1 X133.811 Y109.515 E20.0233
G1 X133.585 Y110.000 E20.0728
G1 X133.446 Y110.517 E20.1223
G1 X133.399 Y111.050 E20.1717
G1 X133.446 Y111.584 E20.2213
G1 X133.577 Y112.072 E20.2680
G1 X133.703 Y112.375 E20.2984
G1 X133.955 Y112.811 E20.3449
G1 X134.299 Y113.221 E20.3944
G1 X134.709 Y113.565 E20.4439
G1 X135.145 Y113.817 E20.4905
G1 X135.450 Y113.943 E20.5210
G1 X135.937 Y114.074 E20.5676
G1 X136.470 Y114.120 E20.6171
G1 X137.003 Y114.074 E20.6666
G1 X137.490 Y113.943 E20.7131
G1 X137.795 Y113.817 E20.7437
G1 X138.231 Y113.565 E20.7902
G1 X138.641 Y113.221 E20.8397
G1 X138.738 Y113.106 E20.8536
G1 X139.060 Y113.223 E20.8853
G1 X139.060 Y114.454 E20.9991
G1 X138.904 Y114.610 E21.0196
G1 X136.904 Y114.610 E21.2045
G1 X135.060 Y116.454 E21.4455
G1 X135.060 Y127.353 E22.4534
G1 X134.904 Y127.510 E22.4738
G1 X82.296 Y127.510 E27.3379
G1 X82.096 Y127.510 F1080
G1 X81.858 Y128.086 F9000
G92 E0
G1 X81.364 Y127.592 E0.0646 F1080
G1 X81.364 Y112.775 E1.4346
G1 X81.628 Y112.638 E1.4620
G1 X81.932 Y112.851 E1.4964
G1 X82.396 Y113.044 E1.5428
G1 X82.770 Y113.109 E1.5779
G1 X83.130 Y113.109 E1.6112
G1 X83.504 Y113.044 E1.6463
G1 X83.968 Y112.851 E1.6928
G1 X84.279 Y112.634 E1.7279
G1 X84.547 Y112.365 E1.7629
G1 X84.812 Y111.950 E1.8085
G1 X85.043 Y112.350 E1.8512
G1 X85.297 Y112.653 E1.8877
G1 X85.585 Y112.895 E1.9225
