; G-Code generated by Simplify3D(R) Version 4.0.0
; Dec 3, 2018 at 4:48:34 PM
; Settings Summary
;   processName,Process1
;   applyToModels,USB Cable Mount
;   profileName,Travis_Fletchers_Ultimate_PETG_Profile_v2 (modified)
;   profileVersion,2018-11-14 05:17:17
;   baseProfile,Creality CR-10
;   printMaterial,PETG
;   printQuality,Fast
;   printExtruders,
;   extruderName,Primary Extruder
;   extruderToolheadNumber,0
;   extruderDiameter,0.4
;   extruderAutoWidth,1
;   extruderWidth,0.48
;   extrusionMultiplier,0.99
;   extruderUseRetract,1
;   extruderRetractionDistance,6.5
;   extruderExtraRestartDistance,-0.2
;   extruderRetractionZLift,0
;   extruderRetractionSpeed,3600
;   extruderUseCoasting,1
;   extruderCoastingDistance,0.2
;   extruderUseWipe,0
;   extruderWipeDistance,4
;   primaryExtruder,0
;   layerHeight,0.3
;   topSolidLayers,3
;   bottomSolidLayers,3
;   perimeterOutlines,3
;   printPerimetersInsideOut,1
;   startPointOption,3
;   startPointOriginX,0
;   startPointOriginY,500
;   sequentialIslands,0
;   spiralVaseMode,0
;   firstLayerHeightPercentage,130
;   firstLayerWidthPercentage,120
;   firstLayerUnderspeed,0.6
;   useRaft,0
;   raftExtruder,0
;   raftTopLayers,3
;   raftBaseLayers,2
;   raftOffset,3
;   raftSeparationDistance,0.14
;   raftTopInfill,100
;   aboveRaftSpeedMultiplier,0.3
;   useSkirt,0
;   skirtExtruder,0
;   skirtLayers,1
;   skirtOutlines,2
;   skirtOffset,0.2
;   usePrimePillar,0
;   primePillarExtruder,999
;   primePillarWidth,12
;   primePillarLocation,7
;   primePillarSpeedMultiplier,1
;   useOozeShield,0
;   oozeShieldExtruder,999
;   oozeShieldOffset,2
;   oozeShieldOutlines,1
;   oozeShieldSidewallShape,1
;   oozeShieldSidewallAngle,30
;   oozeShieldSpeedMultiplier,1
;   infillExtruder,0
;   internalInfillPattern,Fast Honeycomb
;   externalInfillPattern,Rectilinear
;   infillPercentage,15
;   outlineOverlapPercentage,35
;   infillExtrusionWidthPercentage,120
;   minInfillLength,4
;   infillLayerInterval,1
;   internalInfillAngles,45,-45
;   overlapInternalInfillAngles,1
;   externalInfillAngles,45,-45
;   generateSupport,1
;   supportExtruder,0
;   supportInfillPercentage,40
;   supportExtraInflation,1
;   supportBaseLayers,0
;   denseSupportExtruder,0
;   denseSupportLayers,0
;   denseSupportInfillPercentage,60
;   supportLayerInterval,1
;   supportHorizontalPartOffset,0.3
;   supportUpperSeparationLayers,2
;   supportLowerSeparationLayers,1
;   supportType,0
;   supportGridSpacing,3.5
;   maxOverhangAngle,45
;   supportAngles,0
;   temperatureName,Heated Bed,Primary Extruder
;   temperatureNumber,0,0
;   temperatureSetpointCount,1,1
;   temperatureSetpointLayers,1,1
;   temperatureSetpointTemperatures,85,240
;   temperatureStabilizeAtStartup,1,1
;   temperatureHeatedBed,1,0
;   temperatureRelayBetweenLayers,0,0
;   temperatureRelayBetweenLoops,0,0
;   fanLayers,1,2,3
;   fanSpeeds,0,25,35
;   blipFanToFullPower,0
;   adjustSpeedForCooling,1
;   minSpeedLayerTime,20
;   minCoolingSpeedSlowdown,30
;   increaseFanForCooling,1
;   minFanLayerTime,30
;   maxCoolingFanSpeed,50
;   increaseFanForBridging,1
;   bridgingFanSpeed,100
;   use5D,1
;   relativeEdistances,0
;   allowEaxisZeroing,1
;   independentExtruderAxes,0
;   includeM10123,0
;   stickySupport,1
;   applyToolheadOffsets,0
;   gcodeXoffset,0
;   gcodeYoffset,0
;   gcodeZoffset,0
;   overrideMachineDefinition,1
;   machineTypeOverride,0
;   strokeXoverride,230
;   strokeYoverride,230
;   strokeZoverride,255
;   originOffsetXoverride,0
;   originOffsetYoverride,0
;   originOffsetZoverride,0
;   homeXdirOverride,-1
;   homeYdirOverride,-1
;   homeZdirOverride,-1
;   flipXoverride,1
;   flipYoverride,-1
;   flipZoverride,1
;   toolheadOffsets,0,0|0,0|0,0|0,0|0,0|0,0
;   overrideFirmwareConfiguration,1
;   firmwareTypeOverride,RepRap (Marlin/Repetier/Sprinter)
;   GPXconfigOverride,r2
;   baudRateOverride,115200
;   overridePrinterModels,1
;   printerModelsOverride
;   startingGcode,G28 ; home all axes,M117 Purging Extruder...,M204 P500 T1000,M205 X10 Y10 ; set jerk x/y=10,G1 Z1.0 F3000 ; lift Z,G1 X0.2 Y25 Z0.2 F3000.0 ; move to start-line position,G92 E0 ; reset extruder,G1 X0.2 Y150.0 F1000.0 E15 ; draw 1st line,G1 X0.7 Y150.0 F3000.0 ; move to side 0.5mm,G1 X0.7 Y50 F1000.0 E30 ; draw 2nd line,G1 X0.7 Y25 F5000.0 ; quick wipe,M117 Printing!,,; Default S3D CR-10 Startup,; G28 ; home all axes,; G1 Z5 F3000 ; lift,; G1 X20 Y2 F1500 ; avoid binder clips,; G1 Z0.2 F3000 ; get ready to prime,; G92 E0 ; reset extrusion distance,; G1 X120 E10 F600 ; prime nozzle,; G1 X150 F5000 ; quick wipe,
;   layerChangeGcode,
;   retractionGcode,
;   toolChangeGcode,
;   endingGcode,M117 Print Complete!,M104 S0 ; turn off extruder,M140 S0 ; turn off bed,G1 X0 Y295 F1000 ; move finished print out front,M84 ; disable motors,M106 S0 ; turn off cooling fan,,; play song,M300 S294 P200 ;D4: 294,M300 S588 P200 ;D5: 588,M300 S440 P200 ;A4: 440,M300 S392 P200 ;G4: 392,M300 S784 P200 ;G5: 784,M300 S440 P200 ;A4: 440,M300 S740 P200 ;F#5: 740,M300 S440 P200 ;A4: 440,,; Default S3D CR-10 Ending Script,; G28 X0 ; home x axis,; M106 S0 ; turn off cooling fan,; M104 S0 ; turn off extruder,; M140 S0 ; turn off bed,; M84 ; disable motors,
;   exportFileFormat,gcode
;   celebration,0
;   celebrationSong,Star Wars
;   postProcessing,,
;   defaultSpeed,3000
;   outlineUnderspeed,0.8
;   solidInfillUnderspeed,0.9
;   supportUnderspeed,1
;   rapidXYspeed,9000
;   rapidZspeed,1002
;   minBridgingArea,50
;   bridgingExtraInflation,0
;   bridgingExtrusionMultiplier,0.9
;   bridgingSpeedMultiplier,1
;   useFixedBridgingAngle,0
;   fixedBridgingAngle,0
;   applyBridgingToPerimeters,0
;   filamentDiameters,1.75|1.75|1.75|1.75|1.75|1.75
;   filamentPricesPerKg,46|46|46|46|46|46
;   filamentDensities,1.25|1.25|1.25|1.25|1.25|1.25
;   useMinPrintHeight,0
;   minPrintHeight,0
;   useMaxPrintHeight,0
;   maxPrintHeight,0
;   useDiaphragm,0
;   diaphragmLayerInterval,20
;   robustSlicing,1
;   mergeAllIntoSolid,0
;   onlyRetractWhenCrossingOutline,0
;   retractBetweenLayers,1
;   useRetractionMinTravel,1
;   retractionMinTravel,3
;   retractWhileWiping,1
;   onlyWipeOutlines,1
;   avoidCrossingOutline,1
;   maxMovementDetourFactor,3
;   toolChangeRetractionDistance,12
;   toolChangeExtraRestartDistance,-0.5
;   toolChangeRetractionSpeed,600
;   externalThinWallType,0
;   internalThinWallType,2
;   thinWallAllowedOverlapPercentage,15
;   singleExtrusionMinLength,1
;   singleExtrusionMinPrintingWidthPercentage,50
;   singleExtrusionMaxPrintingWidthPercentage,200
;   singleExtrusionEndpointExtension,0.2
;   horizontalSizeCompensation,0
G90
M82
M106 S0
M140 S85
M190 S85
M104 S240 T0
M109 S240 T0
G28 ; home all axes
M117 Purging Extruder...
M204 P500 T1000
M205 X10 Y10 ; set jerk x/y=10
G1 Z1.0 F3000 ; lift Z
G1 X0.2 Y25 Z0.2 F3000.0 ; move to start-line position
G92 E0 ; reset extruder
G1 X0.2 Y150.0 F1000.0 E15 ; draw 1st line
G1 X0.7 Y150.0 F3000.0 ; move to side 0.5mm
G1 X0.7 Y50 F1000.0 E30 ; draw 2nd line
G1 X0.7 Y25 F5000.0 ; quick wipe
M117 Printing!
; Default S3D CR-10 Startup
; G28 ; home all axes
; G1 Z5 F3000 ; lift
; G1 X20 Y2 F1500 ; avoid binder clips
; G1 Z0.2 F3000 ; get ready to prime
; G92 E0 ; reset extrusion distance
; G1 X120 E10 F600 ; prime nozzle
; G1 X150 F5000 ; quick wipe
G92 E0
G1 E-6.5000 F3600
G1 Z0.390 F1002
; process Process1
; layer 1, Z = 0.390
T0
; tool H0.390 W0.576
; inner perimeter
G1 X79.140 Y110.160 F9000
G1 E-0.2000 F1080
G92 E0
G1 X79.140 Y109.421 E0.0683 F1620
G1 X79.413 Y109.400 E0.0936
G1 X81.279 Y108.965 E0.2708
G1 X83.050 Y108.250 E0.4474
G1 X84.680 Y107.272 E0.6231
G1 X86.129 Y106.057 E0.7980
G1 X87.356 Y104.632 E0.9718
G1 X88.330 Y103.035 E1.1448
G1 X89.007 Y101.343 E1.3133
G1 X89.339 Y101.343 E1.3440
G1 X89.339 Y99.840 E1.4830
G1 X110.908 Y99.840 E3.4773
G1 X111.224 Y101.305 E3.6158
G1 X111.916 Y103.035 E3.7881
G1 X112.896 Y104.639 E3.9619
G1 X114.117 Y106.057 E4.1350
G1 X115.568 Y107.274 E4.3100
G1 X117.196 Y108.250 E4.4856
G1 X118.967 Y108.965 E4.6621
G1 X120.860 Y109.407 E4.8419
G1 X120.860 Y110.160 E4.9115
G1 X108.342 Y110.160 E6.0689
G1 X108.342 Y102.158 E6.8088
G1 X92.858 Y102.158 E8.2404
G1 X92.858 Y110.160 E8.9803
G1 X79.340 Y110.160 E10.2302
G1 X79.140 Y110.160 F1620
G1 X78.564 Y110.736 F9000
G92 E0
G1 X78.564 Y108.888 E0.1709 F1620
G1 X79.325 Y108.829 E0.2414
G1 X81.105 Y108.414 E0.4104
G1 X82.793 Y107.732 E0.5788
G1 X84.345 Y106.802 E0.7461
G1 X85.723 Y105.646 E0.9124
G1 X86.889 Y104.292 E1.0776
G1 X87.813 Y102.776 E1.2418
G1 X88.469 Y101.136 E1.4051
G1 X88.549 Y100.767 E1.4400
G1 X88.763 Y100.767 E1.4598
G1 X88.763 Y99.788 E1.5503
G1 X88.804 Y99.587 E1.5693
G1 X88.845 Y99.503 E1.5780
G1 X88.900 Y99.423 E1.5869
G1 X88.964 Y99.355 E1.5955
G1 X89.079 Y99.264 E1.6091
G1 X111.222 Y99.264 E3.6564
G1 X111.337 Y99.355 E3.6700
G1 X111.410 Y99.433 E3.6799
G1 X111.777 Y101.136 E3.8410
G1 X112.433 Y102.776 E4.0043
G1 X113.363 Y104.299 E4.1692
G1 X114.523 Y105.646 E4.3336
G1 X115.903 Y106.803 E4.5002
G1 X117.454 Y107.733 E4.6673
G1 X119.141 Y108.414 E4.8356
G1 X120.920 Y108.829 E5.0045
G1 X121.436 Y108.869 E5.0523
G1 X121.436 Y110.736 E5.2249
G1 X107.766 Y110.736 E6.4889
G1 X107.766 Y102.734 E7.2287
G1 X93.434 Y102.734 E8.5539
G1 X93.434 Y110.736 E9.2937
G1 X78.764 Y110.736 E10.6501
G1 X78.564 Y110.736 F1620
; outer perimeter
G1 X77.988 Y111.312 F9000
G92 E0
G1 X77.988 Y108.354 E0.2735 F1440
G1 X79.237 Y108.258 E0.3893
G1 X80.930 Y107.863 E0.5500
G1 X82.535 Y107.215 E0.7101
G1 X84.010 Y106.331 E0.8690
G1 X85.317 Y105.235 E1.0268
G1 X86.422 Y103.952 E1.1833
G1 X87.296 Y102.517 E1.3387
G1 X87.916 Y100.967 E1.4930
G1 X88.084 Y100.191 E1.5665
G1 X88.187 Y100.191 E1.5760
G1 X88.187 Y99.730 E1.6186
G1 X88.245 Y99.444 E1.6456
G1 X88.267 Y99.373 E1.6525
G1 X88.346 Y99.211 E1.6692
G1 X88.450 Y99.061 E1.6860
G1 X88.573 Y98.930 E1.7027
G1 X88.716 Y98.817 E1.7195
G1 X88.873 Y98.726 E1.7363
G1 X88.971 Y98.688 E1.7460
G1 X111.329 Y98.688 E3.8132
G1 X111.428 Y98.727 E3.8231
G1 X111.586 Y98.818 E3.8399
G1 X111.728 Y98.930 E3.8567
G1 X111.851 Y99.062 E3.8733
G1 X111.954 Y99.211 E3.8901
G1 X111.976 Y99.256 E3.8947
G1 X111.979 Y99.343 E3.9027
G1 X112.330 Y100.967 E4.0564
G1 X112.950 Y102.517 E4.2107
G1 X113.830 Y103.958 E4.3669
G1 X114.929 Y105.235 E4.5226
G1 X116.239 Y106.333 E4.6806
G1 X117.711 Y107.216 E4.8394
G1 X119.316 Y107.863 E4.9994
G1 X121.008 Y108.258 E5.1600
G1 X122.012 Y108.336 E5.2531
G1 X122.012 Y111.312 E5.5283
G1 X104.790 Y111.312 E7.1207
G1 X104.790 Y109.889 E7.2523
G1 X107.190 Y109.889 E7.4742
G1 X107.190 Y103.310 E8.0825
G1 X94.010 Y103.310 E9.3011
G1 X94.010 Y109.889 E9.9094
G1 X96.710 Y109.889 E10.1590
G1 X96.710 Y111.312 E10.2906
G1 X78.188 Y111.312 E12.0032
G1 X77.988 Y111.312 F1440
G92 E0
G1 E-6.5000 F3600
; gap fill
G1 X93.865 Y110.269 F9000
G1 E-0.2000 F3600
G92 E0
G1 X94.528 Y110.932 E0.0867 F1620
G1 X95.342 Y110.932 E0.1620
G1 X94.680 Y110.269 E0.2486
G1 X95.494 Y110.269 E0.3239
G1 X96.157 Y110.932 E0.4106
G1 X96.330 Y110.932 E0.4266
G1 X96.330 Y110.460 E0.4702
G1 X96.330 Y110.290 F1620
G1 X96.309 Y110.269 F1620
G92 E0
G1 E-6.5000 F3600
G1 X105.932 Y110.932 F9000
G1 E-0.2000 F3600
G92 E0
G1 X105.269 Y110.269 E0.0867 F1620
G1 X106.084 Y110.269 E0.1620
G1 X106.746 Y110.932 E0.2486
G1 X107.386 Y110.932 E0.3077
G1 X107.386 Y110.757 E0.3239
G1 X107.040 Y110.411 E0.3692
G1 X106.898 Y110.269 F1620
; solid layer
G1 X108.859 Y109.786 F9000
G92 E0
G1 X108.716 Y109.643 E0.0186 F1620
G1 X108.716 Y108.829 E0.0939
G1 X109.673 Y109.786 E0.2190
G1 X110.488 Y109.786 E0.2943
G1 X108.716 Y108.014 E0.5259
G1 X108.716 Y107.200 E0.6013
G1 X111.302 Y109.786 E0.9394
G1 X112.117 Y109.786 E1.0147
G1 X108.716 Y106.385 E1.4593
G1 X108.716 Y105.571 E1.5347
G1 X112.931 Y109.786 E2.0858
G1 X113.746 Y109.786 E2.1611
G1 X108.716 Y104.756 E2.8188
G1 X108.716 Y103.941 E2.8941
G1 X114.561 Y109.786 E3.6583
G1 X115.375 Y109.786 E3.7336
G1 X108.858 Y103.268 E4.5858
G1 X108.716 Y103.127 F1620
G92 E0
G1 E-6.5000 F3600
G1 X109.877 Y100.214 F9000
G1 E-0.2000 F3600
G92 E0
G1 X110.806 Y101.143 E0.1215 F1620
G1 X110.865 Y101.415 E0.1472
G1 X111.266 Y102.418 E0.2470
G1 X109.062 Y100.214 E0.5351
G1 X108.248 Y100.214 E0.6104
G1 X112.119 Y104.085 E1.1166
G1 X112.592 Y104.860 E1.2006
G1 X113.853 Y106.325 E1.3793
G1 X115.350 Y107.580 E1.5599
G1 X116.007 Y107.973 E1.6307
G1 X117.819 Y109.786 E1.8676
G1 X118.634 Y109.786 E1.9429
G1 X117.709 Y108.861 E2.0639
G1 X118.854 Y109.323 E2.1781
G1 X119.026 Y109.363 E2.1944
G1 X119.448 Y109.786 E2.2496
G1 X120.263 Y109.786 E2.3250
G1 X120.230 Y109.753 E2.3293
G1 X120.088 Y109.611 F1620
G92 E0
G1 E-6.5000 F3600
G1 X107.433 Y100.214 F9000
G1 E-0.2000 F3600
G92 E0
G1 X117.004 Y109.786 E1.2515 F1620
G1 X116.190 Y109.786 E1.3268
G1 X108.716 Y102.312 E2.3041
G1 X108.716 Y101.784 E2.3529
G1 X108.188 Y101.784 E2.4018
G1 X106.619 Y100.214 E2.6070
G1 X105.804 Y100.214 E2.6823
G1 X107.373 Y101.784 E2.8875
G1 X106.559 Y101.784 E2.9628
G1 X104.989 Y100.214 E3.1680
G1 X104.175 Y100.214 E3.2433
G1 X105.744 Y101.784 E3.4485
G1 X104.929 Y101.784 E3.5238
G1 X103.360 Y100.214 E3.7290
G1 X102.546 Y100.214 E3.8043
G1 X104.115 Y101.784 E4.0095
G1 X103.300 Y101.784 E4.0848
G1 X101.731 Y100.214 E4.2900
G1 X100.917 Y100.214 E4.3653
G1 X102.486 Y101.784 E4.5705
G1 X101.671 Y101.784 E4.6458
G1 X100.102 Y100.214 E4.8510
G1 X99.287 Y100.214 E4.9263
G1 X100.857 Y101.784 E5.1315
G1 X100.042 Y101.784 E5.2068
G1 X98.473 Y100.214 E5.4120
G1 X97.658 Y100.214 E5.4873
G1 X99.227 Y101.784 E5.6925
G1 X98.413 Y101.784 E5.7678
G1 X96.844 Y100.214 E5.9730
G1 X96.029 Y100.214 E6.0483
G1 X97.598 Y101.784 E6.2535
G1 X96.784 Y101.784 E6.3288
G1 X95.214 Y100.214 E6.5340
G1 X94.400 Y100.214 E6.6093
G1 X95.969 Y101.784 E6.8145
G1 X95.154 Y101.784 E6.8898
G1 X93.585 Y100.214 E7.0950
G1 X92.771 Y100.214 E7.1703
G1 X94.340 Y101.784 E7.3755
G1 X93.525 Y101.784 E7.4508
G1 X91.956 Y100.214 E7.6560
G1 X91.141 Y100.214 E7.7313
G1 X92.711 Y101.784 E7.9365
G1 X92.484 Y101.784 E7.9575
G1 X92.484 Y102.371 E8.0119
G1 X90.327 Y100.214 E8.2939
G1 X89.713 Y100.214 E8.3506
G1 X89.713 Y100.415 E8.3692
G1 X92.484 Y103.186 E8.7314
G1 X92.484 Y104.000 E8.8067
G1 X89.713 Y101.230 E9.1690
G1 X89.713 Y101.717 E9.2140
G1 X89.386 Y101.717 E9.2443
G1 X92.484 Y104.815 E9.6493
G1 X92.484 Y105.629 E9.7246
G1 X89.064 Y102.209 E10.1718
G1 X88.831 Y102.791 E10.2297
G1 X92.484 Y106.444 E10.7074
G1 X92.484 Y107.259 E10.7827
G1 X88.576 Y103.351 E11.2937
G1 X88.267 Y103.857 E11.3485
G1 X92.484 Y108.073 E11.8998
G1 X92.484 Y108.888 E11.9751
G1 X87.959 Y104.363 E12.5667
G1 X87.660 Y104.853 E12.6198
G1 X87.648 Y104.867 E12.6215
G1 X92.484 Y109.702 E13.2538
G1 X92.484 Y109.786 E13.2615
G1 X91.752 Y109.786 E13.3291
G1 X87.271 Y105.305 E13.9150
G1 X86.894 Y105.742 E13.9684
G1 X90.938 Y109.786 E14.4971
G1 X90.123 Y109.786 E14.5724
G1 X86.517 Y106.180 E15.0439
G1 X86.393 Y106.325 E15.0616
G1 X86.096 Y106.573 E15.0974
G1 X89.308 Y109.786 E15.5174
G1 X88.494 Y109.786 E15.5927
G1 X85.653 Y106.945 E15.9642
G1 X85.210 Y107.317 E16.0176
G1 X87.679 Y109.786 E16.3405
G1 X86.865 Y109.786 E16.4158
G1 X84.748 Y107.669 E16.6926
G1 X84.238 Y107.974 E16.7475
G1 X86.050 Y109.786 E16.9844
G1 X85.236 Y109.786 E17.0597
G1 X83.729 Y108.279 E17.2567
G1 X83.220 Y108.585 E17.3116
G1 X84.421 Y109.786 E17.4687
G1 X83.606 Y109.786 E17.5440
G1 X82.640 Y108.819 E17.6703
G1 X82.060 Y109.053 E17.7282
G1 X82.792 Y109.786 E17.8239
G1 X81.977 Y109.786 E17.8993
G1 X81.479 Y109.288 E17.9643
G1 X81.392 Y109.323 E17.9730
G1 X80.831 Y109.454 E18.0263
G1 X81.163 Y109.786 E18.0697
G1 X80.348 Y109.786 E18.1450
G1 X80.170 Y109.608 E18.1682
G1 X79.678 Y109.723 E18.2150
G1 X79.514 Y109.761 F1620
G1 X79.514 Y109.767 F1620
G1 X79.533 Y109.786 F1620
G92 E0
G1 E-6.5000 F3600
; layer 2, Z = 0.690
M106 S127
; tool H0.300 W0.480
; inner perimeter
G1 X78.900 Y110.400 F9000
G1 Z0.690 F1002
G1 E-0.2000 F3600
G92 E0
G1 X78.900 Y109.199 E0.0712 F2306
G1 X79.376 Y109.162 E0.0995
G1 X81.206 Y108.735 E0.2109
G1 X82.945 Y108.033 E0.3220
G1 X84.540 Y107.076 E0.4323
G1 X85.960 Y105.886 E0.5421
G1 X87.161 Y104.491 E0.6512
G1 X88.115 Y102.927 E0.7598
