; G-Code generated by Simplify3D(R) Version 4.0.0
; Nov 18, 2018 at 2:10:35 PM
; Settings Summary
;   processName,ABS
;   applyToModels,Vertical Phone Rack (Pixel)
;   profileName,ABS (modified)
;   profileVersion,2018-11-14 05:17:17
;   baseProfile,Creality CR-10
;   printMaterial,PETG
;   printQuality,Fast
;   printExtruders,
;   extruderName,Primary Extruder
;   extruderToolheadNumber,0
;   extruderDiameter,0.4
;   extruderAutoWidth,1
;   extruderWidth,0.48
;   extrusionMultiplier,0.99
;   extruderUseRetract,1
;   extruderRetractionDistance,6.5
;   extruderExtraRestartDistance,-0.2
;   extruderRetractionZLift,0
;   extruderRetractionSpeed,3600
;   extruderUseCoasting,1
;   extruderCoastingDistance,0.2
;   extruderUseWipe,0
;   extruderWipeDistance,4
;   primaryExtruder,0
;   layerHeight,0.3
;   topSolidLayers,3
;   bottomSolidLayers,3
;   perimeterOutlines,3
;   printPerimetersInsideOut,1
;   startPointOption,3
;   startPointOriginX,0
;   startPointOriginY,500
;   sequentialIslands,0
;   spiralVaseMode,0
;   firstLayerHeightPercentage,130
;   firstLayerWidthPercentage,120
;   firstLayerUnderspeed,0.6
;   useRaft,0
;   raftExtruder,0
;   raftTopLayers,3
;   raftBaseLayers,2
;   raftOffset,3
;   raftSeparationDistance,0.14
;   raftTopInfill,100
;   aboveRaftSpeedMultiplier,0.3
;   useSkirt,1
;   skirtExtruder,0
;   skirtLayers,1
;   skirtOutlines,3
;   skirtOffset,0.2
;   usePrimePillar,0
;   primePillarExtruder,999
;   primePillarWidth,12
;   primePillarLocation,7
;   primePillarSpeedMultiplier,1
;   useOozeShield,0
;   oozeShieldExtruder,999
;   oozeShieldOffset,2
;   oozeShieldOutlines,1
;   oozeShieldSidewallShape,1
;   oozeShieldSidewallAngle,30
;   oozeShieldSpeedMultiplier,1
;   infillExtruder,0
;   internalInfillPattern,Triangular
;   externalInfillPattern,Rectilinear
;   infillPercentage,20
;   outlineOverlapPercentage,35
;   infillExtrusionWidthPercentage,120
;   minInfillLength,4
;   infillLayerInterval,1
;   internalInfillAngles,0,60,-60
;   overlapInternalInfillAngles,1
;   externalInfillAngles,45,-45
;   generateSupport,1
;   supportExtruder,0
;   supportInfillPercentage,28
;   supportExtraInflation,1
;   supportBaseLayers,0
;   denseSupportExtruder,0
;   denseSupportLayers,0
;   denseSupportInfillPercentage,60
;   supportLayerInterval,1
;   supportHorizontalPartOffset,0.3
;   supportUpperSeparationLayers,2
;   supportLowerSeparationLayers,1
;   supportType,0
;   supportGridSpacing,3.5
;   maxOverhangAngle,45
;   supportAngles,0
;   temperatureName,Heated Bed,Primary Extruder
;   temperatureNumber,0,0
;   temperatureSetpointCount,1,1
;   temperatureSetpointLayers,1,1
;   temperatureSetpointTemperatures,85,230
;   temperatureStabilizeAtStartup,1,1
;   temperatureHeatedBed,1,0
;   temperatureRelayBetweenLayers,0,0
;   temperatureRelayBetweenLoops,0,0
;   fanLayers,1,2,3
;   fanSpeeds,0,0,0
;   blipFanToFullPower,0
;   adjustSpeedForCooling,1
;   minSpeedLayerTime,20
;   minCoolingSpeedSlowdown,30
;   increaseFanForCooling,0
;   minFanLayerTime,30
;   maxCoolingFanSpeed,50
;   increaseFanForBridging,0
;   bridgingFanSpeed,100
;   use5D,1
;   relativeEdistances,0
;   allowEaxisZeroing,1
;   independentExtruderAxes,0
;   includeM10123,0
;   stickySupport,1
;   applyToolheadOffsets,0
;   gcodeXoffset,0
;   gcodeYoffset,0
;   gcodeZoffset,0
;   overrideMachineDefinition,1
;   machineTypeOverride,0
;   strokeXoverride,230
;   strokeYoverride,230
;   strokeZoverride,255
;   originOffsetXoverride,0
;   originOffsetYoverride,0
;   originOffsetZoverride,0
;   homeXdirOverride,-1
;   homeYdirOverride,-1
;   homeZdirOverride,-1
;   flipXoverride,1
;   flipYoverride,-1
;   flipZoverride,1
;   toolheadOffsets,0,0|0,0|0,0|0,0|0,0|0,0
;   overrideFirmwareConfiguration,1
;   firmwareTypeOverride,RepRap (Marlin/Repetier/Sprinter)
;   GPXconfigOverride,r2
;   baudRateOverride,115200
;   overridePrinterModels,1
;   printerModelsOverride
;   startingGcode,G28 ; home all axes,M117 Purging Extruder...,M204 P500 T1000,M205 X10 Y10 ; set jerk x/y=10,G1 Z1.0 F3000 ; lift Z,G1 X0.2 Y25 Z0.2 F3000.0 ; move to start-line position,G92 E0 ; reset extruder,G1 X0.2 Y150.0 F1000.0 E15 ; draw 1st line,G1 X0.7 Y150.0 F3000.0 ; move to side 0.5mm,G1 X0.7 Y50 F1000.0 E30 ; draw 2nd line,G1 X0.7 Y25 F5000.0 ; quick wipe,M117 Printing!,,; Default S3D CR-10 Startup,; G28 ; home all axes,; G1 Z5 F3000 ; lift,; G1 X20 Y2 F1500 ; avoid binder clips,; G1 Z0.2 F3000 ; get ready to prime,; G92 E0 ; reset extrusion distance,; G1 X120 E10 F600 ; prime nozzle,; G1 X150 F5000 ; quick wipe,
;   layerChangeGcode,
;   retractionGcode,
;   toolChangeGcode,
;   endingGcode,M117 Print Complete!,M104 S0 ; turn off extruder,M140 S0 ; turn off bed,G1 X0 Y295 F1000 ; move finished print out front,M84 ; disable motors,M106 S0 ; turn off cooling fan,,; play song,M300 S294 P200 ;D4: 294,M300 S588 P200 ;D5: 588,M300 S440 P200 ;A4: 440,M300 S392 P200 ;G4: 392,M300 S784 P200 ;G5: 784,M300 S440 P200 ;A4: 440,M300 S740 P200 ;F#5: 740,M300 S440 P200 ;A4: 440,,; Default S3D CR-10 Ending Script,; G28 X0 ; home x axis,; M106 S0 ; turn off cooling fan,; M104 S0 ; turn off extruder,; M140 S0 ; turn off bed,; M84 ; disable motors,
;   exportFileFormat,gcode
;   celebration,0
;   celebrationSong,Star Wars
;   postProcessing,,
;   defaultSpeed,2800
;   outlineUnderspeed,0.8
;   solidInfillUnderspeed,0.9
;   supportUnderspeed,1
;   rapidXYspeed,9000
;   rapidZspeed,1002
;   minBridgingArea,50
;   bridgingExtraInflation,0
;   bridgingExtrusionMultiplier,0.9
;   bridgingSpeedMultiplier,1
;   useFixedBridgingAngle,0
;   fixedBridgingAngle,0
;   applyBridgingToPerimeters,0
;   filamentDiameters,1.75|1.75|1.75|1.75|1.75|1.75
;   filamentPricesPerKg,46|46|46|46|46|46
;   filamentDensities,1.25|1.25|1.25|1.25|1.25|1.25
;   useMinPrintHeight,0
;   minPrintHeight,0
;   useMaxPrintHeight,0
;   maxPrintHeight,0
;   useDiaphragm,0
;   diaphragmLayerInterval,20
;   robustSlicing,1
;   mergeAllIntoSolid,0
;   onlyRetractWhenCrossingOutline,0
;   retractBetweenLayers,1
;   useRetractionMinTravel,1
;   retractionMinTravel,3
;   retractWhileWiping,1
;   onlyWipeOutlines,1
;   avoidCrossingOutline,1
;   maxMovementDetourFactor,3
;   toolChangeRetractionDistance,12
;   toolChangeExtraRestartDistance,-0.5
;   toolChangeRetractionSpeed,600
;   externalThinWallType,0
;   internalThinWallType,2
;   thinWallAllowedOverlapPercentage,15
;   singleExtrusionMinLength,1
;   singleExtrusionMinPrintingWidthPercentage,50
;   singleExtrusionMaxPrintingWidthPercentage,200
;   singleExtrusionEndpointExtension,0.2
;   horizontalSizeCompensation,0
G90
M82
M106 S0
M140 S85
M190 S85
M104 S230 T0
M109 S230 T0
G28 ; home all axes
M117 Purging Extruder...
M204 P500 T1000
M205 X10 Y10 ; set jerk x/y=10
G1 Z1.0 F3000 ; lift Z
G1 X0.2 Y25 Z0.2 F3000.0 ; move to start-line position
G92 E0 ; reset extruder
G1 X0.2 Y150.0 F1000.0 E15 ; draw 1st line
G1 X0.7 Y150.0 F3000.0 ; move to side 0.5mm
G1 X0.7 Y50 F1000.0 E30 ; draw 2nd line
G1 X0.7 Y25 F5000.0 ; quick wipe
M117 Printing!
; Default S3D CR-10 Startup
; G28 ; home all axes
; G1 Z5 F3000 ; lift
; G1 X20 Y2 F1500 ; avoid binder clips
; G1 Z0.2 F3000 ; get ready to prime
; G92 E0 ; reset extrusion distance
; G1 X120 E10 F600 ; prime nozzle
; G1 X150 F5000 ; quick wipe
G92 E0
G1 E-6.5000 F3600
G1 Z0.390 F1002
; process ABS
; layer 1, Z = 0.390
T0
; tool H0.390 W0.576
; skirt
G1 X80.483 Y82.246 F9000
G1 E-0.2000 F1080
G92 E0
G1 X80.495 Y82.235 E0.0014 F1680
G1 X82.029 Y80.778 E0.1971
G1 X82.041 Y80.767 E0.1986
G1 X82.057 Y80.753 E0.2006
G1 X82.068 Y80.743 E0.2019
G1 X83.676 Y79.370 E0.3974
G1 X83.688 Y79.359 E0.3989
G1 X83.704 Y79.346 E0.4008
G1 X83.717 Y79.337 E0.4023
G1 X85.395 Y78.049 E0.5979
G1 X85.408 Y78.040 E0.5993
G1 X85.424 Y78.027 E0.6012
G1 X85.437 Y78.018 E0.6027
G1 X86.829 Y77.062 E0.7588
G1 X87.496 Y77.022 E0.8206
G1 X87.699 Y77.129 E0.8419
G1 X142.955 Y77.129 E5.9509
G1 X143.134 Y77.156 E5.9676
G1 X143.365 Y77.228 E5.9900
G1 X143.528 Y77.307 E6.0067
G1 X144.563 Y78.018 E6.1228
G1 X144.576 Y78.027 E6.1243
G1 X144.592 Y78.040 E6.1262
G1 X144.605 Y78.049 E6.1276
G1 X146.284 Y79.337 E6.3233
G1 X146.297 Y79.347 E6.3248
G1 X146.313 Y79.360 E6.3267
G1 X146.325 Y79.370 E6.3281
G1 X147.932 Y80.743 E6.5236
G1 X147.944 Y80.754 E6.5251
G1 X147.959 Y80.768 E6.5270
G1 X147.971 Y80.778 E6.5285
G1 X149.505 Y82.235 E6.7241
G1 X149.517 Y82.246 E6.7255
G1 X149.531 Y82.260 E6.7274
G1 X149.542 Y82.272 E6.7289
G1 X150.999 Y83.806 E6.9245
G1 X151.009 Y83.818 E6.9259
G1 X151.023 Y83.833 E6.9279
G1 X151.034 Y83.845 E6.9293
G1 X152.407 Y85.452 E7.1248
G1 X152.417 Y85.464 E7.1262
G1 X152.430 Y85.480 E7.1282
G1 X152.440 Y85.493 E7.1297
G1 X153.728 Y87.172 E7.3253
G1 X153.737 Y87.185 E7.3268
G1 X153.750 Y87.201 E7.3287
G1 X153.759 Y87.214 E7.3301
G1 X154.957 Y88.957 E7.5256
G1 X154.965 Y88.970 E7.5271
G1 X154.977 Y88.987 E7.5290
G1 X154.985 Y89.001 E7.5305
G1 X156.090 Y90.805 E7.7261
G1 X156.099 Y90.819 E7.7277
G1 X156.109 Y90.837 E7.7296
G1 X156.117 Y90.850 E7.7310
G1 X157.125 Y92.708 E7.9264
G1 X157.132 Y92.721 E7.9278
G1 X157.142 Y92.740 E7.9297
G1 X157.149 Y92.755 E7.9313
G1 X158.060 Y94.664 E8.1269
G1 X158.066 Y94.678 E8.1283
G1 X158.075 Y94.697 E8.1302
G1 X158.081 Y94.712 E8.1317
G1 X158.890 Y96.666 E8.3272
G1 X158.896 Y96.680 E8.3286
G1 X158.903 Y96.699 E8.3305
G1 X158.909 Y96.714 E8.3321
G1 X159.615 Y98.708 E8.5276
G1 X159.620 Y98.723 E8.5290
G1 X159.626 Y98.743 E8.5310
G1 X159.631 Y98.758 E8.5325
G1 X160.232 Y100.786 E8.7281
G1 X160.236 Y100.801 E8.7295
G1 X160.242 Y100.822 E8.7314
G1 X160.246 Y100.837 E8.7329
G1 X160.740 Y102.894 E8.9285
G1 X160.743 Y102.909 E8.9299
G1 X160.747 Y102.929 E8.9318
G1 X160.751 Y102.945 E8.9333
G1 X161.136 Y105.025 E9.1290
G1 X161.139 Y105.041 E9.1305
G1 X161.142 Y105.062 E9.1324
G1 X161.145 Y105.077 E9.1338
G1 X161.420 Y107.174 E9.3294
G1 X161.422 Y107.191 E9.3309
G1 X161.425 Y107.211 E9.3328
G1 X161.426 Y107.226 E9.3342
G1 X161.592 Y109.335 E9.5298
G1 X161.593 Y109.351 E9.5313
G1 X161.594 Y109.372 E9.5332
G1 X161.594 Y109.387 E9.5346
G1 X161.650 Y111.497 E9.7298
G1 X161.650 Y111.508 E9.7308
G1 X161.650 Y111.519 E9.7318
G1 X161.650 Y111.523 E9.7322
G1 X161.650 Y147.553 E13.0635
G1 X161.649 Y147.591 E13.0671
G1 X161.645 Y147.644 E13.0719
G1 X161.642 Y147.683 E13.0756
G1 X161.495 Y148.797 E13.1794
G1 X161.480 Y148.874 E13.1867
G1 X161.453 Y148.975 E13.1964
G1 X161.427 Y149.050 E13.2037
G1 X160.987 Y150.112 E13.3100
G1 X160.952 Y150.182 E13.3173
G1 X160.900 Y150.273 E13.3270
G1 X160.856 Y150.338 E13.3342
G1 X160.156 Y151.249 E13.4404
G1 X160.105 Y151.308 E13.4476
G1 X160.031 Y151.382 E13.4573
G1 X159.972 Y151.434 E13.4645
G1 X159.061 Y152.133 E13.5707
G1 X158.996 Y152.177 E13.5780
G1 X158.905 Y152.229 E13.5877
G1 X158.835 Y152.264 E13.5950
G1 X157.773 Y152.704 E13.7013
G1 X157.698 Y152.730 E13.7085
G1 X157.597 Y152.757 E13.7182
G1 X157.519 Y152.772 E13.7255
G1 X156.407 Y152.918 E13.8293
G1 X156.368 Y152.922 E13.8329
G1 X156.316 Y152.926 E13.8377
G1 X156.276 Y152.927 E13.8414
G1 X136.428 Y152.927 E15.6765
G1 X135.987 Y152.744 E15.7207
G1 X135.533 Y152.290 E15.7801
G1 X135.350 Y151.849 E15.8243
G1 X135.350 Y149.205 E16.0686
G1 X135.533 Y148.764 E16.1128
G1 X135.987 Y148.310 E16.1722
G1 X136.428 Y148.127 E16.2164
G1 X143.850 Y148.127 E16.9026
G1 X143.850 Y131.552 E18.4351
G1 X143.802 Y130.200 E18.5602
G1 X143.659 Y128.880 E18.6829
G1 X143.424 Y127.574 E18.8057
G1 X143.096 Y126.287 E18.9285
G1 X142.676 Y125.028 E19.0512
G1 X142.169 Y123.801 E19.1740
G1 X141.574 Y122.613 E19.2967
G1 X140.896 Y121.471 E19.4195
G1 X140.140 Y120.381 E19.5423
G1 X139.306 Y119.348 E19.6650
G1 X138.401 Y118.376 E19.7878
G1 X137.429 Y117.471 E19.9106
G1 X136.396 Y116.637 E20.0333
G1 X135.306 Y115.881 E20.1560
G1 X134.164 Y115.203 E20.2788
G1 X133.091 Y114.666 E20.3897
G1 X133.013 Y114.744 E20.4000
G1 X132.572 Y114.927 E20.4441
G1 X96.928 Y114.927 E23.7397
G1 X96.632 Y114.804 E23.7694
G1 X95.836 Y115.203 E23.8516
G1 X94.694 Y115.881 E23.9744
G1 X93.604 Y116.637 E24.0972
G1 X92.571 Y117.471 E24.2199
G1 X91.599 Y118.376 E24.3427
G1 X90.694 Y119.348 E24.4655
G1 X89.860 Y120.381 E24.5882
G1 X89.104 Y121.471 E24.7109
G1 X88.425 Y122.614 E24.8338
G1 X87.831 Y123.801 E24.9565
G1 X87.324 Y125.028 E25.0793
G1 X86.904 Y126.287 E25.2020
G1 X86.576 Y127.574 E25.3248
G1 X86.341 Y128.880 E25.4475
G1 X86.198 Y130.200 E25.5703
G1 X86.150 Y131.552 E25.6953
G1 X86.150 Y148.127 E27.2279
G1 X93.572 Y148.127 E27.9141
G1 X94.013 Y148.310 E27.9582
G1 X94.467 Y148.764 E28.0177
G1 X94.650 Y149.205 E28.0618
G1 X94.650 Y151.849 E28.3062
G1 X94.467 Y152.290 E28.3503
G1 X94.013 Y152.744 E28.4098
G1 X93.572 Y152.927 E28.4539
G1 X73.724 Y152.927 E30.2891
G1 X73.684 Y152.926 E30.2927
G1 X73.632 Y152.922 E30.2976
G1 X73.593 Y152.918 E30.3012
G1 X72.481 Y152.772 E30.4049
G1 X72.403 Y152.757 E30.4122
G1 X72.302 Y152.730 E30.4219
G1 X72.227 Y152.704 E30.4292
G1 X71.165 Y152.264 E30.5355
G1 X71.095 Y152.229 E30.5428
G1 X71.004 Y152.177 E30.5525
G1 X70.939 Y152.133 E30.5597
G1 X70.028 Y151.434 E30.6659
G1 X69.969 Y151.382 E30.6732
G1 X69.895 Y151.308 E30.6828
G1 X69.843 Y151.249 E30.6901
G1 X69.144 Y150.338 E30.7963
G1 X69.100 Y150.273 E30.8036
G1 X69.048 Y150.182 E30.8132
G1 X69.013 Y150.112 E30.8205
G1 X68.573 Y149.049 E30.9268
G1 X68.547 Y148.974 E30.9341
G1 X68.520 Y148.873 E30.9438
G1 X68.505 Y148.796 E30.9511
G1 X68.359 Y147.683 E31.0549
G1 X68.355 Y147.644 E31.0585
G1 X68.351 Y147.592 E31.0633
G1 X68.350 Y147.553 E31.0670
G1 X68.350 Y111.522 E34.3984
G1 X68.350 Y111.515 E34.3990
G1 X68.350 Y111.505 E34.4000
G1 X68.350 Y111.496 E34.4008
G1 X68.406 Y109.387 E34.5959
G1 X68.406 Y109.372 E34.5973
G1 X68.407 Y109.351 E34.5992
G1 X68.408 Y109.335 E34.6007
G1 X68.574 Y107.226 E34.7963
G1 X68.576 Y107.210 E34.7978
G1 X68.578 Y107.189 E34.7997
G1 X68.580 Y107.174 E34.8011
G1 X68.855 Y105.077 E34.9967
G1 X68.858 Y105.062 E34.9981
G1 X68.861 Y105.041 E35.0000
G1 X68.864 Y105.025 E35.0015
G1 X69.249 Y102.945 E35.1971
G1 X69.253 Y102.929 E35.1986
G1 X69.257 Y102.909 E35.2006
G1 X69.260 Y102.894 E35.2020
G1 X69.754 Y100.837 E35.3976
G1 X69.758 Y100.822 E35.3990
G1 X69.763 Y100.801 E35.4010
G1 X69.768 Y100.786 E35.4024
G1 X70.369 Y98.758 E35.5980
G1 X70.374 Y98.742 E35.5996
G1 X70.380 Y98.722 E35.6015
G1 X70.385 Y98.708 E35.6029
G1 X71.091 Y96.715 E35.7984
G1 X71.096 Y96.700 E35.7999
G1 X71.104 Y96.680 E35.8018
G1 X71.110 Y96.666 E35.8032
G1 X71.919 Y94.712 E35.9987
G1 X71.925 Y94.697 E36.0003
G1 X71.934 Y94.678 E36.0022
G1 X71.940 Y94.664 E36.0036
G1 X72.851 Y92.755 E36.1992
G1 X72.858 Y92.740 E36.2007
G1 X72.868 Y92.721 E36.2027
G1 X72.875 Y92.708 E36.2041
G1 X73.883 Y90.850 E36.3995
G1 X73.891 Y90.837 E36.4009
G1 X73.901 Y90.819 E36.4028
G1 X73.909 Y90.805 E36.4043
G1 X75.015 Y89.000 E36.6000
G1 X75.024 Y88.986 E36.6016
G1 X75.035 Y88.969 E36.6035
G1 X75.044 Y88.956 E36.6049
G1 X76.241 Y87.214 E36.8003
G1 X76.250 Y87.201 E36.8018
G1 X76.263 Y87.185 E36.8037
G1 X76.272 Y87.172 E36.8052
G1 X77.560 Y85.493 E37.0008
G1 X77.570 Y85.480 E37.0023
G1 X77.583 Y85.464 E37.0043
G1 X77.593 Y85.452 E37.0057
G1 X78.966 Y83.845 E37.2012
G1 X78.976 Y83.833 E37.2026
G1 X78.991 Y83.818 E37.2045
G1 X79.001 Y83.806 E37.2060
G1 X80.345 Y82.390 E37.3865
G1 X80.458 Y82.272 F1680
G1 X80.469 Y82.260 F1680
G1 X80.483 Y82.246 F1680
G1 X80.821 Y82.587 F9000
G92 E0
G1 X80.827 Y82.581 E0.0009 F1680
G1 X82.357 Y81.129 E0.1959
G1 X82.365 Y81.122 E0.1968
G1 X82.375 Y81.112 E0.1982
G1 X82.382 Y81.106 E0.1990
G1 X83.985 Y79.737 E0.3939
G1 X83.992 Y79.731 E0.3948
G1 X84.004 Y79.721 E0.3962
G1 X84.011 Y79.716 E0.3970
G1 X85.685 Y78.432 E0.5921
G1 X85.692 Y78.426 E0.5929
G1 X85.704 Y78.418 E0.5943
G1 X85.712 Y78.412 E0.5952
G1 X86.991 Y77.533 E0.7386
G1 X87.391 Y77.509 E0.7757
G1 X87.581 Y77.609 E0.7956
G1 X142.919 Y77.609 E5.9122
G1 X143.026 Y77.625 E5.9222
G1 X143.188 Y77.675 E5.9379
G1 X143.286 Y77.723 E5.9479
G1 X144.288 Y78.412 E6.0604
G1 X144.296 Y78.418 E6.0613
G1 X144.308 Y78.426 E6.0626
G1 X144.315 Y78.432 E6.0635
G1 X145.989 Y79.716 E6.2585
G1 X145.997 Y79.722 E6.2594
G1 X146.008 Y79.731 E6.2608
G1 X146.015 Y79.737 E6.2616
