; G-Code generated by Simplify3D(R) Version 3.1.1
; Nov 14, 2018 at 1:40:41 PM
; Settings Summary
;   processName,Process2
;   applyToModels,WW_Maze_Coaster_ParadigmProps
;   profileName,MK3 TPU (modified)
;   profileVersion,2018-10-28 17:57:46
;   baseProfile,Default
;   printMaterial,TPU
;   printQuality,0.2mm (Normal)
;   printExtruders,
;   extruderName,Primary Extruder
;   extruderToolheadNumber,0
;   extruderDiameter,0.4
;   extruderAutoWidth,0
;   extruderWidth,0.45
;   extrusionMultiplier,1
;   extruderUseRetract,1
;   extruderRetractionDistance,2.8
;   extruderExtraRestartDistance,0
;   extruderRetractionZLift,0
;   extruderRetractionSpeed,6000
;   extruderUseCoasting,1
;   extruderCoastingDistance,2
;   extruderUseWipe,1
;   extruderWipeDistance,2
;   primaryExtruder,0
;   layerHeight,0.2
;   topSolidLayers,4
;   bottomSolidLayers,4
;   perimeterOutlines,3
;   printPerimetersInsideOut,1
;   startPointOption,3
;   startPointOriginX,0
;   startPointOriginY,0
;   startPointOriginZ,0
;   sequentialIslands,0
;   spiralVaseMode,0
;   firstLayerHeightPercentage,100
;   firstLayerWidthPercentage,100
;   firstLayerUnderspeed,0.5
;   useRaft,0
;   raftExtruder,0
;   raftLayers,3
;   raftOffset,3
;   raftSeparationDistance,0.14
;   raftInfill,85
;   disableRaftBaseLayers,0
;   useSkirt,0
;   skirtExtruder,0
;   skirtLayers,1
;   skirtOutlines,3
;   skirtOffset,8
;   usePrimePillar,0
;   primePillarExtruder,999
;   primePillarWidth,12
;   primePillarLocation,7
;   primePillarSpeedMultiplier,1
;   useOozeShield,0
;   oozeShieldExtruder,999
;   oozeShieldOffset,2
;   oozeShieldOutlines,1
;   oozeShieldSidewallShape,1
;   oozeShieldSidewallAngle,30
;   oozeShieldSpeedMultiplier,1
;   infillExtruder,0
;   internalInfillPattern,Rectilinear
;   externalInfillPattern,Rectilinear
;   infillPercentage,25
;   outlineOverlapPercentage,20
;   infillExtrusionWidthPercentage,100
;   minInfillLength,1
;   infillLayerInterval,1
;   infillAngles,45,-45
;   overlapInfillAngles,1
;   generateSupport,0
;   supportExtruder,0
;   supportInfillPercentage,15
;   supportExtraInflation,0.2
;   denseSupportLayers,2
;   denseSupportInfillPercentage,50
;   supportLayerInterval,1
;   supportHorizontalPartOffset,0.1
;   supportUpperSeparationLayers,2
;   supportLowerSeparationLayers,1
;   supportType,0
;   supportGridSpacing,3
;   maxOverhangAngle,35
;   supportAngles,90,45
;   temperatureName,Primary Extruder,Heated Bed
;   temperatureNumber,0,1
;   temperatureSetpointCount,1,1
;   temperatureSetpointLayers,1,1
;   temperatureSetpointTemperatures,220,50
;   temperatureStabilizeAtStartup,1,1
;   temperatureHeatedBed,0,1
;   temperatureRelayBetweenLayers,0,0
;   temperatureRelayBetweenLoops,0,0
;   fanLayers,1,2
;   fanSpeeds,0,100
;   blipFanToFullPower,0
;   adjustSpeedForCooling,1
;   minSpeedLayerTime,15
;   minCoolingSpeedSlowdown,20
;   increaseFanForCooling,0
;   minFanLayerTime,45
;   maxCoolingFanSpeed,100
;   increaseFanForBridging,1
;   bridgingFanSpeed,100
;   use5D,1
;   relativeEdistances,1
;   allowEaxisZeroing,1
;   independentExtruderAxes,0
;   includeM10123,0
;   stickySupport,1
;   applyToolheadOffsets,0
;   gcodeXoffset,0
;   gcodeYoffset,0
;   gcodeZoffset,0
;   overrideMachineDefinition,1
;   machineTypeOverride,0
;   strokeXoverride,200
;   strokeYoverride,210
;   strokeZoverride,250
;   originOffsetXoverride,0
;   originOffsetYoverride,0
;   originOffsetZoverride,0
;   homeXdirOverride,-1
;   homeYdirOverride,-1
;   homeZdirOverride,-1
;   flipXoverride,1
;   flipYoverride,-1
;   flipZoverride,1
;   toolheadOffsets,0,0|0,0|0,0|0,0|0,0|0,0
;   overrideFirmwareConfiguration,0
;   firmwareTypeOverride,RepRap (Marlin/Repetier/Sprinter)
;   GPXconfigOverride,r2
;   baudRateOverride,115200
;   overridePrinterModels,1
;   printerModelsOverride,Prusa_MK3_Assy_STL_-_FULL.STL
;   startingGcode,M115 U3.1.0 ; tell printer latest fw version,G 28 W ;,G1 Z100 ;,M900 K32 ; k value,M104 S[extruder0_temperature] T0 ; this will take the layer 1 temperature for extruder 0,M140 S[bed1_temperature] ; this will take the layer 1 temperature for bed 0,M190 S[bed1_temperature] ; wait for bed temp,M109 S[extruder0_temperature] T0 ; wait for extruder temp,G28 W ; home all without mesh bed level,G80 ; mesh bed leveling,G1 Y-3.0 F1000.0 ; go outside print area,G92 E0.0
;   layerChangeGcode,
;   retractionGcode,
;   toolChangeGcode,
;   endingGcode,G4 ; wait,M104 S0 ; turn off temperature,M140 S0 ; turn off heatbed,M107 ; turn off fan,G1 X0 Y200; home X axis,G1 F1000.0 ; set feed rate,G1 E-3 ; retract,M84 ; disable motors,,
;   exportFileFormat,gcode
;   celebration,0
;   celebrationSong,Star Wars
;   postProcessing,{REPLACE "; outer perimeter\n" "; outer perimeter\nM204 P800\n"},{REPLACE "; inner perimeter\n" "; inner perimeter\nM204 P1000\n"},{REPLACE "; solid layer\n" "; solid layer\nM204 P1000\n"},{REPLACE "; infill\n" "; infill\nM204 P3500\n"}
;   defaultSpeed,780
;   outlineUnderspeed,1
;   solidInfillUnderspeed,1
;   supportUnderspeed,1
;   rapidXYspeed,7200
;   rapidZspeed,900
;   minBridgingArea,50
;   bridgingExtraInflation,0
;   bridgingExtrusionMultiplier,0.9
;   bridgingSpeedMultiplier,0.6
;   filamentDiameter,1.75
;   filamentPricePerKg,46
;   filamentDensity,1.25
;   useMinPrintHeight,0
;   minPrintHeight,0
;   useMaxPrintHeight,0
;   maxPrintHeight,0
;   useDiaphragm,0
;   diaphragmLayerInterval,20
;   robustSlicing,1
;   mergeAllIntoSolid,0
;   onlyRetractWhenCrossingOutline,0
;   retractBetweenLayers,0
;   useRetractionMinTravel,1
;   retractionMinTravel,3
;   retractWhileWiping,1
;   onlyWipeOutlines,0
;   avoidCrossingOutline,1
;   maxMovementDetourFactor,3
;   toolChangeRetractionDistance,12
;   toolChangeExtraRestartDistance,-0.5
;   toolChangeRetractionSpeed,600
;   allowThinWallGapFill,1
;   thinWallAllowedOverlapPercentage,25
;   horizontalSizeCompensation,0
G90
M83
M106 S0
M115 U3.1.0 ; tell printer latest fw version
G 28 W ;
G1 Z100 ;
M900 K32 ; k value
M104 S220 T0 ; this will take the layer 1 temperature for extruder 0
M140 S50 ; this will take the layer 1 temperature for bed 0
M190 S50 ; wait for bed temp
M109 S220 T0 ; wait for extruder temp
G28 W ; home all without mesh bed level
G80 ; mesh bed leveling
G1 Y-3.0 F1000.0 ; go outside print area
G92 E0.0
G1 E-2.8000 F6000
G1 Z0.200 F900
; layer 1, Z = 0.2
T0
; tool H0.200 W0.450
; inner perimeter
M204 P1000
G1 X72.010 Y76.215 F7200
G1 E2.8000 F1800
G1 X72.739 Y75.524 E0.0376 F390
G1 X73.432 Y74.897 E0.0350
G1 X74.194 Y74.242 E0.0376
G1 X74.916 Y73.650 E0.0349
G1 X75.709 Y73.032 E0.0376
G1 X76.459 Y72.476 E0.0349
G1 X77.280 Y71.897 E0.0376
G1 X78.115 Y71.339 E0.0376
G1 X78.904 Y70.839 E0.0349
G1 X79.766 Y70.322 E0.0376
G1 X80.578 Y69.860 E0.0349
G1 X81.470 Y69.382 E0.0379
G1 X82.327 Y68.949 E0.0359
G1 X83.258 Y68.507 E0.0386
G1 X84.136 Y68.118 E0.0359
G1 X85.088 Y67.722 E0.0386
G1 X86.050 Y67.352 E0.0386
G1 X86.954 Y67.029 E0.0359
G1 X87.934 Y66.706 E0.0386
G1 X88.853 Y66.429 E0.0359
G1 X89.847 Y66.155 E0.0386
G1 X90.779 Y65.924 E0.0359
G1 X91.785 Y65.699 E0.0386
G1 X92.797 Y65.502 E0.0386
G1 X93.744 Y65.341 E0.0359
G1 X94.764 Y65.193 E0.0386
G1 X95.717 Y65.079 E0.0359
G1 X96.781 Y64.979 E0.0400
G1 X97.812 Y64.910 E0.0387
G1 X98.911 Y64.865 E0.0412
G1 X100.539 Y64.854 E0.0609
G1 X101.619 Y64.883 E0.0404
G1 X102.597 Y64.934 E0.0367
G1 X103.660 Y65.017 E0.0399
G1 X104.652 Y65.121 E0.0373
G1 X105.708 Y65.258 E0.0399
G1 X106.756 Y65.423 E0.0397
G1 X107.724 Y65.600 E0.0368
G1 X108.708 Y65.806 E0.0376
G1 X109.617 Y66.019 E0.0349
G1 X110.590 Y66.272 E0.0376
G1 X111.488 Y66.529 E0.0349
G1 X112.447 Y66.828 E0.0376
G1 X113.331 Y67.128 E0.0350
G1 X114.274 Y67.473 E0.0376
G1 X115.209 Y67.843 E0.0376
G1 X116.069 Y68.206 E0.0349
G1 X116.985 Y68.620 E0.0376
G1 X117.827 Y69.025 E0.0350
G1 X118.721 Y69.482 E0.0376
G1 X119.542 Y69.927 E0.0350
G1 X120.414 Y70.427 E0.0376
G1 X121.212 Y70.912 E0.0349
G1 X122.059 Y71.453 E0.0376
G1 X122.833 Y71.975 E0.0349
G1 X123.653 Y72.557 E0.0376
G1 X124.457 Y73.159 E0.0376
G1 X125.191 Y73.736 E0.0349
G1 X125.966 Y74.376 E0.0376
G1 X126.671 Y74.989 E0.0349
G1 X127.413 Y75.665 E0.0376
G1 X128.088 Y76.311 E0.0349
G1 X128.798 Y77.023 E0.0376
G1 X129.440 Y77.701 E0.0349
G1 X130.114 Y78.446 E0.0376
G1 X130.769 Y79.207 E0.0376
G1 X131.361 Y79.930 E0.0350
G1 X131.978 Y80.723 E0.0376
G1 X132.534 Y81.473 E0.0349
G1 X133.113 Y82.294 E0.0376
G1 X133.632 Y83.071 E0.0350
G1 X134.170 Y83.919 E0.0376
G1 X134.651 Y84.720 E0.0350
G1 X135.148 Y85.593 E0.0376
G1 X135.626 Y86.485 E0.0379
G1 X136.058 Y87.342 E0.0359
G1 X136.500 Y88.274 E0.0386
G1 X136.890 Y89.152 E0.0359
G1 X137.284 Y90.104 E0.0386
G1 X137.630 Y91.000 E0.0359
G1 X137.977 Y91.971 E0.0386
G1 X138.277 Y92.883 E0.0359
G1 X138.576 Y93.870 E0.0386
G1 X138.849 Y94.864 E0.0386
G1 X139.081 Y95.796 E0.0359
G1 X139.304 Y96.803 E0.0386
G1 X139.489 Y97.745 E0.0359
G1 X139.662 Y98.761 E0.0386
G1 X139.800 Y99.711 E0.0359
G1 X139.923 Y100.735 E0.0386
G1 X140.022 Y101.798 E0.0400
G1 X140.091 Y102.829 E0.0386
G1 X140.136 Y103.928 E0.0412
G1 X140.146 Y105.557 E0.0609
G1 X140.119 Y106.565 E0.0377
G1 X140.065 Y107.615 E0.0393
G1 X139.981 Y108.677 E0.0399
G1 X139.877 Y109.669 E0.0373
G1 X139.739 Y110.726 E0.0399
G1 X139.586 Y111.704 E0.0370
G1 X139.396 Y112.742 E0.0395
G1 X139.205 Y113.656 E0.0349
G1 X138.977 Y114.635 E0.0376
G1 X138.742 Y115.539 E0.0349
G1 X138.466 Y116.505 E0.0376
G1 X138.166 Y117.463 E0.0376
G1 X137.866 Y118.348 E0.0350
G1 X137.520 Y119.291 E0.0376
G1 X137.178 Y120.160 E0.0349
G1 X136.787 Y121.086 E0.0376
G1 X136.403 Y121.937 E0.0349
G1 X135.967 Y122.843 E0.0376
G1 X135.542 Y123.675 E0.0349
G1 X135.064 Y124.558 E0.0376
G1 X134.564 Y125.429 E0.0376
G1 X134.079 Y126.227 E0.0349
G1 X133.537 Y127.074 E0.0376
G1 X133.015 Y127.848 E0.0350
G1 X132.433 Y128.667 E0.0376
G1 X131.873 Y129.415 E0.0350
G1 X131.253 Y130.205 E0.0376
G1 X130.658 Y130.925 E0.0350
G1 X129.999 Y131.684 E0.0376
G1 X129.323 Y132.426 E0.0376
G1 X128.677 Y133.101 E0.0350
G1 X127.965 Y133.810 E0.0376
G1 X127.287 Y134.452 E0.0349
G1 X126.541 Y135.126 E0.0376
G1 X125.833 Y135.735 E0.0349
G1 X125.056 Y136.372 E0.0376
G1 X124.319 Y136.946 E0.0349
G1 X123.512 Y137.545 E0.0376
G1 X122.749 Y138.083 E0.0349
G1 X121.914 Y138.642 E0.0376
G1 X121.065 Y139.180 E0.0376
G1 X120.265 Y139.660 E0.0349
G1 X119.391 Y140.157 E0.0376
G1 X118.562 Y140.601 E0.0352
G1 X117.641 Y141.067 E0.0386
G1 X116.774 Y141.478 E0.0359
G1 X115.832 Y141.897 E0.0386
G1 X114.879 Y142.291 E0.0386
G1 X113.983 Y142.636 E0.0359
G1 X113.012 Y142.983 E0.0386
G1 X112.100 Y143.283 E0.0359
G1 X111.113 Y143.581 E0.0386
G1 X110.187 Y143.836 E0.0359
G1 X109.187 Y144.085 E0.0386
G1 X108.180 Y144.307 E0.0386
G1 X107.238 Y144.492 E0.0359
G1 X106.221 Y144.665 E0.0386
G1 X105.271 Y144.802 E0.0359
G1 X104.248 Y144.925 E0.0386
G1 X103.254 Y145.018 E0.0373
G1 X102.153 Y145.092 E0.0413
G1 X101.055 Y145.136 E0.0411
G1 X99.425 Y145.145 E0.0610
G1 X98.417 Y145.119 E0.0377
G1 X97.367 Y145.063 E0.0393
G1 X96.376 Y144.986 E0.0372
G1 X95.313 Y144.875 E0.0400
G1 X94.327 Y144.747 E0.0372
G1 X93.279 Y144.583 E0.0397
G1 X92.240 Y144.393 E0.0395
G1 X91.327 Y144.202 E0.0349
G1 X90.348 Y143.973 E0.0376
G1 X89.445 Y143.737 E0.0349
G1 X88.478 Y143.461 E0.0376
G1 X87.587 Y143.183 E0.0349
G1 X86.635 Y142.860 E0.0376
G1 X85.758 Y142.539 E0.0349
G1 X84.823 Y142.171 E0.0376
G1 X83.898 Y141.780 E0.0376
G1 X83.047 Y141.395 E0.0349
G1 X82.141 Y140.959 E0.0376
G1 X81.310 Y140.535 E0.0349
G1 X80.426 Y140.055 E0.0376
G1 X79.617 Y139.591 E0.0349
G1 X78.757 Y139.070 E0.0376
G1 X77.971 Y138.566 E0.0349
G1 X77.138 Y138.005 E0.0376
G1 X76.319 Y137.422 E0.0376
G1 X75.571 Y136.863 E0.0350
G1 X74.782 Y136.242 E0.0376
G1 X74.062 Y135.647 E0.0349
G1 X73.303 Y134.988 E0.0376
G1 X72.613 Y134.359 E0.0349
G1 X71.886 Y133.664 E0.0376
G1 X71.227 Y133.002 E0.0349
G1 X70.535 Y132.273 E0.0376
G1 X69.909 Y131.580 E0.0349
G1 X69.253 Y130.820 E0.0376
G1 X68.617 Y130.042 E0.0376
G1 X68.043 Y129.306 E0.0349
G1 X67.445 Y128.498 E0.0376
G1 X66.907 Y127.735 E0.0349
G1 X66.348 Y126.899 E0.0376
G1 X65.848 Y126.110 E0.0350
G1 X65.330 Y125.249 E0.0376
G1 X64.869 Y124.437 E0.0349
G1 X64.390 Y123.546 E0.0379
G1 X63.926 Y122.625 E0.0386
G1 X63.515 Y121.758 E0.0359
G1 X63.096 Y120.815 E0.0386
G1 X62.729 Y119.929 E0.0359
G1 X62.358 Y118.966 E0.0386
G1 X62.035 Y118.062 E0.0359
G1 X61.711 Y117.083 E0.0386
G1 X61.414 Y116.097 E0.0386
G1 X61.160 Y115.170 E0.0359
G1 X60.911 Y114.169 E0.0386
G1 X60.703 Y113.232 E0.0359
G1 X60.505 Y112.220 E0.0386
G1 X60.344 Y111.274 E0.0359
G1 X60.195 Y110.254 E0.0386
G1 X60.074 Y109.230 E0.0386
G1 X59.981 Y108.237 E0.0373
G1 X59.907 Y107.135 E0.0413
G1 X59.865 Y106.103 E0.0386
G1 X59.850 Y105.003 E0.0412
G1 X59.882 Y103.395 E0.0602
G1 X59.933 Y102.420 E0.0365
G1 X60.016 Y101.358 E0.0399
G1 X60.127 Y100.295 E0.0400
G1 X60.255 Y99.309 E0.0372
G1 X60.420 Y98.261 E0.0397
G1 X60.597 Y97.293 E0.0368
G1 X60.802 Y96.309 E0.0376
G1 X61.015 Y95.400 E0.0349
G1 X61.267 Y94.427 E0.0376
G1 X61.544 Y93.462 E0.0376
G1 X61.823 Y92.571 E0.0349
G1 X62.146 Y91.619 E0.0376
G1 X62.467 Y90.742 E0.0349
G1 X62.836 Y89.807 E0.0376
G1 X63.199 Y88.947 E0.0349
G1 X63.612 Y88.031 E0.0376
G1 X64.017 Y87.189 E0.0349
G1 X64.474 Y86.294 E0.0376
G1 X64.953 Y85.411 E0.0376
G1 X65.418 Y84.601 E0.0349
G1 X65.939 Y83.743 E0.0376
G1 X66.443 Y82.956 E0.0350
G1 X67.005 Y82.123 E0.0376
G1 X67.546 Y81.362 E0.0350
G1 X68.148 Y80.557 E0.0376
G1 X68.725 Y79.823 E0.0349
G1 X69.365 Y79.048 E0.0376
G1 X69.977 Y78.343 E0.0349
G1 X70.612 Y77.645 E0.0353
G1 X70.653 Y77.599 F390
G1 X71.348 Y76.874 F390
G1 X72.010 Y76.215 F390
G1 X72.739 Y75.524 F780
G1 X73.432 Y74.897 F780
G1 X73.479 Y74.858 F780
; inner perimeter
M204 P1000
G1 X71.696 Y75.892 F7200
G1 X72.434 Y75.193 E0.0380 F390
G1 X73.135 Y74.560 E0.0354
G1 X73.904 Y73.898 E0.0380
G1 X74.636 Y73.298 E0.0354
G1 X75.436 Y72.674 E0.0380
G1 X76.196 Y72.111 E0.0354
G1 X77.025 Y71.526 E0.0380
G1 X77.870 Y70.962 E0.0380
G1 X78.668 Y70.456 E0.0353
G1 X79.539 Y69.933 E0.0380
G1 X80.360 Y69.467 E0.0354
G1 X81.262 Y68.983 E0.0383
G1 X82.129 Y68.545 E0.0364
G1 X83.071 Y68.098 E0.0390
G1 X83.958 Y67.704 E0.0363
G1 X84.921 Y67.304 E0.0390
G1 X85.893 Y66.930 E0.0390
G1 X86.808 Y66.603 E0.0363
G1 X87.798 Y66.277 E0.0390
G1 X88.728 Y65.996 E0.0363
G1 X89.733 Y65.720 E0.0390
G1 X90.676 Y65.486 E0.0363
G1 X91.693 Y65.259 E0.0390
G1 X92.716 Y65.059 E0.0390
G1 X93.674 Y64.896 E0.0364
G1 X94.705 Y64.747 E0.0390
G1 X95.669 Y64.632 E0.0363
G1 X96.745 Y64.531 E0.0405
G1 X97.787 Y64.461 E0.0391
G1 X98.900 Y64.415 E0.0417
G1 X100.544 Y64.404 E0.0615
G1 X101.636 Y64.433 E0.0409
G1 X102.626 Y64.485 E0.0371
G1 X103.701 Y64.569 E0.0403
G1 X104.704 Y64.674 E0.0377
G1 X105.772 Y64.812 E0.0403
G1 X106.831 Y64.979 E0.0401
G1 X107.811 Y65.159 E0.0373
G1 X108.805 Y65.367 E0.0380
G1 X109.725 Y65.582 E0.0353
G1 X110.708 Y65.838 E0.0380
G1 X111.617 Y66.098 E0.0353
G1 X112.586 Y66.400 E0.0380
G1 X113.481 Y66.704 E0.0354
G1 X114.435 Y67.053 E0.0380
G1 X115.379 Y67.426 E0.0380
G1 X116.250 Y67.794 E0.0353
G1 X117.175 Y68.212 E0.0380
G1 X118.026 Y68.621 E0.0353
G1 X118.931 Y69.084 E0.0380
G1 X119.762 Y69.534 E0.0353
G1 X120.643 Y70.040 E0.0380
G1 X121.450 Y70.529 E0.0353
G1 X122.307 Y71.077 E0.0380
G1 X123.089 Y71.605 E0.0353
G1 X123.918 Y72.193 E0.0380
G1 X124.731 Y72.802 E0.0380
G1 X125.473 Y73.386 E0.0354
G1 X126.257 Y74.033 E0.0380
G1 X126.970 Y74.652 E0.0353
G1 X127.721 Y75.337 E0.0380
G1 X128.403 Y75.990 E0.0353
G1 X129.120 Y76.709 E0.0380
G1 X129.770 Y77.395 E0.0353
G1 X130.452 Y78.148 E0.0380
G1 X131.114 Y78.918 E0.0380
G1 X131.713 Y79.649 E0.0354
G1 X132.337 Y80.450 E0.0380
G1 X132.899 Y81.210 E0.0354
G1 X133.484 Y82.040 E0.0380
G1 X134.009 Y82.825 E0.0353
G1 X134.554 Y83.683 E0.0380
G1 X135.040 Y84.493 E0.0353
G1 X135.542 Y85.376 E0.0380
G1 X136.025 Y86.278 E0.0383
G1 X136.463 Y87.144 E0.0363
G1 X136.909 Y88.087 E0.0390
G1 X137.303 Y88.974 E0.0363
G1 X137.702 Y89.937 E0.0390
G1 X138.052 Y90.844 E0.0363
G1 X138.403 Y91.825 E0.0390
G1 X138.707 Y92.748 E0.0363
G1 X139.009 Y93.746 E0.0390
G1 X139.285 Y94.750 E0.0390
G1 X139.519 Y95.693 E0.0363
