; G-Code generated by Simplify3D(R) Version 3.1.1
; Dec 9, 2018 at 5:47:04 PM
; Settings Summary
;   processName,Process1
;   applyToModels,xyzCalibration_cube
;   profileName,ABS (modified)
;   profileVersion,2018-11-19 00:15:08
;   baseProfile,Creality CR-10
;   printMaterial,PETG
;   printQuality,Fast
;   printExtruders,
;   extruderName,Primary Extruder
;   extruderToolheadNumber,0
;   extruderDiameter,0.4
;   extruderAutoWidth,1
;   extruderWidth,0.48
;   extrusionMultiplier,0.98
;   extruderUseRetract,1
;   extruderRetractionDistance,6.5
;   extruderExtraRestartDistance,-0.2
;   extruderRetractionZLift,0
;   extruderRetractionSpeed,3600
;   extruderUseCoasting,1
;   extruderCoastingDistance,0.2
;   extruderUseWipe,0
;   extruderWipeDistance,4
;   primaryExtruder,0
;   layerHeight,0.3
;   topSolidLayers,3
;   bottomSolidLayers,3
;   perimeterOutlines,3
;   printPerimetersInsideOut,1
;   startPointOption,3
;   startPointOriginX,0
;   startPointOriginY,500
;   startPointOriginZ,0
;   sequentialIslands,0
;   spiralVaseMode,0
;   firstLayerHeightPercentage,130
;   firstLayerWidthPercentage,120
;   firstLayerUnderspeed,0.6
;   useRaft,0
;   raftExtruder,0
;   raftLayers,3
;   raftOffset,3
;   raftSeparationDistance,0.14
;   raftInfill,85
;   disableRaftBaseLayers,0
;   useSkirt,1
;   skirtExtruder,0
;   skirtLayers,1
;   skirtOutlines,3
;   skirtOffset,0.4
;   usePrimePillar,0
;   primePillarExtruder,999
;   primePillarWidth,12
;   primePillarLocation,7
;   primePillarSpeedMultiplier,1
;   useOozeShield,0
;   oozeShieldExtruder,999
;   oozeShieldOffset,2
;   oozeShieldOutlines,1
;   oozeShieldSidewallShape,1
;   oozeShieldSidewallAngle,30
;   oozeShieldSpeedMultiplier,1
;   infillExtruder,0
;   internalInfillPattern,Triangular
;   externalInfillPattern,Rectilinear
;   infillPercentage,20
;   outlineOverlapPercentage,35
;   infillExtrusionWidthPercentage,120
;   minInfillLength,4
;   infillLayerInterval,1
;   infillAngles,45,-45
;   overlapInfillAngles,1
;   generateSupport,1
;   supportExtruder,0
;   supportInfillPercentage,28
;   supportExtraInflation,1
;   denseSupportLayers,0
;   denseSupportInfillPercentage,60
;   supportLayerInterval,1
;   supportHorizontalPartOffset,0.3
;   supportUpperSeparationLayers,2
;   supportLowerSeparationLayers,1
;   supportType,0
;   supportGridSpacing,3.5
;   maxOverhangAngle,45
;   supportAngles,0
;   temperatureName,Heated Bed,Primary Extruder
;   temperatureNumber,0,0
;   temperatureSetpointCount,1,1
;   temperatureSetpointLayers,1,1
;   temperatureSetpointTemperatures,85,245
;   temperatureStabilizeAtStartup,1,1
;   temperatureHeatedBed,1,0
;   temperatureRelayBetweenLayers,0,0
;   temperatureRelayBetweenLoops,0,0
;   fanLayers,1,2,3
;   fanSpeeds,0,0,0
;   blipFanToFullPower,0
;   adjustSpeedForCooling,1
;   minSpeedLayerTime,20
;   minCoolingSpeedSlowdown,30
;   increaseFanForCooling,0
;   minFanLayerTime,30
;   maxCoolingFanSpeed,50
;   increaseFanForBridging,0
;   bridgingFanSpeed,100
;   use5D,1
;   relativeEdistances,0
;   allowEaxisZeroing,1
;   independentExtruderAxes,0
;   includeM10123,0
;   stickySupport,1
;   applyToolheadOffsets,0
;   gcodeXoffset,0
;   gcodeYoffset,0
;   gcodeZoffset,0
;   overrideMachineDefinition,1
;   machineTypeOverride,0
;   strokeXoverride,230
;   strokeYoverride,230
;   strokeZoverride,255
;   originOffsetXoverride,0
;   originOffsetYoverride,0
;   originOffsetZoverride,0
;   homeXdirOverride,-1
;   homeYdirOverride,-1
;   homeZdirOverride,-1
;   flipXoverride,1
;   flipYoverride,-1
;   flipZoverride,1
;   toolheadOffsets,0,0|0,0|0,0|0,0|0,0|0,0
;   overrideFirmwareConfiguration,1
;   firmwareTypeOverride,RepRap (Marlin/Repetier/Sprinter)
;   GPXconfigOverride,r2
;   baudRateOverride,115200
;   overridePrinterModels,1
;   printerModelsOverride
;   startingGcode,G28 ; home all axes,M117 Purging Extruder...,M204 P500 T1000,M205 X10 Y10 ; set jerk x/y=10,G1 Z1.0 F3000 ; lift Z,G1 X0.2 Y25 Z0.2 F3000.0 ; move to start-line position,G92 E0 ; reset extruder,G1 X0.2 Y150.0 F1000.0 E15 ; draw 1st line,G1 X0.7 Y150.0 F3000.0 ; move to side 0.5mm,G1 X0.7 Y50 F1000.0 E30 ; draw 2nd line,G1 X0.7 Y25 F5000.0 ; quick wipe,M117 Printing!,,; Default S3D CR-10 Startup,; G28 ; home all axes,; G1 Z5 F3000 ; lift,; G1 X20 Y2 F1500 ; avoid binder clips,; G1 Z0.2 F3000 ; get ready to prime,; G92 E0 ; reset extrusion distance,; G1 X120 E10 F600 ; prime nozzle,; G1 X150 F5000 ; quick wipe,
;   layerChangeGcode,
;   retractionGcode,
;   toolChangeGcode,
;   endingGcode,M117 Print Complete!,M104 S0 ; turn off extruder,M140 S0 ; turn off bed,G1 X0 Y295 F1000 ; move finished print out front,M84 ; disable motors,M106 S0 ; turn off cooling fan,,; play song,M300 S294 P200 ;D4: 294,M300 S588 P200 ;D5: 588,M300 S440 P200 ;A4: 440,M300 S392 P200 ;G4: 392,M300 S784 P200 ;G5: 784,M300 S440 P200 ;A4: 440,M300 S740 P200 ;F#5: 740,M300 S440 P200 ;A4: 440,,; Default S3D CR-10 Ending Script,; G28 X0 ; home x axis,; M106 S0 ; turn off cooling fan,; M104 S0 ; turn off extruder,; M140 S0 ; turn off bed,; M84 ; disable motors,
;   exportFileFormat,gcode
;   celebration,0
;   celebrationSong,Star Wars
;   postProcessing,,
;   defaultSpeed,4000
;   outlineUnderspeed,0.8
;   solidInfillUnderspeed,0.9
;   supportUnderspeed,1
;   rapidXYspeed,9000
;   rapidZspeed,1002
;   minBridgingArea,50
;   bridgingExtraInflation,0
;   bridgingExtrusionMultiplier,0.9
;   bridgingSpeedMultiplier,1
;   filamentDiameter,1.75
;   filamentPricePerKg,46
;   filamentDensity,1.25
;   useMinPrintHeight,0
;   minPrintHeight,0
;   useMaxPrintHeight,0
;   maxPrintHeight,0
;   useDiaphragm,0
;   diaphragmLayerInterval,20
;   robustSlicing,1
;   mergeAllIntoSolid,0
;   onlyRetractWhenCrossingOutline,0
;   retractBetweenLayers,1
;   useRetractionMinTravel,1
;   retractionMinTravel,3
;   retractWhileWiping,1
;   onlyWipeOutlines,1
;   avoidCrossingOutline,1
;   maxMovementDetourFactor,3
;   toolChangeRetractionDistance,12
;   toolChangeExtraRestartDistance,-0.5
;   toolChangeRetractionSpeed,600
;   allowThinWallGapFill,1
;   thinWallAllowedOverlapPercentage,15
;   horizontalSizeCompensation,0
G90
M82
M106 S0
M140 S85
M190 S85
M104 S245 T0
M109 S245 T0
G28 ; home all axes
M117 Purging Extruder...
M204 P500 T1000
M205 X10 Y10 ; set jerk x/y=10
G1 Z1.0 F3000 ; lift Z
G1 X0.2 Y25 Z0.2 F3000.0 ; move to start-line position
G92 E0 ; reset extruder
G1 X0.2 Y150.0 F1000.0 E15 ; draw 1st line
G1 X0.7 Y150.0 F3000.0 ; move to side 0.5mm
G1 X0.7 Y50 F1000.0 E30 ; draw 2nd line
G1 X0.7 Y25 F5000.0 ; quick wipe
M117 Printing!
; Default S3D CR-10 Startup
; G28 ; home all axes
; G1 Z5 F3000 ; lift
; G1 X20 Y2 F1500 ; avoid binder clips
; G1 Z0.2 F3000 ; get ready to prime
; G92 E0 ; reset extrusion distance
; G1 X120 E10 F600 ; prime nozzle
; G1 X150 F5000 ; quick wipe
G92 E0
G1 E-6.5000 F3600
G1 Z0.390 F1002
; layer 1, Z = 0.39
T0
; tool H0.390 W0.576
; skirt
G1 X103.583 Y104.155 F9000
G1 E-0.2000 F1080
G92 E0
G1 X104.155 Y103.583 E0.0740 F2400
G1 X104.596 Y103.400 E0.1177
G1 X125.404 Y103.400 E2.0223
G1 X125.845 Y103.583 E2.0660
G1 X126.417 Y104.155 E2.1400
G1 X126.600 Y104.596 E2.1837
G1 X126.600 Y125.404 E4.0882
G1 X126.417 Y125.845 E4.1319
G1 X125.845 Y126.417 E4.2060
G1 X125.404 Y126.600 E4.2496
G1 X104.596 Y126.600 E6.1542
G1 X104.155 Y126.417 E6.1979
G1 X103.583 Y125.845 E6.2719
G1 X103.400 Y125.404 E6.3156
G1 X103.400 Y104.596 E8.2202
G1 X103.506 Y104.339 E8.2456
G1 X103.583 Y104.155 F2400
G1 X103.990 Y104.426 F9000
G92 E0
G1 X104.426 Y103.990 E0.0565 F2400
G1 X104.691 Y103.880 E0.0828
G1 X125.309 Y103.880 E1.9698
G1 X125.574 Y103.990 E1.9961
G1 X126.010 Y104.426 E2.0526
G1 X126.120 Y104.691 E2.0788
G1 X126.120 Y125.309 E3.9659
G1 X126.010 Y125.574 E3.9921
G1 X125.574 Y126.010 E4.0487
G1 X125.309 Y126.120 E4.0749
G1 X104.691 Y126.120 E5.9620
G1 X104.426 Y126.010 E5.9882
G1 X103.990 Y125.574 E6.0447
G1 X103.880 Y125.309 E6.0709
G1 X103.880 Y104.691 E7.9580
G1 X103.913 Y104.611 E7.9659
G1 X103.990 Y104.426 F2400
G1 X104.397 Y104.698 F9000
G92 E0
G1 X104.698 Y104.397 E0.0391 F2400
G1 X104.787 Y104.360 E0.0478
G1 X125.213 Y104.360 E1.9174
G1 X125.302 Y104.397 E1.9261
G1 X125.603 Y104.698 E1.9652
G1 X125.640 Y104.787 E1.9740
G1 X125.640 Y125.213 E3.8436
G1 X125.603 Y125.302 E3.8523
G1 X125.302 Y125.603 E3.8914
G1 X125.213 Y125.640 E3.9001
G1 X104.787 Y125.640 E5.7697
G1 X104.698 Y125.603 E5.7784
G1 X104.397 Y125.302 E5.8175
G1 X104.360 Y125.213 E5.8262
G1 X104.360 Y104.891 E7.6863
G1 X104.360 Y104.787 F2400
G1 X104.397 Y104.698 F2400
; inner perimeter
G1 X106.440 Y106.440 F9000
G92 E0
G1 X123.560 Y106.440 E1.5669 F2240
G1 X123.560 Y123.560 E3.1339
G1 X106.440 Y123.560 E4.7008
G1 X106.440 Y106.640 E6.2494
G1 X106.440 Y106.440 F2240
; inner perimeter
G1 X105.864 Y105.864 F9000
G92 E0
G1 X124.136 Y105.864 E1.6724 F2080
G1 X124.136 Y124.136 E3.3447
G1 X105.864 Y124.136 E5.0171
G1 X105.864 Y106.064 E6.6712
G1 X105.864 Y105.864 F2080
; outer perimeter
G1 X105.288 Y105.288 F9000
G92 E0
G1 X124.712 Y105.288 E1.7778 F1920
G1 X124.712 Y124.712 E3.5556
G1 X105.288 Y124.712 E5.3334
G1 X105.288 Y105.488 E7.0929
G1 X105.288 Y105.288 F1920
G92 E0
G1 E-6.5000 F3600
; solid layer
G1 X123.106 Y106.814 F9000
G1 E-0.2000 F3600
G92 E0
G1 X123.186 Y106.894 E0.0103 F2160
G1 X123.186 Y107.708 E0.0848
G1 X122.292 Y106.814 E0.2006
G1 X121.477 Y106.814 E0.2751
G1 X123.186 Y108.523 E0.4963
G1 X123.186 Y109.338 E0.5708
G1 X120.662 Y106.814 E0.8974
G1 X119.848 Y106.814 E0.9720
G1 X123.186 Y110.152 E1.4040
G1 X123.186 Y110.967 E1.4786
G1 X119.033 Y106.814 E2.0161
G1 X118.219 Y106.814 E2.0906
G1 X123.186 Y111.781 E2.7335
G1 X123.186 Y112.596 E2.8081
G1 X117.404 Y106.814 E3.5564
G1 X116.589 Y106.814 E3.6310
G1 X123.186 Y113.411 E4.4848
G1 X123.186 Y114.225 E4.5594
G1 X115.775 Y106.814 E5.5186
G1 X114.960 Y106.814 E5.5931
G1 X123.186 Y115.040 E6.6578
G1 X123.186 Y115.854 E6.7324
G1 X114.146 Y106.814 E7.9025
G1 X113.331 Y106.814 E7.9770
G1 X123.186 Y116.669 E9.2526
G1 X123.186 Y117.483 E9.3271
G1 X112.517 Y106.814 E10.7081
G1 X111.702 Y106.814 E10.7827
G1 X123.186 Y118.298 E12.2691
G1 X123.186 Y119.113 E12.3437
G1 X110.887 Y106.814 E13.9355
G1 X110.073 Y106.814 E14.0101
G1 X123.186 Y119.927 E15.7074
G1 X123.186 Y120.742 E15.7819
G1 X109.258 Y106.814 E17.5847
G1 X108.444 Y106.814 E17.6592
G1 X123.186 Y121.556 E19.5674
G1 X123.186 Y122.371 E19.6420
G1 X107.629 Y106.814 E21.6556
G1 X106.814 Y106.814 E21.7301
G1 X123.186 Y123.186 E23.8492
G1 X122.371 Y123.186 E23.9237
G1 X106.814 Y107.629 E25.9374
G1 X106.814 Y108.444 E26.0119
G1 X121.556 Y123.186 E27.9201
G1 X120.742 Y123.186 E27.9947
G1 X106.814 Y109.258 E29.7974
G1 X106.814 Y110.073 E29.8720
G1 X119.927 Y123.186 E31.5693
G1 X119.113 Y123.186 E31.6438
G1 X106.814 Y110.887 E33.2357
G1 X106.814 Y111.702 E33.3102
G1 X118.298 Y123.186 E34.7967
G1 X117.484 Y123.186 E34.8712
G1 X106.814 Y112.516 E36.2522
G1 X106.814 Y113.331 E36.3268
G1 X116.669 Y123.186 E37.6023
G1 X115.854 Y123.186 E37.6769
G1 X106.814 Y114.146 E38.8470
G1 X106.814 Y114.960 E38.9215
G1 X115.040 Y123.186 E39.9862
G1 X114.225 Y123.186 E40.0608
G1 X106.814 Y115.775 E41.0200
G1 X106.814 Y116.589 E41.0946
G1 X113.411 Y123.186 E41.9484
G1 X112.596 Y123.186 E42.0229
G1 X106.814 Y117.404 E42.7713
G1 X106.814 Y118.219 E42.8458
G1 X111.781 Y123.186 E43.4887
G1 X110.967 Y123.186 E43.5633
G1 X106.814 Y119.033 E44.1008
G1 X106.814 Y119.848 E44.1753
G1 X110.152 Y123.186 E44.6074
G1 X109.338 Y123.186 E44.6819
G1 X106.814 Y120.662 E45.0085
G1 X106.814 Y121.477 E45.0831
G1 X108.523 Y123.186 E45.3043
G1 X107.708 Y123.186 E45.3788
G1 X106.814 Y122.292 E45.4945
G1 X106.814 Y123.018 E45.5611
G1 X106.814 Y123.106 F2160
G1 X106.894 Y123.186 F2160
G92 E0
G1 E-6.5000 F3600
; layer 2, Z = 0.69
; tool H0.300 W0.480
; inner perimeter
G1 X106.200 Y106.200 F9000
G1 Z0.690 F1002
G1 E-0.2000 F3600
G92 E0
G1 X123.800 Y106.200 E1.0326 F2698
G1 X123.800 Y123.800 E2.0652
G1 X106.200 Y123.800 E3.0978
G1 X106.200 Y106.400 E4.1187
G1 X106.200 Y106.200 F2698
; inner perimeter
G1 X105.720 Y105.720 F9000
G92 E0
G1 X124.280 Y105.720 E1.0889 F2505
G1 X124.280 Y124.280 E2.1779
G1 X105.720 Y124.280 E3.2668
G1 X105.720 Y105.920 E4.3440
G1 X105.720 Y105.720 F2505
; outer perimeter
G1 X105.240 Y105.240 F9000
G92 E0
G1 X124.760 Y105.240 E1.1453 F2312
G1 X124.760 Y124.760 E2.2905
G1 X105.240 Y124.760 E3.4358
G1 X105.240 Y105.440 E4.5693
G1 X105.240 Y105.240 F2312
; solid layer
G1 X106.512 Y106.517 F9000
G92 E0
G1 X106.517 Y106.512 E0.0005 F2601
G1 X107.196 Y106.512 E0.0403
G1 X106.512 Y107.196 E0.0971
G1 X106.512 Y107.875 E0.1369
G1 X107.875 Y106.512 E0.2500
G1 X108.554 Y106.512 E0.2898
G1 X106.512 Y108.554 E0.4592
G1 X106.512 Y109.233 E0.4991
G1 X109.233 Y106.512 E0.7248
G1 X109.912 Y106.512 E0.7646
G1 X106.512 Y109.912 E1.0467
G1 X106.512 Y110.590 E1.0865
G1 X110.590 Y106.512 E1.4249
G1 X111.269 Y106.512 E1.4648
G1 X106.512 Y111.269 E1.8595
G1 X106.512 Y111.948 E1.8993
G1 X111.948 Y106.512 E2.3504
G1 X112.627 Y106.512 E2.3902
G1 X106.512 Y112.627 E2.8976
G1 X106.512 Y113.306 E2.9374
G1 X113.306 Y106.512 E3.5011
G1 X113.985 Y106.512 E3.5409
G1 X106.512 Y113.985 E4.1609
G1 X106.512 Y114.663 E4.2008
G1 X114.663 Y106.512 E4.8771
G1 X115.342 Y106.512 E4.9169
G1 X106.512 Y115.342 E5.6496
G1 X106.512 Y116.021 E5.6894
G1 X116.021 Y106.512 E6.4784
G1 X116.700 Y106.512 E6.5182
G1 X106.512 Y116.700 E7.3636
G1 X106.512 Y117.379 E7.4034
G1 X117.379 Y106.512 E8.3050
G1 X118.057 Y106.512 E8.3448
G1 X106.512 Y118.057 E9.3028
G1 X106.512 Y118.736 E9.3426
G1 X118.736 Y106.512 E10.3569
G1 X119.415 Y106.512 E10.3967
G1 X106.512 Y119.415 E11.4674
G1 X106.512 Y120.094 E11.5072
G1 X120.094 Y106.512 E12.6341
G1 X120.773 Y106.512 E12.6739
G1 X106.512 Y120.773 E13.8572
G1 X106.512 Y121.452 E13.8970
G1 X121.452 Y106.512 E15.1366
G1 X122.130 Y106.512 E15.1764
G1 X106.512 Y122.130 E16.4723
G1 X106.512 Y122.809 E16.5122
G1 X122.809 Y106.512 E17.8644
G1 X123.488 Y106.512 E17.9042
G1 X106.512 Y123.488 E19.3128
G1 X107.191 Y123.488 E19.3526
G1 X123.488 Y107.191 E20.7048
G1 X123.488 Y107.870 E20.7447
G1 X107.870 Y123.488 E22.0406
G1 X108.548 Y123.488 E22.0804
G1 X123.488 Y108.548 E23.3200
G1 X123.488 Y109.227 E23.3598
G1 X109.227 Y123.488 E24.5430
G1 X109.906 Y123.488 E24.5829
G1 X123.488 Y109.906 E25.7098
G1 X123.488 Y110.585 E25.7496
G1 X110.585 Y123.488 E26.8202
G1 X111.264 Y123.488 E26.8601
G1 X123.488 Y111.264 E27.8743
G1 X123.488 Y111.943 E27.9142
G1 X111.943 Y123.488 E28.8721
G1 X112.621 Y123.488 E28.9120
G1 X123.488 Y112.621 E29.8136
G1 X123.488 Y113.300 E29.8534
G1 X113.300 Y123.488 E30.6987
G1 X113.979 Y123.488 E30.7386
G1 X123.488 Y113.979 E31.5275
G1 X123.488 Y114.658 E31.5674
G1 X114.658 Y123.488 E32.3000
G1 X115.337 Y123.488 E32.3399
G1 X123.488 Y115.337 E33.0162
G1 X123.488 Y116.016 E33.0560
G1 X116.016 Y123.488 E33.6760
G1 X116.694 Y123.488 E33.7159
G1 X123.488 Y116.694 E34.2795
G1 X123.488 Y117.373 E34.3194
G1 X117.373 Y123.488 E34.8267
G1 X118.052 Y123.488 E34.8666
G1 X123.488 Y118.052 E35.3176
G1 X123.488 Y118.731 E35.3574
G1 X118.731 Y123.488 E35.7522
G1 X119.410 Y123.488 E35.7920
G1 X123.488 Y119.410 E36.1304
G1 X123.488 Y120.088 E36.1702
G1 X120.088 Y123.488 E36.4523
G1 X120.767 Y123.488 E36.4921
G1 X123.488 Y120.767 E36.7178
G1 X123.488 Y121.446 E36.7577
G1 X121.446 Y123.488 E36.9271
G1 X122.125 Y123.488 E36.9669
G1 X123.488 Y122.125 E37.0800
G1 X123.488 Y122.804 E37.1198
G1 X122.804 Y123.488 E37.1766
G1 X123.291 Y123.488 E37.2052
G1 X123.483 Y123.488 F2601
G1 X123.488 Y123.483 F2601
G92 E0
G1 E-6.5000 F3600
; layer 3, Z = 0.99
; inner perimeter
G1 X106.200 Y106.200 F9000
G1 Z0.990 F1002
G1 E-0.2000 F3600
G92 E0
G1 X123.800 Y106.200 E1.0326 F2698
G1 X123.800 Y123.800 E2.0652
G1 X106.200 Y123.800 E3.0978
G1 X106.200 Y106.400 E4.1187
G1 X106.200 Y106.200 F2698
; inner perimeter
G1 X105.720 Y105.720 F9000
G92 E0
G1 X124.280 Y105.720 E1.0889 F2505
G1 X124.280 Y124.280 E2.1779
G1 X105.720 Y124.280 E3.2668
G1 X105.720 Y105.920 E4.3440
G1 X105.720 Y105.720 F2505
; outer perimeter
G1 X105.240 Y105.240 F9000
G92 E0
G1 X124.760 Y105.240 E1.1453 F2312
G1 X124.760 Y124.760 E2.2905
