; G-Code generated by Simplify3D(R) Version 3.1.1
; Oct 12, 2018 at 5:36:59 PM
; Settings Summary
;   processName,Process1
;   applyToModels,xyzCalibration_cube
;   profileName,PriestsProfileV4 (modified)
;   profileVersion,2018-04-01 22:18:39
;   baseProfile,Creality CR-10
;   printMaterial,
;   printQuality,
;   printExtruders,
;   extruderName,Primary Extruder
;   extruderToolheadNumber,0
;   extruderDiameter,0.4
;   extruderAutoWidth,0
;   extruderWidth,0.4
;   extrusionMultiplier,0.95
;   extruderUseRetract,1
;   extruderRetractionDistance,6
;   extruderExtraRestartDistance,-0.1
;   extruderRetractionZLift,0.12
;   extruderRetractionSpeed,3600
;   extruderUseCoasting,1
;   extruderCoastingDistance,0.12
;   extruderUseWipe,0
;   extruderWipeDistance,3
;   primaryExtruder,0
;   layerHeight,0.2
;   topSolidLayers,5
;   bottomSolidLayers,5
;   perimeterOutlines,3
;   printPerimetersInsideOut,1
;   startPointOption,3
;   startPointOriginX,0
;   startPointOriginY,300
;   startPointOriginZ,0
;   sequentialIslands,0
;   spiralVaseMode,0
;   firstLayerHeightPercentage,90
;   firstLayerWidthPercentage,120
;   firstLayerUnderspeed,0.5
;   useRaft,0
;   raftExtruder,0
;   raftLayers,3
;   raftOffset,3
;   raftSeparationDistance,0.14
;   raftInfill,85
;   disableRaftBaseLayers,0
;   useSkirt,1
;   skirtExtruder,0
;   skirtLayers,1
;   skirtOutlines,2
;   skirtOffset,5
;   usePrimePillar,0
;   primePillarExtruder,999
;   primePillarWidth,12
;   primePillarLocation,7
;   primePillarSpeedMultiplier,1
;   useOozeShield,0
;   oozeShieldExtruder,999
;   oozeShieldOffset,2
;   oozeShieldOutlines,1
;   oozeShieldSidewallShape,1
;   oozeShieldSidewallAngle,30
;   oozeShieldSpeedMultiplier,1
;   infillExtruder,0
;   internalInfillPattern,Triangular
;   externalInfillPattern,Rectilinear
;   infillPercentage,25
;   outlineOverlapPercentage,20
;   infillExtrusionWidthPercentage,100
;   minInfillLength,5
;   infillLayerInterval,1
;   infillAngles,0
;   overlapInfillAngles,0
;   generateSupport,0
;   supportExtruder,0
;   supportInfillPercentage,30
;   supportExtraInflation,0
;   denseSupportLayers,0
;   denseSupportInfillPercentage,70
;   supportLayerInterval,1
;   supportHorizontalPartOffset,0.4
;   supportUpperSeparationLayers,3
;   supportLowerSeparationLayers,3
;   supportType,0
;   supportGridSpacing,3.5
;   maxOverhangAngle,45
;   supportAngles,0
;   temperatureName,Heated Bed,Primary Extruder
;   temperatureNumber,0,0
;   temperatureSetpointCount,1,2
;   temperatureSetpointLayers,1,1,2
;   temperatureSetpointTemperatures,65,210,200
;   temperatureStabilizeAtStartup,1,1
;   temperatureHeatedBed,1,0
;   temperatureRelayBetweenLayers,0,0
;   temperatureRelayBetweenLoops,0,0
;   fanLayers,1,2,3,4,5
;   fanSpeeds,0,0,30,60,100
;   blipFanToFullPower,0
;   adjustSpeedForCooling,1
;   minSpeedLayerTime,15
;   minCoolingSpeedSlowdown,20
;   increaseFanForCooling,1
;   minFanLayerTime,30
;   maxCoolingFanSpeed,80
;   increaseFanForBridging,1
;   bridgingFanSpeed,100
;   use5D,1
;   relativeEdistances,0
;   allowEaxisZeroing,1
;   independentExtruderAxes,0
;   includeM10123,0
;   stickySupport,1
;   applyToolheadOffsets,0
;   gcodeXoffset,0
;   gcodeYoffset,0
;   gcodeZoffset,0
;   overrideMachineDefinition,1
;   machineTypeOverride,0
;   strokeXoverride,200
;   strokeYoverride,200
;   strokeZoverride,300
;   originOffsetXoverride,0
;   originOffsetYoverride,0
;   originOffsetZoverride,0
;   homeXdirOverride,-1
;   homeYdirOverride,-1
;   homeZdirOverride,-1
;   flipXoverride,1
;   flipYoverride,-1
;   flipZoverride,1
;   toolheadOffsets,0,0|0,0|0,0|0,0|0,0|0,0
;   overrideFirmwareConfiguration,1
;   firmwareTypeOverride,RepRap (Marlin/Repetier/Sprinter)
;   GPXconfigOverride,r2
;   baudRateOverride,115200
;   overridePrinterModels,1
;   printerModelsOverride
;   startingGcode,M117 Here We Go!!!,G28 ; home all axes,M204 P500 S700  T1000,M205 X10 Y10 ; set jerk x/y=10,M117 Purging Extruder...,G1 Z1.0 F3000 ; lift Z,G1 X0.2 Y25 Z0.2 F3000.0 ; move to start-line position,G92 E0 ; reset extruder,G1 X0.2 Y150.0 F1000.0 E15 ; draw 1st line,G1 X0.7 Y150.0 F3000.0 ; move to side 0.5mm,G1 X0.7 Y50 F1000.0 E30 ; draw 2nd line,G1 X0.7 Y25 F5000.0 ; quick wipe,M117 Printing...,,; Default S3D CR-10 Startup,; G28 ; home all axes,; G1 Z5 F3000 ; lift,; G1 X20 Y2 F1500 ; avoid binder clips,; G1 Z0.2 F3000 ; get ready to prime,; G92 E0 ; reset extrusion distance,; G1 X120 E10 F600 ; prime nozzle,; G1 X150 F5000 ; quick wipe,
;   layerChangeGcode,
;   retractionGcode,
;   toolChangeGcode,
;   endingGcode,M104 S0 ; turn off extruder,M140 S0 ; turn off bed,G1 X0 Y295 F1000 ; move finished print out front,M84 ; disable motors,M106 S0 ; turn off cooling fan,,; play song,M300 S294 P200 ;D4: 294,M300 S588 P200 ;D5: 588,M300 S440 P200 ;A4: 440,M300 S392 P200 ;G4: 392,M300 S784 P200 ;G5: 784,M300 S440 P200 ;A4: 440,M300 S740 P200 ;F#5: 740,M300 S440 P200 ;A4: 440,M117 Print Complete!!,,; Default S3D CR-10 Ending Script,; G28 X0 ; home x axis,; M106 S0 ; turn off cooling fan,; M104 S0 ; turn off extruder,; M140 S0 ; turn off bed,; M84 ; disable motors,
;   exportFileFormat,gcode
;   celebration,0
;   celebrationSong,Star Wars
;   postProcessing,
;   defaultSpeed,2700
;   outlineUnderspeed,0.8
;   solidInfillUnderspeed,0.8
;   supportUnderspeed,0.8
;   rapidXYspeed,3400
;   rapidZspeed,800
;   minBridgingArea,50
;   bridgingExtraInflation,0
;   bridgingExtrusionMultiplier,0.9
;   bridgingSpeedMultiplier,1.4
;   filamentDiameter,1.75
;   filamentPricePerKg,46
;   filamentDensity,1.25
;   useMinPrintHeight,0
;   minPrintHeight,0
;   useMaxPrintHeight,0
;   maxPrintHeight,0
;   useDiaphragm,0
;   diaphragmLayerInterval,25
;   robustSlicing,1
;   mergeAllIntoSolid,0
;   onlyRetractWhenCrossingOutline,0
;   retractBetweenLayers,0
;   useRetractionMinTravel,1
;   retractionMinTravel,2
;   retractWhileWiping,1
;   onlyWipeOutlines,1
;   avoidCrossingOutline,1
;   maxMovementDetourFactor,3
;   toolChangeRetractionDistance,12
;   toolChangeExtraRestartDistance,-0.5
;   toolChangeRetractionSpeed,600
;   allowThinWallGapFill,1
;   thinWallAllowedOverlapPercentage,15
;   horizontalSizeCompensation,0
G90
M82
M106 S0
M140 S65
M190 S65
M104 S210 T0
M109 S210 T0
M117 Here We Go!!!
G28 ; home all axes
M204 P500 S700  T1000
M205 X10 Y10 ; set jerk x/y=10
M117 Purging Extruder...
G1 Z1.0 F3000 ; lift Z
G1 X0.2 Y25 Z0.2 F3000.0 ; move to start-line position
G92 E0 ; reset extruder
G1 X0.2 Y150.0 F1000.0 E15 ; draw 1st line
G1 X0.7 Y150.0 F3000.0 ; move to side 0.5mm
G1 X0.7 Y50 F1000.0 E30 ; draw 2nd line
G1 X0.7 Y25 F5000.0 ; quick wipe
M117 Printing...
; Default S3D CR-10 Startup
; G28 ; home all axes
; G1 Z5 F3000 ; lift
; G1 X20 Y2 F1500 ; avoid binder clips
; G1 Z0.2 F3000 ; get ready to prime
; G92 E0 ; reset extrusion distance
; G1 X120 E10 F600 ; prime nozzle
; G1 X150 F5000 ; quick wipe
G92 E0
G1 E-6.0000 F3600
G1 Z0.300 F800
; layer 1, Z = 0.18
T0
; tool H0.200 W0.480
; skirt
G1 X84.491 Y87.589 F3400
G1 Z0.180 F800
G1 E-0.1000 F1080
G92 E0
G1 X87.589 Y84.491 E0.1661 F1350
G1 X87.810 Y84.400 E0.1752
G1 X112.190 Y84.400 E1.0996
G1 X112.411 Y84.491 E1.1086
G1 X115.509 Y87.589 E1.2748
G1 X115.600 Y87.810 E1.2838
G1 X115.600 Y112.190 E2.2082
G1 X115.509 Y112.411 E2.2173
G1 X112.411 Y115.509 E2.3834
G1 X112.190 Y115.600 E2.3924
G1 X87.810 Y115.600 E3.3169
G1 X87.589 Y115.509 E3.3259
G1 X84.491 Y112.411 E3.4920
G1 X84.400 Y112.190 E3.5011
G1 X84.400 Y87.810 E4.4255
G1 X84.445 Y87.700 E4.4300
G1 X84.491 Y87.589 F1350
G1 X84.830 Y87.816 F3400
G92 E0
G1 X87.816 Y84.830 E0.1601 F1350
G1 X87.889 Y84.800 E0.1631
G1 X112.111 Y84.800 E1.0815
G1 X112.184 Y84.830 E1.0845
G1 X115.170 Y87.816 E1.2446
G1 X115.200 Y87.889 E1.2476
G1 X115.200 Y112.111 E2.1660
G1 X115.170 Y112.184 E2.1690
G1 X112.184 Y115.170 E2.3291
G1 X112.111 Y115.200 E2.3321
G1 X87.889 Y115.200 E3.2505
G1 X87.816 Y115.170 E3.2535
G1 X84.830 Y112.184 E3.4136
G1 X84.800 Y112.111 E3.4166
G1 X84.800 Y87.930 E4.3335
G1 X84.800 Y87.889 F1350
G1 X84.830 Y87.816 F1350
G92 E0
G1 E-6.0000 F3600
G1 Z0.300 F800
; inner perimeter
G1 X91.200 Y91.200 F3400
G1 Z0.180 F800
G1 E-0.1000 F3600
G92 E0
G1 X108.800 Y91.200 E0.6673 F1260
G1 X108.800 Y108.800 E1.3347
G1 X91.200 Y108.800 E2.0020
G1 X91.200 Y91.320 E2.6648
G1 X91.200 Y91.200 F1260
; inner perimeter
G1 X90.720 Y90.720 F3400
G92 E0
G1 X109.280 Y90.720 E0.7037 F1170
G1 X109.280 Y109.280 E1.4075
G1 X90.720 Y109.280 E2.1112
G1 X90.720 Y90.840 E2.8104
G1 X90.720 Y90.720 F1170
; outer perimeter
G1 X90.240 Y90.240 F3400
G92 E0
G1 X109.760 Y90.240 E0.7401 F1080
G1 X109.760 Y109.760 E1.4803
G1 X90.240 Y109.760 E2.2204
G1 X90.240 Y90.360 E2.9560
G1 X90.240 Y90.240 F1080
G92 E0
G1 E-6.0000 F3600
G1 Z0.300 F800
; solid layer
G1 X107.876 Y91.584 F3400
G1 Z0.180 F800
G1 E-0.1000 F3600
G92 E0
G1 X108.416 Y92.124 E0.0290 F1080
G1 X108.416 Y92.803 E0.0547
G1 X107.197 Y91.584 E0.1201
G1 X106.518 Y91.584 E0.1458
G1 X108.416 Y93.482 E0.2476
G1 X108.416 Y94.161 E0.2733
G1 X105.839 Y91.584 E0.4115
G1 X105.160 Y91.584 E0.4372
G1 X108.416 Y94.840 E0.6118
G1 X108.416 Y95.518 E0.6375
G1 X104.482 Y91.584 E0.8485
G1 X103.803 Y91.584 E0.8742
G1 X108.416 Y96.197 E1.1216
G1 X108.416 Y96.876 E1.1474
G1 X103.124 Y91.584 E1.4311
G1 X102.445 Y91.584 E1.4569
G1 X108.416 Y97.555 E1.7770
G1 X108.416 Y98.234 E1.8028
G1 X101.766 Y91.584 E2.1593
G1 X101.088 Y91.584 E2.1851
G1 X108.416 Y98.912 E2.5780
G1 X108.416 Y99.591 E2.6038
G1 X100.409 Y91.584 E3.0331
G1 X99.730 Y91.584 E3.0589
G1 X108.416 Y100.270 E3.5247
G1 X108.416 Y100.949 E3.5504
G1 X99.051 Y91.584 E4.0526
G1 X98.372 Y91.584 E4.0783
G1 X108.416 Y101.628 E4.6169
G1 X108.416 Y102.307 E4.6426
G1 X97.693 Y91.584 E5.2176
G1 X97.015 Y91.584 E5.2433
G1 X108.416 Y102.985 E5.8547
G1 X108.416 Y103.664 E5.8804
G1 X96.336 Y91.584 E6.5282
G1 X95.657 Y91.584 E6.5539
G1 X108.416 Y104.343 E7.2381
G1 X108.416 Y105.022 E7.2638
G1 X94.978 Y91.584 E7.9844
G1 X94.299 Y91.584 E8.0101
G1 X108.416 Y105.701 E8.7671
G1 X108.416 Y106.380 E8.7928
G1 X93.620 Y91.584 E9.5862
G1 X92.942 Y91.584 E9.6119
G1 X108.416 Y107.058 E10.4417
G1 X108.416 Y107.737 E10.4674
G1 X92.263 Y91.584 E11.3336
G1 X91.584 Y91.584 E11.3594
G1 X108.416 Y108.416 E12.2619
G1 X107.737 Y108.416 E12.2877
G1 X91.584 Y92.263 E13.1538
G1 X91.584 Y92.942 E13.1796
G1 X107.058 Y108.416 E14.0093
G1 X106.380 Y108.416 E14.0351
G1 X91.584 Y93.620 E14.8284
G1 X91.584 Y94.299 E14.8542
G1 X105.701 Y108.416 E15.6111
G1 X105.022 Y108.416 E15.6369
G1 X91.584 Y94.978 E16.3575
G1 X91.584 Y95.657 E16.3832
G1 X104.343 Y108.416 E17.0674
G1 X103.664 Y108.416 E17.0931
G1 X91.584 Y96.336 E17.7409
G1 X91.584 Y97.015 E17.7666
G1 X102.985 Y108.416 E18.3780
G1 X102.307 Y108.416 E18.4037
G1 X91.584 Y97.693 E18.9787
G1 X91.584 Y98.372 E19.0044
G1 X101.628 Y108.416 E19.5430
G1 X100.949 Y108.416 E19.5687
G1 X91.584 Y99.051 E20.0709
G1 X91.584 Y99.730 E20.0966
G1 X100.270 Y108.416 E20.5624
G1 X99.591 Y108.416 E20.5881
G1 X91.584 Y100.409 E21.0175
G1 X91.584 Y101.087 E21.0433
G1 X98.913 Y108.416 E21.4362
G1 X98.234 Y108.416 E21.4620
G1 X91.584 Y101.766 E21.8185
G1 X91.584 Y102.445 E21.8443
G1 X97.555 Y108.416 E22.1644
G1 X96.876 Y108.416 E22.1902
G1 X91.584 Y103.124 E22.4740
G1 X91.584 Y103.803 E22.4997
G1 X96.197 Y108.416 E22.7471
G1 X95.518 Y108.416 E22.7728
G1 X91.584 Y104.482 E22.9838
G1 X91.584 Y105.160 E23.0095
G1 X94.840 Y108.416 E23.1841
G1 X94.161 Y108.416 E23.2098
G1 X91.584 Y105.839 E23.3480
G1 X91.584 Y106.518 E23.3737
G1 X93.482 Y108.416 E23.4755
G1 X92.803 Y108.416 E23.5012
G1 X91.584 Y107.197 E23.5666
G1 X91.584 Y107.876 E23.5923
G1 X92.040 Y108.331 E23.6168
G1 X92.124 Y108.416 F1080
G92 E0
G1 E-6.0000 F3600
G1 Z0.500 F800
; layer 2, Z = 0.38
M104 S200 T0
M106 S17
; tool H0.200 W0.400
; inner perimeter
G1 X91.000 Y91.000 F3400
G1 Z0.380 F800
G1 E-0.1000 F3600
G92 E0
G1 X109.000 Y91.000 E0.5687 F2520
G1 X109.000 Y109.000 E1.1375
G1 X91.000 Y109.000 E1.7062
G1 X91.000 Y91.120 E2.2712
G1 X91.000 Y91.000 F2520
; inner perimeter
G1 X90.600 Y90.600 F3400
G92 E0
G1 X109.400 Y90.600 E0.5940 F2340
G1 X109.400 Y109.400 E1.1881
G1 X90.600 Y109.400 E1.7821
G1 X90.600 Y90.720 E2.3723
G1 X90.600 Y90.600 F2340
; outer perimeter
G1 X90.200 Y90.200 F3400
G92 E0
G1 X109.800 Y90.200 E0.6193 F2160
G1 X109.800 Y109.800 E1.2386
G1 X90.200 Y109.800 E1.8579
G1 X90.200 Y90.320 E2.4734
G1 X90.200 Y90.200 F2160
; solid layer
G1 X91.320 Y91.709 F3400
G92 E0
G1 X91.709 Y91.320 E0.0174 F2160
G1 X92.275 Y91.320 E0.0353
G1 X91.320 Y92.275 E0.0780
G1 X91.320 Y92.841 E0.0958
G1 X92.841 Y91.320 E0.1638
G1 X93.407 Y91.320 E0.1817
G1 X91.320 Y93.407 E0.2749
G1 X91.320 Y93.972 E0.2928
G1 X93.972 Y91.320 E0.4113
G1 X94.538 Y91.320 E0.4292
G1 X91.320 Y94.538 E0.5730
G1 X91.320 Y95.104 E0.5908
G1 X95.104 Y91.320 E0.7599
G1 X95.669 Y91.320 E0.7778
G1 X91.320 Y95.669 E0.9721
G1 X91.320 Y96.235 E0.9900
G1 X96.235 Y91.320 E1.2096
G1 X96.801 Y91.320 E1.2275
G1 X91.320 Y96.801 E1.4724
G1 X91.320 Y97.366 E1.4903
G1 X97.366 Y91.320 E1.7605
G1 X97.932 Y91.320 E1.7783
G1 X91.320 Y97.932 E2.0738
G1 X91.320 Y98.498 E2.0917
G1 X98.498 Y91.320 E2.4124
G1 X99.063 Y91.320 E2.4303
G1 X91.320 Y99.063 E2.7763
G1 X91.320 Y99.629 E2.7942
G1 X99.629 Y91.320 E3.1654
G1 X100.195 Y91.320 E3.1833
G1 X91.320 Y100.195 E3.5799
G1 X91.320 Y100.760 E3.5978
G1 X100.760 Y91.320 E4.0196
G1 X101.326 Y91.320 E4.0375
G1 X91.320 Y101.326 E4.4846
G1 X91.320 Y101.892 E4.5025
G1 X101.892 Y91.320 E4.9749
G1 X102.457 Y91.320 E4.9928
G1 X91.320 Y102.457 E5.4904
G1 X91.320 Y103.023 E5.5083
G1 X103.023 Y91.320 E6.0313
G1 X103.589 Y91.320 E6.0491
G1 X91.320 Y103.589 E6.5974
G1 X91.320 Y104.155 E6.6153
G1 X104.155 Y91.320 E7.1888
G1 X104.720 Y91.320 E7.2066
G1 X91.320 Y104.720 E7.8054
G1 X91.320 Y105.286 E7.8233
G1 X105.286 Y91.320 E8.4474
G1 X105.852 Y91.320 E8.4652
G1 X91.320 Y105.852 E9.1146
G1 X91.320 Y106.417 E9.1325
G1 X106.417 Y91.320 E9.8071
G1 X106.983 Y91.320 E9.8250
G1 X91.320 Y106.983 E10.5249
G1 X91.320 Y107.549 E10.5427
G1 X107.549 Y91.320 E11.2679
G1 X108.114 Y91.320 E11.2858
G1 X91.320 Y108.114 E12.0363
G1 X91.320 Y108.680 E12.0541
G1 X108.680 Y91.320 E12.8299
G1 X108.680 Y91.886 E12.8477
G1 X91.886 Y108.680 E13.5982
G1 X92.451 Y108.680 E13.6161
G1 X108.680 Y92.451 E14.3412
G1 X108.680 Y93.017 E14.3591
G1 X93.017 Y108.680 E15.0590
G1 X93.583 Y108.680 E15.0769
G1 X108.680 Y93.583 E15.7515
G1 X108.680 Y94.148 E15.7694
G1 X94.148 Y108.680 E16.4187
G1 X94.714 Y108.680 E16.4366
G1 X108.680 Y94.714 E17.0607
G1 X108.680 Y95.280 E17.0785
G1 X95.280 Y108.680 E17.6773
G1 X95.846 Y108.680 E17.6952
G1 X108.680 Y95.846 E18.2687
G1 X108.680 Y96.411 E18.2866
G1 X96.411 Y108.680 E18.8348
G1 X96.977 Y108.680 E18.8527
G1 X108.680 Y96.977 E19.3756
G1 X108.680 Y97.543 E19.3935
G1 X97.543 Y108.680 E19.8912
G1 X98.108 Y108.680 E19.9091
G1 X108.680 Y98.108 E20.3815
G1 X108.680 Y98.674 E20.3993
G1 X98.674 Y108.680 E20.8465
G1 X99.240 Y108.680 E20.8643
G1 X108.680 Y99.240 E21.2862
G1 X108.680 Y99.805 E21.3041
G1 X99.805 Y108.680 E21.7006
G1 X100.371 Y108.680 E21.7185
G1 X108.680 Y100.371 E22.0898
G1 X108.680 Y100.937 E22.1077
G1 X100.937 Y108.680 E22.4537
G1 X101.502 Y108.680 E22.4715
G1 X108.680 Y101.502 E22.7923
G1 X108.680 Y102.068 E22.8101
G1 X102.068 Y108.680 E23.1056
G1 X102.634 Y108.680 E23.1235
G1 X108.680 Y102.634 E23.3937
G1 X108.680 Y103.199 E23.4115
G1 X103.199 Y108.680 E23.6564
G1 X103.765 Y108.680 E23.6743
G1 X108.680 Y103.765 E23.8939
G1 X108.680 Y104.331 E23.9118
G1 X104.331 Y108.680 E24.1061
G1 X104.896 Y108.680 E24.1240
G1 X108.680 Y104.896 E24.2931
G1 X108.680 Y105.462 E24.3110
G1 X105.462 Y108.680 E24.4547
G1 X106.028 Y108.680 E24.4726
G1 X108.680 Y106.028 E24.5911
G1 X108.680 Y106.594 E24.6090
G1 X106.594 Y108.680 E24.7022
G1 X107.159 Y108.680 E24.7201
G1 X108.680 Y107.159 E24.7881
G1 X108.680 Y107.725 E24.8059
G1 X107.725 Y108.680 E24.8486
G1 X108.291 Y108.680 E24.8665
G1 X108.595 Y108.376 E24.8801
G1 X108.680 Y108.291 F2160
G92 E0
G1 E-6.0000 F3600
G1 Z0.700 F800
; layer 3, Z = 0.58
M106 S89
; inner perimeter
G1 X91.000 Y91.000 F3400
G1 Z0.580 F800
G1 E-0.1000 F3600
G92 E0
